(.../pcb-gcode-3.6.2.4/pcb-gcode.ulp)
(Copyright 2005 - 2012 by John Johnson)
(See readme.txt for licensing terms.)
(This file generated from the board:)
(.../KKK_valdiklis_v3/KKK_valdiklis.brd)
(Current profile is .../pcb-gcode-3.6.2.4/profiles/mach.pp  )
(This file generated 2016.10.04 22:19:48)
(Settings from pcb-machine.h)
(spindle on time = 3.0000)
(  Tool Size)
(0.1778  )
(spindle speed = 30000.0000)
(tool change at 0.0000  0.0000  25.4000 )
(feed rate xy = F508   )
(feed rate z  = F254   )
(Z Axis Settings)
(  High     Up        Down     Drill)
(12.7000 	2.5400  	-0.1778 	-0.8128 )
(Settings from pcb-defaults.h)
(isolate min = 0.0254)
(isolate max = 0.5080)
(isolate step = 0.1270)
(Generated top outlines, bottom outlines, bottom drill, )
(Unit of measure: mm)
(Metric Mode)
G21
(Absolute Coordinates)
G90
S30000
G00 Z12.7000 
G00 X0.0000  Y0.0000  
M03
G04 P3.000000
G00 Z2.5400  
G00 X-0.6646 Y20.7427 
G01 Z-0.1778 F254   
G01 X-0.6095 Y20.8382 F508   
G01 X-0.5809 Y20.9448 
Y34.0552 
X-0.6095 Y34.1618 
X-0.6646 Y34.2573 
X-5.6875 Y39.2802 
X-5.7077 Y39.3053 
X-5.7263 Y39.3190 
X-5.7427 Y39.3354 
X-5.7706 Y39.3515 
X-5.7967 Y39.3706 
X-5.8182 Y39.3790 
X-5.8382 Y39.3905 
X-5.8694 Y39.3989 
X-5.8995 Y39.4106 
X-5.9225 
X-5.9448 Y39.4191 
X-5.9771 
X-6.0092 Y39.4226 
X-6.0321 Y39.4191 
X-6.0552 
X-6.0864 Y39.4107 
X-6.1183 Y39.4058 
X-6.1394 Y39.3965 
X-6.1618 Y39.3905 
X-6.1897 Y39.3744 
X-6.2193 Y39.3614 
X-6.2373 Y39.3469 
X-6.2573 Y39.3354 
X-6.2802 Y39.3125 
X-6.3053 Y39.2923 
X-6.3190 Y39.2737 
X-6.3354 Y39.2573 
X-6.3515 Y39.2294 
X-6.3706 Y39.2033 
X-6.3790 Y39.1818 
X-6.3905 Y39.1618 
Y39.1541 
X-6.4330 
X-6.5968 Y39.1281 
X-6.7546 Y39.0769 
X-6.9025 Y39.0015 
X-7.0367 Y38.9040 
X-7.1540 Y38.7867 
X-7.2515 Y38.6525 
X-7.3269 Y38.5046 
X-7.3547 Y38.4191 
X-31.5809 
Y39.7154 
X-31.4759 Y39.7363 
X-31.3048 Y39.8072 
X-31.1509 Y39.9100 
X-31.0200 Y40.0409 
X-30.9172 Y40.1948 
X-30.8463 Y40.3659 
X-30.8102 Y40.5474 
Y40.7326 
X-30.8463 Y40.9141 
X-30.9172 Y41.0852 
X-31.0200 Y41.2391 
X-31.1509 Y41.3700 
X-31.3048 Y41.4728 
X-31.4759 Y41.5437 
X-31.6574 Y41.5798 
X-31.8426 
X-32.0241 Y41.5437 
X-32.1952 Y41.4728 
X-32.3491 Y41.3700 
X-32.4800 Y41.2391 
X-32.5828 Y41.0852 
X-32.6537 Y40.9141 
X-32.6898 Y40.7326 
Y40.5474 
X-32.6537 Y40.3659 
X-32.5828 Y40.1948 
X-32.4800 Y40.0409 
X-32.4212 Y39.9821 
Y39.9683 
Y29.1736 
X-32.6132 Y28.9795 
X-32.7591 Y29.0269 
X-32.9323 Y29.0543 
X-33.1077 
X-33.2809 Y29.0269 
X-33.4477 Y28.9727 
X-33.6040 Y28.8930 
X-33.7459 Y28.7899 
X-33.8699 Y28.6659 
X-33.9730 Y28.5240 
X-34.0253 Y28.4214 
X-34.0295 
X-34.0422 Y28.4191 
X-39.6335 
X-39.6870 Y28.5240 
X-39.7901 Y28.6659 
X-39.9141 Y28.7899 
X-40.0560 Y28.8930 
X-40.2123 Y28.9727 
X-40.3791 Y29.0269 
X-40.5523 Y29.0543 
X-40.7277 
X-40.9009 Y29.0269 
X-41.0677 Y28.9727 
X-41.2240 Y28.8930 
X-41.3659 Y28.7899 
X-41.4899 Y28.6659 
X-41.5930 Y28.5240 
X-41.6465 Y28.4191 
X-47.2535 
X-47.3070 Y28.5240 
X-47.4101 Y28.6659 
X-47.5341 Y28.7899 
X-47.6760 Y28.8930 
X-47.8323 Y28.9727 
X-47.9991 Y29.0269 
X-48.1723 Y29.0543 
X-48.3477 
X-48.5209 Y29.0269 
X-48.5809 Y29.0074 
Y38.4857 
X-48.5341 Y38.4663 
X-48.3526 Y38.4302 
X-48.1674 
X-47.9859 Y38.4663 
X-47.8148 Y38.5372 
X-47.6609 Y38.6400 
X-47.5300 Y38.7709 
X-47.4272 Y38.9248 
X-47.3563 Y39.0959 
X-47.3202 Y39.2774 
Y39.4626 
X-47.3563 Y39.6441 
X-47.4272 Y39.8152 
X-47.5300 Y39.9691 
X-47.6609 Y40.1000 
X-47.8148 Y40.2028 
X-47.9859 Y40.2737 
X-48.1674 Y40.3098 
X-48.3526 
X-48.5341 Y40.2737 
X-48.7052 Y40.2028 
X-48.8591 Y40.1000 
X-48.9900 Y39.9691 
X-49.0928 Y39.8152 
X-49.1637 Y39.6441 
X-49.1998 Y39.4626 
Y39.3687 
X-49.2368 Y39.3502 
X-49.2463 Y39.3417 
X-49.2573 Y39.3354 
X-49.2875 Y39.3052 
X-49.3193 Y39.2770 
X-49.3264 Y39.2663 
X-49.3354 Y39.2573 
X-49.3567 Y39.2204 
X-49.3801 Y39.1849 
X-49.3842 Y39.1728 
X-49.3905 Y39.1618 
X-49.4016 Y39.1206 
X-49.4150 Y39.0802 
Y39.0675 
X-49.4191 Y39.0552 
Y39.0126 
X-49.4216 Y38.9700 
X-49.4191 Y38.9576 
Y36.4191 
X-52.8264 
X-55.5809 Y39.1736 
Y39.7467 
X-55.4348 Y39.8072 
X-55.2809 Y39.9100 
X-55.1500 Y40.0409 
X-55.0472 Y40.1948 
X-54.9763 Y40.3659 
X-54.9402 Y40.5474 
Y40.7326 
X-54.9763 Y40.9141 
X-55.0472 Y41.0852 
X-55.1500 Y41.2391 
X-55.2809 Y41.3700 
X-55.4348 Y41.4728 
X-55.6059 Y41.5437 
X-55.7874 Y41.5798 
X-55.9726 
X-55.9847 
X-57.5809 Y43.1736 
Y43.9928 
Y44.0407 
Y44.0478 
Y44.0552 
X-57.5933 Y44.1015 
X-57.6041 Y44.1482 
X-57.6076 Y44.1547 
Y44.1618 
X-57.6335 Y44.2033 
X-57.6453 Y44.2256 
Y45.1867 
X-57.6751 Y45.3364 
X-57.7335 Y45.4774 
X-57.8122 Y45.5951 
X-55.6646 Y47.7427 
X-55.6095 Y47.8382 
X-55.5809 Y47.9448 
Y58.3150 
X-55.5130 Y58.3431 
X-55.3862 Y58.4278 
X-55.2782 Y58.5358 
X-55.1935 Y58.6626 
X-55.1351 Y58.8036 
X-55.1053 Y58.9533 
Y60.4267 
X-55.1351 Y60.5764 
X-55.1935 Y60.7174 
X-55.2782 Y60.8442 
X-55.3862 Y60.9521 
X-55.5130 Y61.0369 
X-55.6540 Y61.0953 
X-55.8037 Y61.1251 
X-55.9563 
X-56.1060 Y61.0953 
X-56.2470 Y61.0369 
X-56.3738 Y60.9521 
X-56.4817 Y60.8442 
X-56.5665 Y60.7174 
X-56.6249 Y60.5764 
X-56.6547 Y60.4267 
Y58.9533 
X-56.6249 Y58.8036 
X-56.5665 Y58.6626 
X-56.4817 Y58.5358 
X-56.4191 Y58.4731 
Y48.1736 
X-58.8135 Y45.7792 
X-58.9138 Y45.7121 
X-59.0217 Y45.6042 
X-59.0888 Y45.5039 
X-59.2613 Y45.3314 
X-59.2661 Y45.3284 
X-59.3002 Y45.2925 
X-59.3354 Y45.2573 
X-59.3382 Y45.2524 
X-59.3421 Y45.2483 
X-59.3657 Y45.2048 
X-59.3905 Y45.1618 
Y45.1563 
X-59.3947 Y45.1513 
X-59.4062 Y45.1031 
X-59.4191 Y45.0552 
Y45.0495 
Y45.0440 
Y44.9945 
Y44.9448 
Y44.9394 
Y44.9337 
X-59.4034 Y44.8862 
X-59.3905 Y44.8382 
X-59.3877 Y44.8333 
Y44.8279 
X-59.3602 Y44.7857 
X-59.3354 Y44.7427 
X-59.3314 Y44.7387 
X-59.3284 Y44.7339 
X-59.2925 Y44.6998 
X-59.2573 Y44.6646 
X-59.2524 Y44.6618 
X-59.1947 Y44.6071 
Y43.7133 
X-59.1649 Y43.5636 
X-59.1251 Y43.4676 
X-61.0129 Y41.5798 
X-61.0526 
X-61.2341 Y41.5437 
X-61.4052 Y41.4728 
X-61.5591 Y41.3700 
X-61.6900 Y41.2391 
X-61.7928 Y41.0852 
X-61.8637 Y40.9141 
X-61.8998 Y40.7326 
Y40.5474 
X-61.8637 Y40.3659 
X-61.7928 Y40.1948 
X-61.6900 Y40.0409 
X-61.5591 Y39.9100 
X-61.4052 Y39.8072 
X-61.2341 Y39.7363 
X-61.0526 Y39.7002 
X-60.8674 
X-60.6859 Y39.7363 
X-60.5148 Y39.8072 
X-60.3609 Y39.9100 
X-60.2300 Y40.0409 
X-60.1272 Y40.1948 
X-60.0563 Y40.3659 
X-60.0202 Y40.5474 
Y40.7326 
X-60.0563 Y40.9141 
X-60.1272 Y41.0852 
X-60.2053 Y41.2020 
X-58.4191 Y42.9882 
Y42.9448 
X-58.3905 Y42.8382 
X-58.3354 Y42.7427 
X-56.6988 Y41.1061 
X-56.7128 Y41.0852 
X-56.7837 Y40.9141 
X-56.8198 Y40.7326 
Y40.5474 
X-56.7837 Y40.3659 
X-56.7128 Y40.1948 
X-56.6100 Y40.0409 
X-56.4791 Y39.9100 
X-56.4191 Y39.8699 
Y38.9448 
X-56.3905 Y38.8382 
X-56.3354 Y38.7427 
X-53.3354 Y35.7427 
X-53.2573 Y35.6646 
X-53.1618 Y35.6095 
X-53.0552 Y35.5809 
X-49.4191 
Y28.4191 
X-54.8735 
X-54.9270 Y28.5240 
X-55.0301 Y28.6659 
X-55.1541 Y28.7899 
X-55.2960 Y28.8930 
X-55.4523 Y28.9727 
X-55.6191 Y29.0269 
X-55.7923 Y29.0543 
X-55.9677 
X-56.1409 Y29.0269 
X-56.3077 Y28.9727 
X-56.4640 Y28.8930 
X-56.6059 Y28.7899 
X-56.7299 Y28.6659 
X-56.8330 Y28.5240 
X-56.8865 Y28.4191 
X-62.4935 
X-62.5470 Y28.5240 
X-62.6501 Y28.6659 
X-62.7741 Y28.7899 
X-62.9160 Y28.8930 
X-63.0723 Y28.9727 
X-63.2391 Y29.0269 
X-63.4123 Y29.0543 
X-63.5877 
X-63.7609 Y29.0269 
X-63.9277 Y28.9727 
X-64.0840 Y28.8930 
X-64.2259 Y28.7899 
X-64.3499 Y28.6659 
X-64.4530 Y28.5240 
X-64.5065 Y28.4191 
X-72.8264 
X-75.5141 Y31.1068 
X-75.4700 Y31.1509 
X-75.3672 Y31.3048 
X-75.2963 Y31.4759 
X-75.2602 Y31.6574 
Y31.8426 
X-75.2963 Y32.0241 
X-75.3672 Y32.1952 
X-75.4700 Y32.3491 
X-75.6009 Y32.4800 
X-75.7548 Y32.5828 
X-75.9259 Y32.6537 
X-76.1074 Y32.6898 
X-76.2926 
X-76.4741 Y32.6537 
X-76.6452 Y32.5828 
X-76.7991 Y32.4800 
X-76.9300 Y32.3491 
X-77.0328 Y32.1952 
X-77.1037 Y32.0241 
X-77.1398 Y31.8426 
Y31.6574 
X-77.1037 Y31.4759 
X-77.0328 Y31.3048 
X-76.9300 Y31.1509 
X-76.7991 Y31.0200 
X-76.6452 Y30.9172 
X-76.4741 Y30.8463 
X-76.3850 Y30.8286 
X-76.3624 Y30.7895 
X-76.3357 Y30.7431 
X-76.2961 Y30.7034 
X-76.2577 Y30.6649 
X-73.3354 Y27.7427 
X-73.2573 Y27.6646 
X-73.1618 Y27.6095 
X-73.0552 Y27.5809 
X-73.0118 
X-82.1736 Y18.4191 
X-83.9917 
X-84.0626 Y18.4665 
X-84.2036 Y18.5249 
X-84.3533 Y18.5547 
X-84.5809 
Y19.5453 
X-84.3533 
X-84.2036 Y19.5751 
X-84.0626 Y19.6335 
X-83.9358 Y19.7183 
X-83.8278 Y19.8262 
X-83.7431 Y19.9530 
X-83.6847 Y20.0940 
X-83.6549 Y20.2437 
Y20.3963 
X-83.6847 Y20.5460 
X-83.7431 Y20.6870 
X-83.8278 Y20.8138 
X-83.9358 Y20.9217 
X-84.0626 Y21.0065 
X-84.2036 Y21.0649 
X-84.3533 Y21.0947 
X-85.8267 
X-85.9764 Y21.0649 
X-86.1174 Y21.0065 
X-86.2442 Y20.9217 
X-86.3521 Y20.8138 
X-86.4369 Y20.6870 
X-86.4953 Y20.5460 
X-86.5251 Y20.3963 
Y20.2437 
X-86.4953 Y20.0940 
X-86.4369 Y19.9530 
X-86.3521 Y19.8262 
X-86.2442 Y19.7183 
X-86.1174 Y19.6335 
X-85.9764 Y19.5751 
X-85.8267 Y19.5453 
X-85.4191 
Y18.5547 
X-85.8267 
X-85.9764 Y18.5249 
X-86.1174 Y18.4665 
X-86.1883 Y18.4191 
X-91.6117 
X-91.6826 Y18.4665 
X-91.8236 Y18.5249 
X-91.9733 Y18.5547 
X-92.5809 
Y19.5453 
X-91.9733 
X-91.8236 Y19.5751 
X-91.6826 Y19.6335 
X-91.5558 Y19.7183 
X-91.4479 Y19.8262 
X-91.3631 Y19.9530 
X-91.3047 Y20.0940 
X-91.2749 Y20.2437 
Y20.3963 
X-91.3047 Y20.5460 
X-91.3631 Y20.6870 
X-91.4479 Y20.8138 
X-91.5558 Y20.9217 
X-91.6826 Y21.0065 
X-91.8236 Y21.0649 
X-91.9733 Y21.0947 
X-93.4467 
X-93.5964 Y21.0649 
X-93.7374 Y21.0065 
X-93.8642 Y20.9217 
X-93.9721 Y20.8138 
X-94.0569 Y20.6870 
X-94.1153 Y20.5460 
X-94.1406 Y20.4191 
X-98.8264 
X-101.6646 Y23.2573 
X-101.7427 Y23.3354 
X-103.3200 Y24.9127 
X-103.2959 Y24.9488 
X-103.2241 Y25.1222 
X-103.1875 Y25.3062 
Y25.4938 
X-103.2241 Y25.6778 
X-103.2959 Y25.8512 
X-103.4001 Y26.0072 
X-103.5328 Y26.1399 
X-103.5809 Y26.1720 
Y29.8264 
X-93.4840 Y39.9233 
X-93.3967 Y39.8360 
X-93.2625 Y39.7385 
X-93.1146 Y39.6631 
X-92.9568 Y39.6119 
X-92.7930 Y39.5859 
X-92.6270 
X-92.4632 Y39.6119 
X-92.3054 Y39.6631 
X-92.1575 Y39.7385 
X-92.0233 Y39.8360 
X-91.9060 Y39.9533 
X-91.8085 Y40.0875 
X-91.7331 Y40.2354 
X-91.6819 Y40.3932 
X-91.6559 Y40.5570 
Y40.5809 
X-90.9448 
X-90.8382 Y40.6095 
X-90.7427 Y40.6646 
X-89.7427 Y41.6646 
X-89.6646 Y41.7427 
X-89.6095 Y41.8382 
X-89.5809 Y41.9448 
Y47.0552 
X-89.6095 Y47.1618 
X-89.6646 Y47.2573 
X-89.7427 Y47.3354 
X-89.8382 Y47.3905 
X-89.9448 Y47.4191 
X-90.6005 
X-90.6072 Y47.4352 
X-90.7100 Y47.5891 
X-90.8409 Y47.7200 
X-90.9948 Y47.8228 
X-91.1659 Y47.8937 
X-91.3474 Y47.9298 
X-91.5326 
X-91.7141 Y47.8937 
X-91.8852 Y47.8228 
X-92.0391 Y47.7200 
X-92.1700 Y47.5891 
X-92.2728 Y47.4352 
X-92.3437 Y47.2641 
X-92.3798 Y47.0826 
Y46.8974 
X-92.3437 Y46.7159 
X-92.2728 Y46.5448 
X-92.1700 Y46.3909 
X-92.0391 Y46.2600 
X-91.8852 Y46.1572 
X-91.7141 Y46.0863 
X-91.5326 Y46.0502 
X-91.3474 
X-91.1659 Y46.0863 
X-90.9948 Y46.1572 
X-90.8409 Y46.2600 
X-90.7100 Y46.3909 
X-90.6072 Y46.5448 
X-90.5922 Y46.5809 
X-90.4191 
Y42.1736 
X-91.1736 Y41.4191 
X-91.9886 
X-91.9989 
X-92.0233 Y41.4440 
X-92.1575 Y41.5415 
X-92.3054 Y41.6169 
X-92.4632 Y41.6681 
X-92.6270 Y41.6941 
X-92.7930 
X-92.9568 Y41.6681 
X-93.1146 Y41.6169 
X-93.2625 Y41.5415 
X-93.3967 Y41.4440 
X-93.5140 Y41.3267 
X-93.6115 Y41.1925 
X-93.6869 Y41.0446 
X-93.7381 Y40.8868 
X-93.7442 Y40.8485 
X-104.2573 Y30.3354 
X-104.3354 Y30.2573 
X-104.3905 Y30.1618 
X-104.4191 Y30.0552 
Y26.3154 
X-104.5912 Y26.2441 
X-104.7472 Y26.1399 
X-104.8799 Y26.0072 
X-104.9841 Y25.8512 
X-105.0559 Y25.6778 
X-105.0925 Y25.4938 
Y25.3062 
X-105.0559 Y25.1222 
X-104.9841 Y24.9488 
X-104.8799 Y24.7928 
X-104.7472 Y24.6601 
X-104.5912 Y24.5559 
X-104.4178 Y24.4841 
X-104.2338 Y24.4475 
X-104.0462 
X-104.0412 
X-102.5927 Y23.0000 
X-107.3354 Y18.2573 
X-107.3905 Y18.1618 
X-107.4191 Y18.0552 
Y12.6632 
X-107.4566 Y12.6071 
X-107.5226 Y12.4476 
X-107.5563 Y12.2783 
Y10.5817 
X-107.5226 Y10.4124 
X-107.4566 Y10.2529 
X-107.4191 Y10.1968 
Y3.9836  
X-107.5387 Y4.0635  
X-107.6967 Y4.1289  
X-107.8645 Y4.1623  
X-108.0355 
X-108.2033 Y4.1289  
X-108.3613 Y4.0635  
X-108.5035 Y3.9684  
X-108.6244 Y3.8475  
X-108.7195 Y3.7053  
X-108.7849 Y3.5473  
X-108.8183 Y3.3795  
Y1.7005  
X-108.7849 Y1.5327  
X-108.7195 Y1.3747  
X-108.6244 Y1.2325  
X-108.5035 Y1.1115  
X-108.3613 Y1.0165  
X-108.2033 Y0.9511  
X-108.0355 Y0.9177  
X-107.8645 
X-107.6967 Y0.9511  
X-107.5387 Y1.0165  
X-107.3965 Y1.1115  
X-107.2755 Y1.2325  
X-107.1805 Y1.3747  
X-107.1151 Y1.5327  
X-107.0817 Y1.7005  
Y3.3795  
X-107.1089 Y3.5162  
X-106.3169 Y2.7242  
X-106.3012 Y2.7034  
X-106.2783 Y2.6856  
Y1.7005  
X-106.2449 Y1.5327  
X-106.1795 Y1.3747  
X-106.0845 Y1.2325  
X-105.9635 Y1.1115  
X-105.8213 Y1.0165  
X-105.6633 Y0.9511  
X-105.4955 Y0.9177  
X-105.3245 
X-105.1567 Y0.9511  
X-104.9987 Y1.0165  
X-104.8565 Y1.1115  
X-104.7355 Y1.2325  
X-104.6405 Y1.3747  
X-104.5751 Y1.5327  
X-104.5417 Y1.7005  
Y3.3795  
X-104.5751 Y3.5473  
X-104.6405 Y3.7053  
X-104.7355 Y3.8475  
X-104.8565 Y3.9684  
X-104.9987 Y4.0635  
X-105.1567 Y4.1289  
X-105.3245 Y4.1623  
X-105.4955 
X-105.6633 Y4.1289  
X-105.8213 Y4.0635  
X-105.9635 Y3.9684  
X-106.0845 Y3.8475  
X-106.1527 Y3.7454  
X-106.5809 Y4.1736  
Y9.7942  
X-106.4244 Y9.8254  
X-106.2649 Y9.8914  
X-106.1214 Y9.9873  
X-105.9993 Y10.1094 
X-105.9034 Y10.2529 
X-105.8374 Y10.4124 
X-105.8037 Y10.5817 
Y12.2783 
X-105.8374 Y12.4476 
X-105.9034 Y12.6071 
X-105.9993 Y12.7506 
X-106.1214 Y12.8727 
X-106.2649 Y12.9686 
X-106.4244 Y13.0346 
X-106.5809 Y13.0657 
Y17.8264 
X-102.0000 Y22.4073 
X-99.3354 Y19.7427 
X-99.2573 Y19.6646 
X-99.1618 Y19.6095 
X-99.0552 Y19.5809 
X-93.6104 
X-93.5964 Y19.5751 
X-93.4467 Y19.5453 
X-93.4191 
Y18.5547 
X-93.4467 
X-93.5964 Y18.5249 
X-93.7374 Y18.4665 
X-93.8642 Y18.3817 
X-93.9721 Y18.2738 
X-94.0569 Y18.1470 
X-94.1153 Y18.0060 
X-94.1451 Y17.8563 
Y17.7037 
X-94.1153 Y17.5540 
X-94.0569 Y17.4130 
X-93.9721 Y17.2862 
X-93.8642 Y17.1782 
X-93.7374 Y17.0935 
X-93.5964 Y17.0351 
X-93.4467 Y17.0053 
X-91.9733 
X-91.8236 Y17.0351 
X-91.6826 Y17.0935 
X-91.5558 Y17.1782 
X-91.4479 Y17.2862 
X-91.3631 Y17.4130 
X-91.3047 Y17.5540 
X-91.2993 Y17.5809 
X-86.5007 
X-86.4953 Y17.5540 
X-86.4369 Y17.4130 
X-86.3521 Y17.2862 
X-86.2442 Y17.1782 
X-86.1174 Y17.0935 
X-85.9764 Y17.0351 
X-85.8267 Y17.0053 
X-84.3533 
X-84.2036 Y17.0351 
X-84.0626 Y17.0935 
X-83.9358 Y17.1782 
X-83.8278 Y17.2862 
X-83.7431 Y17.4130 
X-83.6847 Y17.5540 
X-83.6793 Y17.5809 
X-82.1736 
X-73.4191 Y8.8264  
Y3.0257  
X-73.4227 Y2.9965  
X-73.4191 Y2.9708  
Y2.9448  
X-73.4115 Y2.9163  
X-73.4074 Y2.8872  
X-73.3973 Y2.8633  
X-73.3905 Y2.8382  
X-73.3758 Y2.8127  
X-73.3643 Y2.7856  
X-73.3483 Y2.7651  
X-73.3354 Y2.7427  
X-73.3145 Y2.7218  
X-73.2964 Y2.6986  
X-73.2757 Y2.6830  
X-73.2583 Y2.6656  
Y1.7005  
X-73.2249 Y1.5327  
X-73.1595 Y1.3747  
X-73.0644 Y1.2325  
X-72.9435 Y1.1115  
X-72.8013 Y1.0165  
X-72.6433 Y0.9511  
X-72.4755 Y0.9177  
X-72.3045 
X-72.1367 Y0.9511  
X-71.9787 Y1.0165  
X-71.8365 Y1.1115  
X-71.7155 Y1.2325  
X-71.6205 Y1.3747  
X-71.5551 Y1.5327  
X-71.5217 Y1.7005  
Y3.3795  
X-71.5551 Y3.5473  
X-71.6205 Y3.7053  
X-71.7155 Y3.8475  
X-71.8365 Y3.9684  
X-71.9787 Y4.0635  
X-72.1367 Y4.1289  
X-72.3045 Y4.1623  
X-72.4755 
X-72.5809 Y4.1413  
Y9.0552  
X-72.6095 Y9.1618  
X-72.6646 Y9.2573  
X-81.4073 Y18.0000 
X-71.8264 Y27.5809 
X-64.5550 
X-64.5327 Y27.5123 
X-64.4530 Y27.3560 
X-64.3499 Y27.2141 
X-64.2259 Y27.0901 
X-64.0840 Y26.9870 
X-63.9277 Y26.9073 
X-63.7609 Y26.8531 
X-63.5877 Y26.8257 
X-63.4123 
X-63.2391 Y26.8531 
X-63.0723 Y26.9073 
X-62.9160 Y26.9870 
X-62.7741 Y27.0901 
X-62.6501 Y27.2141 
X-62.5470 Y27.3560 
X-62.4673 Y27.5123 
X-62.4450 Y27.5809 
X-56.9350 
X-56.9127 Y27.5123 
X-56.8330 Y27.3560 
X-56.7299 Y27.2141 
X-56.6059 Y27.0901 
X-56.4640 Y26.9870 
X-56.3077 Y26.9073 
X-56.1409 Y26.8531 
X-55.9677 Y26.8257 
X-55.7923 
X-55.6191 Y26.8531 
X-55.4523 Y26.9073 
X-55.2960 Y26.9870 
X-55.1541 Y27.0901 
X-55.0301 Y27.2141 
X-54.9270 Y27.3560 
X-54.8473 Y27.5123 
X-54.8250 Y27.5809 
X-49.3150 
X-49.2927 Y27.5123 
X-49.2130 Y27.3560 
X-49.1099 Y27.2141 
X-48.9859 Y27.0901 
X-48.8440 Y26.9870 
X-48.6877 Y26.9073 
X-48.5209 Y26.8531 
X-48.3477 Y26.8257 
X-48.1723 
X-47.9991 Y26.8531 
X-47.8323 Y26.9073 
X-47.6760 Y26.9870 
X-47.5341 Y27.0901 
X-47.4101 Y27.2141 
X-47.3070 Y27.3560 
X-47.2273 Y27.5123 
X-47.2050 Y27.5809 
X-41.6950 
X-41.6727 Y27.5123 
X-41.5930 Y27.3560 
X-41.4899 Y27.2141 
X-41.3659 Y27.0901 
X-41.2240 Y26.9870 
X-41.0677 Y26.9073 
X-40.9009 Y26.8531 
X-40.7277 Y26.8257 
X-40.5523 
X-40.3791 Y26.8531 
X-40.2123 Y26.9073 
X-40.0560 Y26.9870 
X-39.9141 Y27.0901 
X-39.7901 Y27.2141 
X-39.6870 Y27.3560 
X-39.6073 Y27.5123 
X-39.5850 Y27.5809 
X-34.0750 
X-34.0527 Y27.5123 
X-33.9730 Y27.3560 
X-33.8699 Y27.2141 
X-33.7459 Y27.0901 
X-33.6040 Y26.9870 
X-33.4477 Y26.9073 
X-33.2809 Y26.8531 
X-33.1077 Y26.8257 
X-32.9323 
X-32.7591 Y26.8531 
X-32.5923 Y26.9073 
X-32.4360 Y26.9870 
X-32.2941 Y27.0901 
X-32.1701 Y27.2141 
X-32.0670 Y27.3560 
X-31.9873 Y27.5123 
X-31.9650 Y27.5809 
X-26.4550 
X-26.4327 Y27.5123 
X-26.3530 Y27.3560 
X-26.2499 Y27.2141 
X-26.1259 Y27.0901 
X-25.9840 Y26.9870 
X-25.8277 Y26.9073 
X-25.6609 Y26.8531 
X-25.4877 Y26.8257 
X-25.3123 
X-25.1391 Y26.8531 
X-24.9723 Y26.9073 
X-24.8160 Y26.9870 
X-24.6741 Y27.0901 
X-24.5501 Y27.2141 
X-24.4470 Y27.3560 
X-24.3673 Y27.5123 
X-24.3131 Y27.6791 
X-24.2857 Y27.8523 
Y28.0277 
X-24.3131 Y28.2009 
X-24.3673 Y28.3677 
X-24.4470 Y28.5240 
X-24.5501 Y28.6659 
X-24.6741 Y28.7899 
X-24.8160 Y28.8930 
X-24.9723 Y28.9727 
X-25.1391 Y29.0269 
X-25.3123 Y29.0543 
X-25.4877 
X-25.6609 Y29.0269 
X-25.8277 Y28.9727 
X-25.9840 Y28.8930 
X-26.1259 Y28.7899 
X-26.2499 Y28.6659 
X-26.3530 Y28.5240 
X-26.4065 Y28.4191 
X-31.9882 
X-31.6646 Y28.7427 
X-31.6095 Y28.8382 
X-31.5809 Y28.9448 
Y37.5809 
X-7.2685 
X-7.2515 Y37.5475 
X-7.1540 Y37.4133 
X-7.0367 Y37.2960 
X-6.9025 Y37.1985 
X-6.7546 Y37.1231 
X-6.5968 Y37.0719 
X-6.4330 Y37.0459 
X-6.2670 
X-6.1032 Y37.0719 
X-5.9454 Y37.1231 
X-5.7975 Y37.1985 
X-5.6633 Y37.2960 
X-5.5460 Y37.4133 
X-5.4485 Y37.5475 
X-5.3731 Y37.6954 
X-5.3523 Y37.7596 
X-1.4191 Y33.8264 
Y21.1736 
X-9.1736 Y13.4191 
X-10.8200 
X-10.8309 Y13.4300 
X-10.9848 Y13.5328 
X-11.1559 Y13.6037 
X-11.3374 Y13.6398 
X-11.5226 
X-11.7041 Y13.6037 
X-11.8752 Y13.5328 
X-12.0291 Y13.4300 
X-12.1600 Y13.2991 
X-12.2628 Y13.1452 
X-12.3337 Y12.9741 
X-12.3698 Y12.7926 
Y12.6074 
X-12.3337 Y12.4259 
X-12.2628 Y12.2548 
X-12.1600 Y12.1009 
X-12.0291 Y11.9700 
X-11.8752 Y11.8672 
X-11.7041 Y11.7963 
X-11.5226 Y11.7602 
X-11.3374 
X-11.1559 Y11.7963 
X-10.9848 Y11.8672 
X-10.8309 Y11.9700 
X-10.7000 Y12.1009 
X-10.5972 Y12.2548 
X-10.5263 Y12.4259 
X-10.4955 Y12.5809 
X-8.9448 
X-8.8382 Y12.6095 
X-8.7427 Y12.6646 
X-0.7427 Y20.6646 
X-0.6646 Y20.7427 
G00 Z2.5400  
G00 X-2.8277 Y20.8849 
G01 Z-0.1778 F254   
G01 X-2.7968 Y20.9596 F508   
G01 X-2.7968 Y34.0404 
X-2.8277 Y34.1151 
X-2.8849 Y34.1723 
X-4.8277 Y36.1151 
X-4.8849 Y36.1723 
X-4.9596 Y36.2032 
X-5.5144 
X-5.5460 Y36.2467 
X-5.6633 Y36.3640 
X-5.7975 Y36.4615 
X-5.9454 Y36.5369 
X-6.1032 Y36.5881 
X-6.2670 Y36.6141 
X-6.4330 
X-6.5968 Y36.5881 
X-6.7546 Y36.5369 
X-6.9025 Y36.4615 
X-7.0367 Y36.3640 
X-7.1540 Y36.2467 
X-7.2515 Y36.1125 
X-7.3269 Y35.9646 
X-7.3781 Y35.8068 
X-7.4041 Y35.6430 
Y35.4770 
X-7.3781 Y35.3132 
X-7.3269 Y35.1554 
X-7.2515 Y35.0075 
X-7.1540 Y34.8733 
X-7.0367 Y34.7560 
X-6.9025 Y34.6585 
X-6.7546 Y34.5831 
X-6.5968 Y34.5319 
X-6.4330 Y34.5059 
X-6.2670 
X-6.1032 Y34.5319 
X-5.9454 Y34.5831 
X-5.7975 Y34.6585 
X-5.6633 Y34.7560 
X-5.5460 Y34.8733 
X-5.4485 Y35.0075 
X-5.3731 Y35.1554 
X-5.3219 Y35.3132 
X-5.2959 Y35.4770 
Y35.6430 
X-5.3203 Y35.7968 
X-5.0842 
X-3.2032 Y33.9158 
Y21.0842 
X-5.0842 Y19.2032 
X-5.3070 
X-5.3219 Y19.2968 
X-5.3731 Y19.4546 
X-5.4485 Y19.6025 
X-5.5460 Y19.7367 
X-5.6633 Y19.8540 
X-5.7975 Y19.9515 
X-5.9454 Y20.0269 
X-6.1032 Y20.0781 
X-6.2670 Y20.1041 
X-6.4330 
X-6.5968 Y20.0781 
X-6.7546 Y20.0269 
X-6.9025 Y19.9515 
X-7.0367 Y19.8540 
X-7.1540 Y19.7367 
X-7.2515 Y19.6025 
X-7.3269 Y19.4546 
X-7.3781 Y19.2968 
X-7.4041 Y19.1330 
Y18.9670 
X-7.3781 Y18.8032 
X-7.3269 Y18.6454 
X-7.2515 Y18.4975 
X-7.1540 Y18.3633 
X-7.0367 Y18.2460 
X-6.9025 Y18.1485 
X-6.7546 Y18.0731 
X-6.5968 Y18.0219 
X-6.4330 Y17.9959 
X-6.2670 
X-6.1032 Y18.0219 
X-5.9454 Y18.0731 
X-5.7975 Y18.1485 
X-5.6633 Y18.2460 
X-5.5460 Y18.3633 
X-5.4485 Y18.4975 
X-5.3731 Y18.6454 
X-5.3239 Y18.7968 
X-4.9596 
X-4.8849 Y18.8277 
X-2.8849 Y20.8277 
X-2.8277 Y20.8849 
G00 Z2.5400  
G00 X-5.5072 Y22.1402 
G01 Z-0.1778 F254   
G01 X-5.4050 Y22.2809 F508   
G01 X-5.3261 Y22.4359 
X-5.2723 Y22.6013 
X-5.2451 Y22.7730 
Y22.9470 
X-5.2723 Y23.1187 
X-5.3261 Y23.2841 
X-5.4050 Y23.4391 
X-5.5072 Y23.5798 
X-5.6302 Y23.7028 
X-5.7709 Y23.8050 
X-5.9259 Y23.8839 
X-6.0913 Y23.9377 
X-6.2630 Y23.9649 
X-6.4370 
X-6.6087 Y23.9377 
X-6.7741 Y23.8839 
X-6.9291 Y23.8050 
X-7.0698 Y23.7028 
X-7.1928 Y23.5798 
X-7.2950 Y23.4391 
X-7.3739 Y23.2841 
X-7.4277 Y23.1187 
X-7.4549 Y22.9470 
Y22.7730 
X-7.4277 Y22.6013 
X-7.3739 Y22.4359 
X-7.2950 Y22.2809 
X-7.1928 Y22.1402 
X-7.0698 Y22.0172 
X-6.9291 Y21.9150 
X-6.7741 Y21.8361 
X-6.6087 Y21.7823 
X-6.4370 Y21.7551 
X-6.2630 
X-6.0913 Y21.7823 
X-5.9259 Y21.8361 
X-5.7709 Y21.9150 
X-5.6302 Y22.0172 
X-5.5072 Y22.1402 
G00 Z2.5400  
G00 X-6.8160 Y28.5233 
G01 Z-0.1778 F254   
G01 X-6.7185 Y28.6575 F508   
G01 X-6.6431 Y28.8054 
X-6.5919 Y28.9632 
X-6.5659 Y29.1270 
Y29.2930 
X-6.5919 Y29.4568 
X-6.6431 Y29.6146 
X-6.7185 Y29.7625 
X-6.8160 Y29.8967 
X-6.9333 Y30.0140 
X-7.0675 Y30.1115 
X-7.2154 Y30.1869 
X-7.3732 Y30.2381 
X-7.5370 Y30.2641 
X-7.7030 
X-7.8668 Y30.2381 
X-8.0246 Y30.1869 
X-8.1725 Y30.1115 
X-8.3067 Y30.0140 
X-8.4240 Y29.8967 
X-8.5215 Y29.7625 
X-8.5969 Y29.6146 
X-8.6481 Y29.4568 
X-8.6741 Y29.2930 
Y29.1270 
X-8.6481 Y28.9632 
X-8.5969 Y28.8054 
X-8.5581 Y28.7293 
X-11.0842 Y26.2032 
X-14.6334 
X-14.6646 Y26.2573 
X-14.7427 Y26.3354 
X-14.8382 Y26.3905 
X-14.9448 Y26.4191 
X-15.0552 
X-15.1618 Y26.3905 
X-15.2573 Y26.3354 
X-15.3354 Y26.2573 
X-15.3666 Y26.2032 
X-18.0404 
X-18.1151 Y26.1723 
X-18.1723 Y26.1151 
X-18.8844 Y25.4029 
X-18.9448 Y25.4191 
X-19.0552 
X-19.1618 Y25.3905 
X-19.2573 Y25.3354 
X-19.3354 Y25.2573 
X-19.3905 Y25.1618 
X-19.4191 Y25.0552 
Y24.9448 
X-19.3905 Y24.8382 
X-19.3354 Y24.7427 
X-19.2573 Y24.6646 
X-19.1618 Y24.6095 
X-19.0552 Y24.5809 
X-18.9448 
X-18.8382 Y24.6095 
X-18.7427 Y24.6646 
X-18.6646 Y24.7427 
X-18.6095 Y24.8382 
X-18.5809 Y24.9448 
Y25.0552 
X-18.5971 Y25.1156 
X-17.9158 Y25.7968 
X-15.3666 
X-15.3354 Y25.7427 
X-15.2573 Y25.6646 
X-15.1618 Y25.6095 
X-15.0552 Y25.5809 
X-14.9448 
X-14.8382 Y25.6095 
X-14.7427 Y25.6646 
X-14.6646 Y25.7427 
X-14.6334 Y25.7968 
X-10.9596 
X-10.8849 Y25.8277 
X-8.3067 Y28.4060 
X-8.1725 Y28.3085 
X-8.0246 Y28.2331 
X-7.8668 Y28.1819 
X-7.7030 Y28.1559 
X-7.5370 
X-7.3732 Y28.1819 
X-7.2154 Y28.2331 
X-7.0675 Y28.3085 
X-6.9333 Y28.4060 
X-6.8160 Y28.5233 
G00 Z2.5400  
G00 X-16.9760 Y28.5233 
G01 Z-0.1778 F254   
G01 X-16.8785 Y28.6575 F508   
G01 X-16.8031 Y28.8054 
X-16.7519 Y28.9632 
X-16.7259 Y29.1270 
Y29.2930 
X-16.7519 Y29.4568 
X-16.8031 Y29.6146 
X-16.8785 Y29.7625 
X-16.9760 Y29.8967 
X-17.0933 Y30.0140 
X-17.2275 Y30.1115 
X-17.3754 Y30.1869 
X-17.5332 Y30.2381 
X-17.6970 Y30.2641 
X-17.8630 
X-18.0268 Y30.2381 
X-18.1846 Y30.1869 
X-18.3325 Y30.1115 
X-18.4667 Y30.0140 
X-18.5840 Y29.8967 
X-18.6815 Y29.7625 
X-18.7569 Y29.6146 
X-18.8081 Y29.4568 
X-18.8341 Y29.2930 
Y29.1270 
X-18.8081 Y28.9632 
X-18.7569 Y28.8054 
X-18.6815 Y28.6575 
X-18.5840 Y28.5233 
X-18.4667 Y28.4060 
X-18.3325 Y28.3085 
X-18.1846 Y28.2331 
X-18.0268 Y28.1819 
X-17.8630 Y28.1559 
X-17.6970 
X-17.5332 Y28.1819 
X-17.3754 Y28.2331 
X-17.2275 Y28.3085 
X-17.0933 Y28.4060 
X-16.9760 Y28.5233 
G00 Z2.5400  
G00 X-16.9341 Y23.8839 
G01 Z-0.1778 F254   
G01 X-17.0891 Y23.8050 F508   
G01 X-17.2298 Y23.7028 
X-17.3528 Y23.5798 
X-17.4550 Y23.4391 
X-17.5339 Y23.2841 
X-17.5877 Y23.1187 
X-17.6149 Y22.9470 
Y22.7730 
X-17.5877 Y22.6013 
X-17.5339 Y22.4359 
X-17.4550 Y22.2809 
X-17.3528 Y22.1402 
X-17.2298 Y22.0172 
X-17.0891 Y21.9150 
X-16.9341 Y21.8361 
X-16.7687 Y21.7823 
X-16.5970 Y21.7551 
X-16.4230 
X-16.2513 Y21.7823 
X-16.0859 Y21.8361 
X-15.9309 Y21.9150 
X-15.7902 Y22.0172 
X-15.6672 Y22.1402 
X-15.5650 Y22.2809 
X-15.4861 Y22.4359 
X-15.4323 Y22.6013 
X-15.4051 Y22.7730 
Y22.9470 
X-15.4323 Y23.1187 
X-15.4861 Y23.2841 
X-15.5650 Y23.4391 
X-15.6672 Y23.5798 
X-15.7902 Y23.7028 
X-15.9309 Y23.8050 
X-16.0859 Y23.8839 
X-16.2513 Y23.9377 
X-16.4230 Y23.9649 
X-16.5970 
X-16.7687 Y23.9377 
X-16.9341 Y23.8839 
G00 Z2.5400  
G00 X-16.9146 Y20.0269 
G01 Z-0.1778 F254   
G01 X-17.0625 Y19.9515 F508   
G01 X-17.1967 Y19.8540 
X-17.3140 Y19.7367 
X-17.4115 Y19.6025 
X-17.4869 Y19.4546 
X-17.5381 Y19.2968 
X-17.5641 Y19.1330 
Y19.0286 
X-18.1736 Y18.4191 
X-63.0552 
X-63.1618 Y18.3905 
X-63.2573 Y18.3354 
X-63.3354 Y18.2573 
X-63.3905 Y18.1618 
X-63.4191 Y18.0552 
Y17.9448 
X-63.3905 Y17.8382 
X-63.3354 Y17.7427 
X-63.2573 Y17.6646 
X-63.1618 Y17.6095 
X-63.0552 Y17.5809 
X-17.9448 
X-17.8382 Y17.6095 
X-17.7427 Y17.6646 
X-17.6646 Y17.7427 
X-17.1762 Y18.2311 
X-17.0625 Y18.1485 
X-16.9146 Y18.0731 
X-16.7568 Y18.0219 
X-16.5930 Y17.9959 
X-16.4270 
X-16.2632 Y18.0219 
X-16.1054 Y18.0731 
X-15.9575 Y18.1485 
X-15.8233 Y18.2460 
X-15.7060 Y18.3633 
X-15.6085 Y18.4975 
X-15.5331 Y18.6454 
X-15.4819 Y18.8032 
X-15.4559 Y18.9670 
Y19.1330 
X-15.4819 Y19.2968 
X-15.5331 Y19.4546 
X-15.6085 Y19.6025 
X-15.7060 Y19.7367 
X-15.8233 Y19.8540 
X-15.9575 Y19.9515 
X-16.1054 Y20.0269 
X-16.2632 Y20.0781 
X-16.4270 Y20.1041 
X-16.5930 
X-16.7568 Y20.0781 
X-16.9146 Y20.0269 
G00 Z2.5400  
G00 X-20.5105 Y21.1429 
G01 Z-0.1778 F254   
G01 X-20.5105 Y22.0371 F508   
G01 X-21.1429 Y22.6695 
X-22.0371 
X-22.6695 Y22.0371 
Y21.1429 
X-22.0371 Y20.5105 
X-21.1429 
X-20.5105 Y21.1429 
G00 Z2.5400  
G00 X-24.5501 Y24.6741 
G01 Z-0.1778 F254   
G01 X-24.4470 Y24.8160 F508   
G01 X-24.3673 Y24.9723 
X-24.3131 Y25.1391 
X-24.2857 Y25.3123 
Y25.4877 
X-24.3131 Y25.6609 
X-24.3673 Y25.8277 
X-24.4470 Y25.9840 
X-24.5501 Y26.1259 
X-24.6741 Y26.2499 
X-24.8160 Y26.3530 
X-24.9723 Y26.4327 
X-25.1391 Y26.4869 
X-25.3123 Y26.5143 
X-25.4877 
X-25.6609 Y26.4869 
X-25.8277 Y26.4327 
X-25.9840 Y26.3530 
X-26.1259 Y26.2499 
X-26.2499 Y26.1259 
X-26.3530 Y25.9840 
X-26.4327 Y25.8277 
X-26.4869 Y25.6609 
X-26.5143 Y25.4877 
Y25.3123 
X-26.4869 Y25.1391 
X-26.4327 Y24.9723 
X-26.3530 Y24.8160 
X-26.2499 Y24.6741 
X-26.1259 Y24.5501 
X-25.9840 Y24.4470 
X-25.8277 Y24.3673 
X-25.6609 Y24.3131 
X-25.4877 Y24.2857 
X-25.3123 
X-25.1391 Y24.3131 
X-24.9723 Y24.3673 
X-24.8160 Y24.4470 
X-24.6741 Y24.5501 
X-24.5501 Y24.6741 
G00 Z2.5400  
G00 X-28.7629 Y22.6695 
G01 Z-0.1778 F254   
G01 X-29.6571 Y22.6695 F508   
G01 X-30.2895 Y22.0371 
Y21.1429 
X-29.6571 Y20.5105 
X-28.7629 
X-28.1305 Y21.1429 
Y22.0371 
X-28.7629 Y22.6695 
G00 Z2.5400  
G00 X-32.1701 Y24.6741 
G01 Z-0.1778 F254   
G01 X-32.0670 Y24.8160 F508   
G01 X-31.9873 Y24.9723 
X-31.9331 Y25.1391 
X-31.9057 Y25.3123 
Y25.4877 
X-31.9331 Y25.6609 
X-31.9873 Y25.8277 
X-32.0670 Y25.9840 
X-32.1701 Y26.1259 
X-32.2941 Y26.2499 
X-32.4360 Y26.3530 
X-32.5923 Y26.4327 
X-32.7591 Y26.4869 
X-32.9323 Y26.5143 
X-33.1077 
X-33.2809 Y26.4869 
X-33.4477 Y26.4327 
X-33.6040 Y26.3530 
X-33.7459 Y26.2499 
X-33.8699 Y26.1259 
X-33.9730 Y25.9840 
X-34.0527 Y25.8277 
X-34.1069 Y25.6609 
X-34.1343 Y25.4877 
Y25.3123 
X-34.1069 Y25.1391 
X-34.0527 Y24.9723 
X-33.9730 Y24.8160 
X-33.8699 Y24.6741 
X-33.7459 Y24.5501 
X-33.6040 Y24.4470 
X-33.4477 Y24.3673 
X-33.2809 Y24.3131 
X-33.1077 Y24.2857 
X-32.9323 
X-32.7591 Y24.3131 
X-32.5923 Y24.3673 
X-32.4360 Y24.4470 
X-32.2941 Y24.5501 
X-32.1701 Y24.6741 
G00 Z2.5400  
G00 X-36.3829 Y22.6695 
G01 Z-0.1778 F254   
G01 X-37.2771 Y22.6695 F508   
G01 X-37.9095 Y22.0371 
Y21.1429 
X-37.2771 Y20.5105 
X-36.3829 
X-35.7505 Y21.1429 
Y22.0371 
X-36.3829 Y22.6695 
G00 Z2.5400  
G00 X-39.7901 Y24.6741 
G01 Z-0.1778 F254   
G01 X-39.6870 Y24.8160 F508   
G01 X-39.6073 Y24.9723 
X-39.5531 Y25.1391 
X-39.5257 Y25.3123 
Y25.4877 
X-39.5531 Y25.6609 
X-39.6073 Y25.8277 
X-39.6870 Y25.9840 
X-39.7901 Y26.1259 
X-39.9141 Y26.2499 
X-40.0560 Y26.3530 
X-40.2123 Y26.4327 
X-40.3791 Y26.4869 
X-40.5523 Y26.5143 
X-40.7277 
X-40.9009 Y26.4869 
X-41.0677 Y26.4327 
X-41.2240 Y26.3530 
X-41.3659 Y26.2499 
X-41.4899 Y26.1259 
X-41.5930 Y25.9840 
X-41.6727 Y25.8277 
X-41.7269 Y25.6609 
X-41.7543 Y25.4877 
Y25.3123 
X-41.7269 Y25.1391 
X-41.6727 Y24.9723 
X-41.5930 Y24.8160 
X-41.4899 Y24.6741 
X-41.3659 Y24.5501 
X-41.2240 Y24.4470 
X-41.0677 Y24.3673 
X-40.9009 Y24.3131 
X-40.7277 Y24.2857 
X-40.5523 
X-40.3791 Y24.3131 
X-40.2123 Y24.3673 
X-40.0560 Y24.4470 
X-39.9141 Y24.5501 
X-39.7901 Y24.6741 
G00 Z2.5400  
G00 X-44.0029 Y22.6695 
G01 Z-0.1778 F254   
G01 X-44.8971 Y22.6695 F508   
G01 X-45.5295 Y22.0371 
Y21.1429 
X-44.8971 Y20.5105 
X-44.0029 
X-43.3705 Y21.1429 
Y22.0371 
X-44.0029 Y22.6695 
G00 Z2.5400  
G00 X-47.4101 Y24.6741 
G01 Z-0.1778 F254   
G01 X-47.3070 Y24.8160 F508   
G01 X-47.2273 Y24.9723 
X-47.1731 Y25.1391 
X-47.1457 Y25.3123 
Y25.4877 
X-47.1731 Y25.6609 
X-47.2273 Y25.8277 
X-47.3070 Y25.9840 
X-47.4101 Y26.1259 
X-47.5341 Y26.2499 
X-47.6760 Y26.3530 
X-47.8323 Y26.4327 
X-47.9991 Y26.4869 
X-48.1723 Y26.5143 
X-48.3477 
X-48.5209 Y26.4869 
X-48.6877 Y26.4327 
X-48.8440 Y26.3530 
X-48.9859 Y26.2499 
X-49.1099 Y26.1259 
X-49.2130 Y25.9840 
X-49.2927 Y25.8277 
X-49.3469 Y25.6609 
X-49.3743 Y25.4877 
Y25.3123 
X-49.3469 Y25.1391 
X-49.2927 Y24.9723 
X-49.2130 Y24.8160 
X-49.1099 Y24.6741 
X-48.9859 Y24.5501 
X-48.8440 Y24.4470 
X-48.6877 Y24.3673 
X-48.5209 Y24.3131 
X-48.3477 Y24.2857 
X-48.1723 
X-47.9991 Y24.3131 
X-47.8323 Y24.3673 
X-47.6760 Y24.4470 
X-47.5341 Y24.5501 
X-47.4101 Y24.6741 
G00 Z2.5400  
G00 X-51.6229 Y22.6695 
G01 Z-0.1778 F254   
G01 X-52.5171 Y22.6695 F508   
G01 X-53.1495 Y22.0371 
Y21.1429 
X-52.5171 Y20.5105 
X-51.6229 
X-50.9905 Y21.1429 
Y22.0371 
X-51.6229 Y22.6695 
G00 Z2.5400  
G00 X-55.0301 Y24.6741 
G01 Z-0.1778 F254   
G01 X-54.9270 Y24.8160 F508   
G01 X-54.8473 Y24.9723 
X-54.7931 Y25.1391 
X-54.7657 Y25.3123 
Y25.4877 
X-54.7931 Y25.6609 
X-54.8473 Y25.8277 
X-54.9270 Y25.9840 
X-55.0301 Y26.1259 
X-55.1541 Y26.2499 
X-55.2960 Y26.3530 
X-55.4523 Y26.4327 
X-55.6191 Y26.4869 
X-55.7923 Y26.5143 
X-55.9677 
X-56.1409 Y26.4869 
X-56.3077 Y26.4327 
X-56.4640 Y26.3530 
X-56.6059 Y26.2499 
X-56.7299 Y26.1259 
X-56.8330 Y25.9840 
X-56.9127 Y25.8277 
X-56.9669 Y25.6609 
X-56.9943 Y25.4877 
Y25.3123 
X-56.9669 Y25.1391 
X-56.9127 Y24.9723 
X-56.8330 Y24.8160 
X-56.7299 Y24.6741 
X-56.6059 Y24.5501 
X-56.4640 Y24.4470 
X-56.3077 Y24.3673 
X-56.1409 Y24.3131 
X-55.9677 Y24.2857 
X-55.7923 
X-55.6191 Y24.3131 
X-55.4523 Y24.3673 
X-55.2960 Y24.4470 
X-55.1541 Y24.5501 
X-55.0301 Y24.6741 
G00 Z2.5400  
G00 X-55.0552 Y29.5809 
G01 Z-0.1778 F254   
G01 X-54.9448 Y29.5809 F508   
G01 X-54.8382 Y29.6095 
X-54.7427 Y29.6646 
X-54.6646 Y29.7427 
X-54.6095 Y29.8382 
X-54.5809 Y29.9448 
Y30.0552 
X-54.6095 Y30.1618 
X-54.6646 Y30.2573 
X-54.7427 Y30.3354 
X-54.7968 Y30.3666 
Y35.6334 
X-54.7427 Y35.6646 
X-54.6646 Y35.7427 
X-54.6095 Y35.8382 
X-54.5809 Y35.9448 
Y36.0552 
X-54.6095 Y36.1618 
X-54.6646 Y36.2573 
X-54.7427 Y36.3354 
X-54.8382 Y36.3905 
X-54.9448 Y36.4191 
X-55.0552 
X-55.1618 Y36.3905 
X-55.2573 Y36.3354 
X-55.3354 Y36.2573 
X-55.3905 Y36.1618 
X-55.4191 Y36.0552 
Y35.9448 
X-55.3905 Y35.8382 
X-55.3354 Y35.7427 
X-55.2573 Y35.6646 
X-55.2032 Y35.6334 
Y30.3666 
X-55.2573 Y30.3354 
X-55.3354 Y30.2573 
X-55.3905 Y30.1618 
X-55.4191 Y30.0552 
Y29.9448 
X-55.3905 Y29.8382 
X-55.3354 Y29.7427 
X-55.2573 Y29.6646 
X-55.1618 Y29.6095 
X-55.0552 Y29.5809 
G00 Z2.5400  
G00 X-53.1495 Y31.3029 
G01 Z-0.1778 F254   
G01 X-52.5171 Y30.6705 F508   
G01 X-51.6229 Y30.6705 
X-50.9905 Y31.3029 
Y32.1971 
X-51.6229 Y32.8295 
X-52.5171 
X-53.1495 Y32.1971 
Y31.3029 
G00 Z2.5400  
G00 X-58.6105 Y31.3029 
G01 Z-0.1778 F254   
G01 X-58.6105 Y32.1971 F508   
G01 X-59.2429 Y32.8295 
X-60.1371 
X-60.7695 Y32.1971 
Y31.3029 
X-60.3770 Y30.9104 
X-61.0842 Y30.2032 
X-68.9158 
X-74.8277 Y36.1151 
X-74.8849 Y36.1723 
X-74.9596 Y36.2032 
X-75.9158 
X-83.7968 Y44.0842 
Y46.6334 
X-83.7427 Y46.6646 
X-83.6646 Y46.7427 
X-83.6095 Y46.8382 
X-83.5809 Y46.9448 
Y47.0552 
X-83.6095 Y47.1618 
X-83.6646 Y47.2573 
X-83.7427 Y47.3354 
X-83.8382 Y47.3905 
X-83.9448 Y47.4191 
X-84.0552 
X-84.1618 Y47.3905 
X-84.2573 Y47.3354 
X-84.3354 Y47.2573 
X-84.3905 Y47.1618 
X-84.4191 Y47.0552 
Y46.9448 
X-84.3905 Y46.8382 
X-84.3354 Y46.7427 
X-84.2573 Y46.6646 
X-84.2032 Y46.6334 
Y43.9596 
X-84.1723 Y43.8849 
X-76.1723 Y35.8849 
X-76.1151 Y35.8277 
X-76.0404 Y35.7968 
X-75.0842 
X-69.1723 Y29.8849 
X-69.1151 Y29.8277 
X-69.0404 Y29.7968 
X-60.9596 
X-60.8849 Y29.8277 
X-60.0421 Y30.6705 
X-59.2429 
X-58.6105 Y31.3029 
G00 Z2.5400  
G00 X-58.6460 Y36.0851 
G01 Z-0.1778 F254   
G01 X-58.4963 Y36.0553 F508   
G01 X-58.3437 Y36.0553 
X-58.1940 Y36.0851 
X-58.0530 Y36.1435 
X-57.9262 Y36.2283 
X-57.8182 Y36.3362 
X-57.7335 Y36.4630 
X-57.6751 Y36.6040 
X-57.6453 Y36.7537 
Y36.9063 
X-57.6751 Y37.0560 
X-57.7335 Y37.1970 
X-57.7968 Y37.2917 
Y39.9341 
X-57.6900 Y40.0409 
X-57.5872 Y40.1948 
X-57.5163 Y40.3659 
X-57.4802 Y40.5474 
Y40.7326 
X-57.5163 Y40.9141 
X-57.5872 Y41.0852 
X-57.6900 Y41.2391 
X-57.8209 Y41.3700 
X-57.9748 Y41.4728 
X-58.1459 Y41.5437 
X-58.3274 Y41.5798 
X-58.5126 
X-58.6941 Y41.5437 
X-58.8652 Y41.4728 
X-59.0191 Y41.3700 
X-59.1500 Y41.2391 
X-59.2528 Y41.0852 
X-59.3237 Y40.9141 
X-59.3598 Y40.7326 
Y40.5474 
X-59.3237 Y40.3659 
X-59.2528 Y40.1948 
X-59.1500 Y40.0409 
X-59.0191 Y39.9100 
X-58.8652 Y39.8072 
X-58.6941 Y39.7363 
X-58.5126 Y39.7002 
X-58.3274 
X-58.2032 Y39.7249 
Y37.5767 
X-58.3437 Y37.6047 
X-58.4963 
X-58.6460 Y37.5749 
X-58.7870 Y37.5165 
X-58.9138 Y37.4317 
X-59.0217 Y37.3238 
X-59.1065 Y37.1970 
X-59.1649 Y37.0560 
X-59.1947 Y36.9063 
Y36.7537 
X-59.1649 Y36.6040 
X-59.1065 Y36.4630 
X-59.0217 Y36.3362 
X-58.9138 Y36.2283 
X-58.7870 Y36.1435 
X-58.6460 Y36.0851 
G00 Z2.5400  
G00 X-62.8982 Y36.3362 
G01 Z-0.1778 F254   
G01 X-62.8135 Y36.4630 F508   
G01 X-62.7551 Y36.6040 
X-62.7253 Y36.7537 
Y36.9063 
X-62.7551 Y37.0560 
X-62.8135 Y37.1970 
X-62.8982 Y37.3238 
X-63.0062 Y37.4317 
X-63.1330 Y37.5165 
X-63.2740 Y37.5749 
X-63.4237 Y37.6047 
X-63.5763 
X-63.7260 Y37.5749 
X-63.8670 Y37.5165 
X-63.9938 Y37.4317 
X-64.1017 Y37.3238 
X-64.1865 Y37.1970 
X-64.2449 Y37.0560 
X-64.2747 Y36.9063 
Y36.7537 
X-64.2449 Y36.6040 
X-64.1865 Y36.4630 
X-64.1017 Y36.3362 
X-63.9938 Y36.2283 
X-63.8670 Y36.1435 
X-63.7260 Y36.0851 
X-63.5763 Y36.0553 
X-63.4237 
X-63.2740 Y36.0851 
X-63.1330 Y36.1435 
X-63.0062 Y36.2283 
X-62.8982 Y36.3362 
G00 Z2.5400  
G00 X-62.9009 Y39.9100 
G01 Z-0.1778 F254   
G01 X-62.7700 Y40.0409 F508   
G01 X-62.6672 Y40.1948 
X-62.5963 Y40.3659 
X-62.5602 Y40.5474 
Y40.7326 
X-62.5963 Y40.9141 
X-62.6672 Y41.0852 
X-62.7700 Y41.2391 
X-62.9009 Y41.3700 
X-63.0548 Y41.4728 
X-63.2259 Y41.5437 
X-63.4074 Y41.5798 
X-63.5926 
X-63.7741 Y41.5437 
X-63.7968 Y41.5343 
Y43.0740 
X-63.7260 Y43.0447 
X-63.5763 Y43.0149 
X-63.4237 
X-63.2740 Y43.0447 
X-63.1330 Y43.1031 
X-63.0062 Y43.1878 
X-62.8982 Y43.2958 
X-62.8135 Y43.4226 
X-62.7551 Y43.5636 
X-62.7253 Y43.7133 
Y45.1867 
X-62.7551 Y45.3364 
X-62.8135 Y45.4774 
X-62.8982 Y45.6042 
X-63.0062 Y45.7121 
X-63.1330 Y45.7969 
X-63.2740 Y45.8553 
X-63.4237 Y45.8851 
X-63.5763 
X-63.7260 Y45.8553 
X-63.8670 Y45.7969 
X-63.9938 Y45.7121 
X-64.1017 Y45.6042 
X-64.1865 Y45.4774 
X-64.2449 Y45.3364 
X-64.2747 Y45.1867 
Y43.7133 
X-64.2449 Y43.5636 
X-64.2032 Y43.4629 
Y41.2659 
X-64.2300 Y41.2391 
X-64.3328 Y41.0852 
X-64.4037 Y40.9141 
X-64.4398 Y40.7326 
Y40.5474 
X-64.4037 Y40.3659 
X-64.3328 Y40.1948 
X-64.2300 Y40.0409 
X-64.0991 Y39.9100 
X-63.9452 Y39.8072 
X-63.7741 Y39.7363 
X-63.5926 Y39.7002 
X-63.4074 
X-63.2259 Y39.7363 
X-63.0548 Y39.8072 
X-62.9009 Y39.9100 
G00 Z2.5400  
G00 X-61.4538 Y43.1878 
G01 Z-0.1778 F254   
G01 X-61.3270 Y43.1031 F508   
G01 X-61.1860 Y43.0447 
X-61.0363 Y43.0149 
X-60.8837 
X-60.7340 Y43.0447 
X-60.5930 Y43.1031 
X-60.4662 Y43.1878 
X-60.3582 Y43.2958 
X-60.2735 Y43.4226 
X-60.2151 Y43.5636 
X-60.1853 Y43.7133 
Y45.1867 
X-60.2151 Y45.3364 
X-60.2735 Y45.4774 
X-60.3582 Y45.6042 
X-60.4662 Y45.7121 
X-60.5930 Y45.7969 
X-60.7340 Y45.8553 
X-60.8837 Y45.8851 
X-61.0363 
X-61.1860 Y45.8553 
X-61.3270 Y45.7969 
X-61.4538 Y45.7121 
X-61.5617 Y45.6042 
X-61.6465 Y45.4774 
X-61.7049 Y45.3364 
X-61.7347 Y45.1867 
Y43.7133 
X-61.7049 Y43.5636 
X-61.6465 Y43.4226 
X-61.5617 Y43.2958 
X-61.4538 Y43.1878 
G00 Z2.5400  
G00 X-65.4382 Y43.2958 
G01 Z-0.1778 F254   
G01 X-65.3535 Y43.4226 F508   
G01 X-65.2951 Y43.5636 
X-65.2653 Y43.7133 
Y45.1867 
X-65.2951 Y45.3364 
X-65.3535 Y45.4774 
X-65.4382 Y45.6042 
X-65.5462 Y45.7121 
X-65.6730 Y45.7969 
X-65.8140 Y45.8553 
X-65.9637 Y45.8851 
X-66.1163 
X-66.2660 Y45.8553 
X-66.4070 Y45.7969 
X-66.5338 Y45.7121 
X-66.6417 Y45.6042 
X-66.7265 Y45.4774 
X-66.7849 Y45.3364 
X-66.8147 Y45.1867 
Y43.7133 
X-66.7849 Y43.5636 
X-66.7265 Y43.4226 
X-66.6417 Y43.2958 
X-66.5338 Y43.1878 
X-66.4070 Y43.1031 
X-66.2660 Y43.0447 
X-66.1163 Y43.0149 
X-65.9637 
X-65.8140 Y43.0447 
X-65.6730 Y43.1031 
X-65.5462 Y43.1878 
X-65.4382 Y43.2958 
G00 Z2.5400  
G00 X-67.9783 Y43.2958 
G01 Z-0.1778 F254   
G01 X-67.8935 Y43.4226 F508   
G01 X-67.8351 Y43.5636 
X-67.8053 Y43.7133 
Y45.1867 
X-67.8351 Y45.3364 
X-67.8935 Y45.4774 
X-67.9783 Y45.6042 
X-68.0862 Y45.7121 
X-68.2130 Y45.7969 
X-68.3540 Y45.8553 
X-68.5037 Y45.8851 
X-68.6563 
X-68.8060 Y45.8553 
X-68.9470 Y45.7969 
X-69.0738 Y45.7121 
X-69.1817 Y45.6042 
X-69.2665 Y45.4774 
X-69.3249 Y45.3364 
X-69.3547 Y45.1867 
Y43.7133 
X-69.3249 Y43.5636 
X-69.2665 Y43.4226 
X-69.1817 Y43.2958 
X-69.0738 Y43.1878 
X-68.9470 Y43.1031 
X-68.8060 Y43.0447 
X-68.6563 Y43.0149 
X-68.5037 
X-68.3540 Y43.0447 
X-68.2130 Y43.1031 
X-68.0862 Y43.1878 
X-67.9783 Y43.2958 
G00 Z2.5400  
G00 X-70.5182 Y43.2958 
G01 Z-0.1778 F254   
G01 X-70.4335 Y43.4226 F508   
G01 X-70.3751 Y43.5636 
X-70.3453 Y43.7133 
Y45.1867 
X-70.3751 Y45.3364 
X-70.4335 Y45.4774 
X-70.5182 Y45.6042 
X-70.6262 Y45.7121 
X-70.7530 Y45.7969 
X-70.8940 Y45.8553 
X-71.0437 Y45.8851 
X-71.1963 
X-71.3460 Y45.8553 
X-71.4870 Y45.7969 
X-71.6138 Y45.7121 
X-71.7217 Y45.6042 
X-71.8065 Y45.4774 
X-71.8649 Y45.3364 
X-71.8947 Y45.1867 
Y43.7133 
X-71.8649 Y43.5636 
X-71.8065 Y43.4226 
X-71.7217 Y43.2958 
X-71.6138 Y43.1878 
X-71.4870 Y43.1031 
X-71.3460 Y43.0447 
X-71.1963 Y43.0149 
X-71.0437 
X-70.8940 Y43.0447 
X-70.7530 Y43.1031 
X-70.6262 Y43.1878 
X-70.5182 Y43.2958 
G00 Z2.5400  
G00 X-73.0583 Y43.2958 
G01 Z-0.1778 F254   
G01 X-72.9735 Y43.4226 F508   
G01 X-72.9151 Y43.5636 
X-72.8853 Y43.7133 
Y45.1867 
X-72.9151 Y45.3364 
X-72.9735 Y45.4774 
X-73.0583 Y45.6042 
X-73.1662 Y45.7121 
X-73.2930 Y45.7969 
X-73.4340 Y45.8553 
X-73.5837 Y45.8851 
X-73.7363 
X-73.8860 Y45.8553 
X-74.0270 Y45.7969 
X-74.1538 Y45.7121 
X-74.2617 Y45.6042 
X-74.3465 Y45.4774 
X-74.4049 Y45.3364 
X-74.4347 Y45.1867 
Y43.7133 
X-74.4049 Y43.5636 
X-74.3465 Y43.4226 
X-74.2617 Y43.2958 
X-74.1538 Y43.1878 
X-74.0270 Y43.1031 
X-73.8860 Y43.0447 
X-73.7363 Y43.0149 
X-73.5837 
X-73.4340 Y43.0447 
X-73.2930 Y43.1031 
X-73.1662 Y43.1878 
X-73.0583 Y43.2958 
G00 Z2.5400  
G00 X-75.5982 Y43.2958 
G01 Z-0.1778 F254   
G01 X-75.5135 Y43.4226 F508   
G01 X-75.4551 Y43.5636 
X-75.4253 Y43.7133 
Y45.1867 
X-75.4551 Y45.3364 
X-75.5135 Y45.4774 
X-75.5982 Y45.6042 
X-75.7062 Y45.7121 
X-75.8330 Y45.7969 
X-75.9740 Y45.8553 
X-76.1237 Y45.8851 
X-76.2763 
X-76.4260 Y45.8553 
X-76.5264 Y45.8137 
X-79.8849 Y49.1723 
X-79.9596 Y49.2032 
X-80.0404 
X-83.6334 
X-83.6646 Y49.2573 
X-83.7427 Y49.3354 
X-83.8382 Y49.3905 
X-83.9448 Y49.4191 
X-84.0552 
X-84.1618 Y49.3905 
X-84.2573 Y49.3354 
X-84.3354 Y49.2573 
X-84.3905 Y49.1618 
X-84.4191 Y49.0552 
Y48.9448 
X-84.3905 Y48.8382 
X-84.3354 Y48.7427 
X-84.2573 Y48.6646 
X-84.1618 Y48.6095 
X-84.0552 Y48.5809 
X-83.9448 
X-83.8382 Y48.6095 
X-83.7427 Y48.6646 
X-83.6646 Y48.7427 
X-83.6334 Y48.7968 
X-80.0842 
X-76.8377 Y45.5504 
X-76.8865 Y45.4774 
X-76.9449 Y45.3364 
X-76.9747 Y45.1867 
Y43.7133 
X-76.9449 Y43.5636 
X-76.8865 Y43.4226 
X-76.8017 Y43.2958 
X-76.6938 Y43.1878 
X-76.5670 Y43.1031 
X-76.4260 Y43.0447 
X-76.2763 Y43.0149 
X-76.1237 
X-75.9740 Y43.0447 
X-75.8330 Y43.1031 
X-75.7062 Y43.1878 
X-75.5982 Y43.2958 
G00 Z2.5400  
G00 X-78.1382 Y43.2958 
G01 Z-0.1778 F254   
G01 X-78.0535 Y43.4226 F508   
G01 X-77.9951 Y43.5636 
X-77.9653 Y43.7133 
Y45.1867 
X-77.9951 Y45.3364 
X-78.0535 Y45.4774 
X-78.1382 Y45.6042 
X-78.2462 Y45.7121 
X-78.3730 Y45.7969 
X-78.5140 Y45.8553 
X-78.6637 Y45.8851 
X-78.8163 
X-78.9660 Y45.8553 
X-79.1070 Y45.7969 
X-79.2338 Y45.7121 
X-79.3417 Y45.6042 
X-79.4265 Y45.4774 
X-79.4849 Y45.3364 
X-79.5147 Y45.1867 
Y43.7133 
X-79.4849 Y43.5636 
X-79.4265 Y43.4226 
X-79.3417 Y43.2958 
X-79.2338 Y43.1878 
X-79.1070 Y43.1031 
X-78.9660 Y43.0447 
X-78.8163 Y43.0149 
X-78.6637 
X-78.5140 Y43.0447 
X-78.3730 Y43.1031 
X-78.2462 Y43.1878 
X-78.1382 Y43.2958 
G00 Z2.5400  
G00 X-80.6783 Y43.2958 
G01 Z-0.1778 F254   
G01 X-80.5935 Y43.4226 F508   
G01 X-80.5351 Y43.5636 
X-80.5053 Y43.7133 
Y45.1867 
X-80.5351 Y45.3364 
X-80.5935 Y45.4774 
X-80.6783 Y45.6042 
X-80.7862 Y45.7121 
X-80.9130 Y45.7969 
X-81.0540 Y45.8553 
X-81.2037 Y45.8851 
X-81.3563 
X-81.5060 Y45.8553 
X-81.6470 Y45.7969 
X-81.7738 Y45.7121 
X-81.8817 Y45.6042 
X-81.9665 Y45.4774 
X-82.0249 Y45.3364 
X-82.0547 Y45.1867 
Y43.7133 
X-82.0249 Y43.5636 
X-81.9665 Y43.4226 
X-81.8817 Y43.2958 
X-81.7738 Y43.1878 
X-81.6470 Y43.1031 
X-81.5060 Y43.0447 
X-81.3563 Y43.0149 
X-81.2037 
X-81.0540 Y43.0447 
X-80.9130 Y43.1031 
X-80.7862 Y43.1878 
X-80.6783 Y43.2958 
G00 Z2.5400  
G00 X-91.6559 Y43.2630 
G01 Z-0.1778 F254   
G01 X-91.6819 Y43.4268 F508   
G01 X-91.7331 Y43.5846 
X-91.8085 Y43.7325 
X-91.9060 Y43.8667 
X-92.0233 Y43.9840 
X-92.1575 Y44.0815 
X-92.3054 Y44.1569 
X-92.4632 Y44.2081 
X-92.6270 Y44.2341 
X-92.7930 
X-92.9568 Y44.2081 
X-93.1146 Y44.1569 
X-93.2625 Y44.0815 
X-93.3967 Y43.9840 
X-93.5140 Y43.8667 
X-93.6115 Y43.7325 
X-93.6869 Y43.5846 
X-93.7381 Y43.4268 
X-93.7641 Y43.2630 
Y43.0970 
X-93.7381 Y42.9332 
X-93.6869 Y42.7754 
X-93.6115 Y42.6275 
X-93.5140 Y42.4933 
X-93.3967 Y42.3760 
X-93.2625 Y42.2785 
X-93.1146 Y42.2031 
X-92.9568 Y42.1519 
X-92.7930 Y42.1259 
X-92.6270 
X-92.4632 Y42.1519 
X-92.3054 Y42.2031 
X-92.1575 Y42.2785 
X-92.0233 Y42.3760 
X-91.9060 Y42.4933 
X-91.8085 Y42.6275 
X-91.7331 Y42.7754 
X-91.6819 Y42.9332 
X-91.6559 Y43.0970 
Y43.2630 
G00 Z2.5400  
G00 X-93.2500 Y46.3909 
G01 Z-0.1778 F254   
G01 X-93.1472 Y46.5448 F508   
G01 X-93.0763 Y46.7159 
X-93.0402 Y46.8974 
Y47.0826 
X-93.0763 Y47.2641 
X-93.1472 Y47.4352 
X-93.2500 Y47.5891 
X-93.3809 Y47.7200 
X-93.5348 Y47.8228 
X-93.7059 Y47.8937 
X-93.8874 Y47.9298 
X-94.0726 
X-94.2541 Y47.8937 
X-94.4252 Y47.8228 
X-94.5791 Y47.7200 
X-94.7100 Y47.5891 
X-94.8128 Y47.4352 
X-94.8837 Y47.2641 
X-94.9198 Y47.0826 
Y46.8974 
X-94.8837 Y46.7159 
X-94.8128 Y46.5448 
X-94.7100 Y46.3909 
X-94.5791 Y46.2600 
X-94.4252 Y46.1572 
X-94.2541 Y46.0863 
X-94.0726 Y46.0502 
X-93.8874 
X-93.7059 Y46.0863 
X-93.5348 Y46.1572 
X-93.3809 Y46.2600 
X-93.2500 Y46.3909 
G00 Z2.5400  
G00 X-98.0552 Y48.5809 
G01 Z-0.1778 F254   
G01 X-86.4191 Y48.5809 F508   
G01 X-86.4191 Y34.1736 
X-91.8938 Y28.6989 
X-91.9733 Y28.7147 
X-93.4467 
X-93.5964 Y28.6849 
X-93.7374 Y28.6265 
X-93.8642 Y28.5417 
X-93.9721 Y28.4338 
X-94.0569 Y28.3070 
X-94.1153 Y28.1660 
X-94.1451 Y28.0163 
Y27.8637 
X-94.1153 Y27.7140 
X-94.0569 Y27.5730 
X-93.9721 Y27.4462 
X-93.8642 Y27.3382 
X-93.7374 Y27.2535 
X-93.5964 Y27.1951 
X-93.4467 Y27.1653 
X-91.9733 
X-91.8236 Y27.1951 
X-91.6826 Y27.2535 
X-91.5558 Y27.3382 
X-91.4479 Y27.4462 
X-91.3631 Y27.5730 
X-91.3047 Y27.7140 
X-91.2749 Y27.8637 
Y28.0163 
X-91.2942 Y28.1131 
X-85.8264 Y33.5809 
X-75.1736 
X-74.1473 Y32.5547 
X-74.2591 Y32.4800 
X-74.3900 Y32.3491 
X-74.4928 Y32.1952 
X-74.5637 Y32.0241 
X-74.5998 Y31.8426 
Y31.6574 
X-74.5637 Y31.4759 
X-74.4928 Y31.3048 
X-74.3900 Y31.1509 
X-74.2591 Y31.0200 
X-74.1052 Y30.9172 
X-73.9341 Y30.8463 
X-73.7526 Y30.8102 
X-73.5674 
X-73.3859 Y30.8463 
X-73.2148 Y30.9172 
X-73.0609 Y31.0200 
X-72.9300 Y31.1509 
X-72.8272 Y31.3048 
X-72.7563 Y31.4759 
X-72.7202 Y31.6574 
Y31.6850 
X-72.7104 Y31.6921 
X-72.6888 Y31.7185 
X-72.6646 Y31.7427 
X-72.6540 Y31.7611 
X-72.6406 Y31.7775 
X-72.6265 Y31.8087 
X-72.6095 Y31.8382 
X-72.6040 Y31.8588 
X-72.5952 Y31.8781 
X-72.5897 Y31.9118 
X-72.5809 Y31.9448 
Y31.9661 
X-72.5775 Y31.9871 
X-72.5809 Y32.0210 
Y32.0552 
X-72.5864 Y32.0757 
Y32.0969 
X-72.6006 Y32.1288 
X-72.6095 Y32.1618 
X-72.6201 Y32.1802 
X-72.6276 Y32.2001 
X-72.6476 Y32.2278 
X-72.6646 Y32.2573 
X-72.6797 Y32.2724 
X-72.6921 Y32.2896 
X-72.7185 Y32.3112 
X-74.7427 Y34.3354 
X-74.8382 Y34.3905 
X-74.9448 Y34.4191 
X-85.5809 
Y57.6537 
X-85.4736 Y57.6751 
X-85.3326 Y57.7335 
X-85.2058 Y57.8182 
X-85.0978 Y57.9262 
X-85.0131 Y58.0530 
X-84.9547 Y58.1940 
X-84.9249 Y58.3437 
Y58.4824 
X-82.6646 Y60.7427 
X-82.6095 Y60.8382 
X-82.5809 Y60.9448 
Y81.0552 
X-82.6095 Y81.1618 
X-82.6646 Y81.2573 
X-82.7427 Y81.3354 
X-85.5809 Y84.1736 
Y90.9791 
X-85.5775 Y91.0132 
X-85.5809 Y91.0340 
Y91.0552 
X-85.5898 Y91.0883 
X-85.5935 Y91.1109 
X-85.5853 Y91.1191 
Y91.7609 
X-86.0391 Y92.2147 
X-86.6809 
X-87.1347 Y91.7609 
Y91.1191 
X-86.6809 Y90.6653 
X-86.4191 
Y83.9448 
X-86.3905 Y83.8382 
X-86.3354 Y83.7427 
X-83.4191 Y80.8264 
Y61.1736 
X-85.4412 Y59.1515 
X-85.4736 Y59.1649 
X-85.6233 Y59.1947 
X-87.0967 
X-87.2464 Y59.1649 
X-87.3874 Y59.1065 
X-87.5142 Y59.0217 
X-87.6221 Y58.9138 
X-87.7069 Y58.7870 
X-87.7653 Y58.6460 
X-87.7951 Y58.4963 
Y58.3437 
X-87.7653 Y58.1940 
X-87.7069 Y58.0530 
X-87.6221 Y57.9262 
X-87.5142 Y57.8182 
X-87.3874 Y57.7335 
X-87.2464 Y57.6751 
X-87.0967 Y57.6453 
X-86.4191 
Y49.4191 
X-97.8264 
X-98.7427 Y50.3354 
X-98.8382 Y50.3905 
X-98.9448 Y50.4191 
X-108.0552 
X-108.1618 Y50.3905 
X-108.2573 Y50.3354 
X-108.3354 Y50.2573 
X-109.7108 Y48.8819 
X-109.7204 Y48.9052 
X-109.7991 Y49.0229 
X-109.8991 Y49.1229 
X-110.0168 Y49.2015 
X-110.1475 Y49.2557 
X-110.2862 Y49.2833 
X-111.6357 
X-111.7745 Y49.2557 
X-111.9052 Y49.2015 
X-112.0229 Y49.1229 
X-112.1229 Y49.0229 
X-112.2015 Y48.9052 
X-112.2557 Y48.7745 
X-112.2833 Y48.6357 
Y48.4943 
X-112.2557 Y48.3555 
X-112.2015 Y48.2248 
X-112.1229 Y48.1071 
X-112.0229 Y48.0071 
X-111.9052 Y47.9284 
X-111.7745 Y47.8743 
X-111.6357 Y47.8467 
X-111.4394 
X-111.2573 Y47.6646 
X-111.1618 Y47.6095 
X-111.0552 Y47.5809 
X-109.9448 
X-109.8382 Y47.6095 
X-109.7427 Y47.6646 
X-109.6646 Y47.7427 
X-107.8264 Y49.5809 
X-99.1736 
X-98.3354 Y48.7427 
X-98.2573 Y48.6646 
X-98.1618 Y48.6095 
X-98.0552 Y48.5809 
G00 Z2.5400  
G00 X-98.0552 Y50.5809 
G01 Z-0.1778 F254   
G01 X-97.9448 Y50.5809 F508   
G01 X-97.8382 Y50.6095 
X-97.7427 Y50.6646 
X-97.6646 Y50.7427 
X-97.6095 Y50.8382 
X-97.5809 Y50.9448 
Y51.0552 
X-97.6095 Y51.1618 
X-97.6646 Y51.2573 
X-97.7427 Y51.3354 
X-98.7427 Y52.3354 
X-98.8382 Y52.3905 
X-98.9448 Y52.4191 
X-110.0591 
X-110.1475 Y52.4557 
X-110.2862 Y52.4833 
X-111.6357 
X-111.7745 Y52.4557 
X-111.9052 Y52.4015 
X-112.0229 Y52.3229 
X-112.1229 Y52.2229 
X-112.2015 Y52.1052 
X-112.2557 Y51.9745 
X-112.2833 Y51.8357 
Y51.6942 
X-112.2557 Y51.5555 
X-112.2015 Y51.4248 
X-112.1229 Y51.3071 
X-112.0229 Y51.2071 
X-111.9052 Y51.1285 
X-111.7745 Y51.0743 
X-111.6357 Y51.0467 
X-110.2862 
X-110.1475 Y51.0743 
X-110.0168 Y51.1285 
X-109.8991 Y51.2071 
X-109.7991 Y51.3071 
X-109.7204 Y51.4248 
X-109.6663 Y51.5555 
X-109.6612 Y51.5809 
X-99.1736 
X-98.3354 Y50.7427 
X-98.2573 Y50.6646 
X-98.1618 Y50.6095 
X-98.0552 Y50.5809 
G00 Z2.5400  
G00 X-98.0160 Y57.6751 
G01 Z-0.1778 F254   
G01 X-97.8663 Y57.6453 F508   
G01 X-97.7137 Y57.6453 
X-97.5640 Y57.6751 
X-97.4230 Y57.7335 
X-97.2962 Y57.8182 
X-97.1882 Y57.9262 
X-97.1035 Y58.0530 
X-97.0451 Y58.1940 
X-97.0153 Y58.3437 
Y58.4963 
X-97.0451 Y58.6460 
X-97.1035 Y58.7870 
X-97.1100 Y58.7968 
X-95.3204 
X-95.3269 Y58.7870 
X-95.3853 Y58.6460 
X-95.4151 Y58.4963 
Y58.3437 
X-95.3853 Y58.1940 
X-95.3269 Y58.0530 
X-95.2421 Y57.9262 
X-95.1342 Y57.8182 
X-95.0074 Y57.7335 
X-94.8664 Y57.6751 
X-94.7167 Y57.6453 
X-93.2433 
X-93.0936 Y57.6751 
X-92.9526 Y57.7335 
X-92.8258 Y57.8182 
X-92.7178 Y57.9262 
X-92.6331 Y58.0530 
X-92.5747 Y58.1940 
X-92.5449 Y58.3437 
Y58.4963 
X-92.5747 Y58.6460 
X-92.6331 Y58.7870 
X-92.7178 Y58.9138 
X-92.8258 Y59.0217 
X-92.9526 Y59.1065 
X-93.0936 Y59.1649 
X-93.2433 Y59.1947 
X-93.9391 
X-93.9596 Y59.2032 
X-93.9632 
X-93.9666 
X-94.0035 
X-97.9954 
X-98.0312 
X-98.0357 
X-98.0404 
X-98.0735 Y59.1895 
X-98.1072 Y59.1773 
X-98.1107 Y59.1741 
X-98.1151 
X-98.1404 Y59.1469 
X-98.1669 Y59.1228 
Y59.1185 
X-98.1723 Y59.1151 
X-98.1830 Y59.0891 
X-98.2838 Y59.0217 
X-98.3917 Y58.9138 
X-98.4765 Y58.7870 
X-98.5349 Y58.6460 
X-98.5647 Y58.4963 
Y58.3437 
X-98.5349 Y58.1940 
X-98.4765 Y58.0530 
X-98.3917 Y57.9262 
X-98.2838 Y57.8182 
X-98.1570 Y57.7335 
X-98.0160 Y57.6751 
G00 Z2.5400  
G00 X-98.0160 Y60.2151 
G01 Z-0.1778 F254   
G01 X-97.8663 Y60.1853 F508   
G01 X-97.7137 Y60.1853 
X-97.5640 Y60.2151 
X-97.4230 Y60.2735 
X-97.2962 Y60.3582 
X-97.1882 Y60.4662 
X-97.1035 Y60.5930 
X-97.0451 Y60.7340 
X-97.0326 Y60.7968 
X-95.3978 
X-95.3853 Y60.7340 
X-95.3269 Y60.5930 
X-95.2421 Y60.4662 
X-95.1342 Y60.3582 
X-95.0074 Y60.2735 
X-94.8664 Y60.2151 
X-94.7167 Y60.1853 
X-93.2433 
X-93.0936 Y60.2151 
X-92.9526 Y60.2735 
X-92.8258 Y60.3582 
X-92.7178 Y60.4662 
X-92.6331 Y60.5930 
X-92.5747 Y60.7340 
X-92.5449 Y60.8837 
Y61.0363 
X-92.5747 Y61.1860 
X-92.6331 Y61.3270 
X-92.7178 Y61.4538 
X-92.8258 Y61.5617 
X-92.9526 Y61.6465 
X-93.0936 Y61.7049 
X-93.2433 Y61.7347 
X-94.7167 
X-94.8664 Y61.7049 
X-95.0074 Y61.6465 
X-95.1342 Y61.5617 
X-95.2421 Y61.4538 
X-95.3269 Y61.3270 
X-95.3782 Y61.2032 
X-97.0522 
X-97.1035 Y61.3270 
X-97.1882 Y61.4538 
X-97.2962 Y61.5617 
X-97.4230 Y61.6465 
X-97.5640 Y61.7049 
X-97.7137 Y61.7347 
X-97.8663 
X-98.0160 Y61.7049 
X-98.1570 Y61.6465 
X-98.2838 Y61.5617 
X-98.3917 Y61.4538 
X-98.4765 Y61.3270 
X-98.5349 Y61.1860 
X-98.5647 Y61.0363 
Y60.8837 
X-98.5349 Y60.7340 
X-98.4765 Y60.5930 
X-98.3917 Y60.4662 
X-98.2838 Y60.3582 
X-98.1570 Y60.2735 
X-98.0160 Y60.2151 
G00 Z2.5400  
G00 X-95.1342 Y62.8982 
G01 Z-0.1778 F254   
G01 X-95.0074 Y62.8135 F508   
G01 X-94.8664 Y62.7551 
X-94.7167 Y62.7253 
X-93.2433 
X-93.0936 Y62.7551 
X-92.9526 Y62.8135 
X-92.8258 Y62.8982 
X-92.7178 Y63.0062 
X-92.6331 Y63.1330 
X-92.5747 Y63.2740 
X-92.5449 Y63.4237 
Y63.5763 
X-92.5747 Y63.7260 
X-92.6331 Y63.8670 
X-92.7178 Y63.9938 
X-92.8258 Y64.1017 
X-92.9526 Y64.1865 
X-93.0936 Y64.2449 
X-93.2433 Y64.2747 
X-94.7167 
X-94.8664 Y64.2449 
X-94.9671 Y64.2032 
X-110.9158 
X-116.7105 Y69.9979 
X-116.7275 Y70.1051 
X-116.7805 Y70.2681 
X-116.8583 Y70.4209 
X-116.9591 Y70.5596 
X-117.0804 Y70.6809 
X-117.2191 Y70.7816 
X-117.3719 Y70.8595 
X-117.5349 Y70.9125 
X-117.7043 Y70.9393 
X-117.8757 
X-118.0451 Y70.9125 
X-118.2081 Y70.8595 
X-118.3609 Y70.7816 
X-118.4996 Y70.6809 
X-118.6209 Y70.5596 
X-118.7216 Y70.4209 
X-118.7995 Y70.2681 
X-118.8525 Y70.1051 
X-118.8793 Y69.9357 
Y69.7643 
X-118.8525 Y69.5949 
X-118.7995 Y69.4319 
X-118.7216 Y69.2791 
X-118.6209 Y69.1404 
X-118.4996 Y69.0191 
X-118.3609 Y68.9183 
X-118.2081 Y68.8405 
X-118.0451 Y68.7875 
X-117.8757 Y68.7607 
X-117.7043 
X-117.5349 Y68.7875 
X-117.3719 Y68.8405 
X-117.2191 Y68.9183 
X-117.0804 Y69.0191 
X-116.9591 Y69.1404 
X-116.8583 Y69.2791 
X-116.7805 Y69.4319 
X-116.7655 Y69.4781 
X-111.1151 Y63.8277 
X-111.0404 Y63.7968 
X-95.3560 
X-95.3853 Y63.7260 
X-95.4151 Y63.5763 
Y63.4237 
X-95.3853 Y63.2740 
X-95.3269 Y63.1330 
X-95.2421 Y63.0062 
X-95.1342 Y62.8982 
G00 Z2.5400  
G00 X-95.1342 Y65.4382 
G01 Z-0.1778 F254   
G01 X-95.0074 Y65.3535 F508   
G01 X-94.8664 Y65.2951 
X-94.7167 Y65.2653 
X-93.2433 
X-93.0936 Y65.2951 
X-92.9526 Y65.3535 
X-92.8258 Y65.4382 
X-92.7178 Y65.5462 
X-92.6946 Y65.5809 
X-92.1736 
X-91.4191 Y64.8264 
Y54.2798 
X-91.5326 
X-91.7141 Y54.2437 
X-91.8852 Y54.1728 
X-92.0391 Y54.0700 
X-92.1700 Y53.9391 
X-92.2728 Y53.7852 
X-92.3437 Y53.6141 
X-92.3798 Y53.4326 
Y53.2474 
X-92.3437 Y53.0659 
X-92.2728 Y52.8948 
X-92.1700 Y52.7409 
X-92.0391 Y52.6100 
X-91.8852 Y52.5072 
X-91.7141 Y52.4363 
X-91.5326 Y52.4002 
X-91.3474 
X-91.1659 Y52.4363 
X-90.9948 Y52.5072 
X-90.8409 Y52.6100 
X-90.7100 Y52.7409 
X-90.6072 Y52.8948 
X-90.5363 Y53.0659 
X-90.5002 Y53.2474 
Y53.4326 
X-90.5363 Y53.6141 
X-90.6072 Y53.7852 
X-90.6234 Y53.8094 
X-90.6207 Y53.8134 
X-90.6163 Y53.8264 
X-90.6095 Y53.8382 
X-90.5987 Y53.8785 
X-90.5853 Y53.9180 
Y53.9316 
X-90.5809 Y53.9448 
Y53.9865 
X-90.5782 Y54.0281 
X-90.5809 Y54.0415 
Y65.0552 
X-90.6095 Y65.1618 
X-90.6646 Y65.2573 
X-91.6646 Y66.2573 
X-91.7427 Y66.3354 
X-91.8382 Y66.3905 
X-91.9448 Y66.4191 
X-92.6412 
X-92.7178 Y66.5338 
X-92.8258 Y66.6417 
X-92.9526 Y66.7265 
X-93.0936 Y66.7849 
X-93.2433 Y66.8147 
X-93.5809 
Y70.6305 
X-93.4538 Y70.6507 
X-93.2960 Y70.7019 
X-93.1481 Y70.7773 
X-93.0139 Y70.8748 
X-92.8966 Y70.9921 
X-92.7991 Y71.1263 
X-92.7237 Y71.2742 
X-92.6725 Y71.4320 
X-92.6465 Y71.5958 
Y71.7618 
Y71.7714 
X-92.6263 Y71.8024 
X-92.6194 Y71.8210 
X-92.6095 Y71.8382 
X-92.6003 Y71.8726 
X-92.5879 Y71.9058 
Y71.9256 
X-92.5809 Y71.9448 
Y71.9804 
X-92.5776 Y72.0157 
X-92.5809 Y72.0353 
Y73.8264 
X-90.8264 Y75.5809 
X-84.9448 
X-84.8382 Y75.6095 
X-84.7427 Y75.6646 
X-84.6646 Y75.7427 
X-84.6095 Y75.8382 
X-84.5809 Y75.9448 
Y76.0552 
X-84.6095 Y76.1618 
X-84.6646 Y76.2573 
X-84.7427 Y76.3354 
X-84.8382 Y76.3905 
X-84.9448 Y76.4191 
X-90.8264 
X-92.6465 Y78.2392 
Y78.2642 
X-92.6725 Y78.4280 
X-92.7237 Y78.5858 
X-92.7991 Y78.7337 
X-92.8966 Y78.8679 
X-93.0139 Y78.9852 
X-93.1481 Y79.0827 
X-93.2960 Y79.1581 
X-93.4538 Y79.2093 
X-93.6176 Y79.2353 
X-93.6519 
X-93.6646 Y79.2573 
X-93.6780 Y79.2706 
X-93.6888 Y79.2860 
X-93.7168 Y79.3095 
X-93.7427 Y79.3354 
X-93.7590 Y79.3448 
X-93.7734 Y79.3568 
X-93.8066 Y79.3722 
X-93.8382 Y79.3905 
X-93.8564 Y79.3954 
X-93.8735 Y79.4033 
X-93.9095 Y79.4096 
X-93.9448 Y79.4191 
X-93.9636 
X-93.9822 Y79.4223 
X-94.0186 Y79.4191 
X-96.8264 
X-100.4443 Y83.0370 
Y83.9571 
X-100.4780 Y84.1264 
X-100.5440 Y84.2859 
X-100.6399 Y84.4294 
X-100.7620 Y84.5515 
X-100.9055 Y84.6474 
X-101.0650 Y84.7134 
X-101.2343 Y84.7471 
X-101.4069 
X-101.5762 Y84.7134 
X-101.7357 Y84.6474 
X-101.8792 Y84.5515 
X-102.0013 Y84.4294 
X-102.0972 Y84.2859 
X-102.1632 Y84.1264 
X-102.1969 Y83.9571 
Y82.2605 
X-102.1632 Y82.0912 
X-102.0972 Y81.9317 
X-102.0013 Y81.7882 
X-101.8792 Y81.6661 
X-101.7357 Y81.5702 
X-101.5762 Y81.5042 
X-101.4069 Y81.4705 
X-101.2343 
X-101.0650 Y81.5042 
X-100.9055 Y81.5702 
X-100.7620 Y81.6661 
X-100.6399 Y81.7882 
X-100.5440 Y81.9317 
X-100.5383 Y81.9456 
X-97.3354 Y78.7427 
X-97.2573 Y78.6646 
X-97.1618 Y78.6095 
X-97.0552 Y78.5809 
X-94.6791 
X-94.7287 Y78.4280 
X-94.7547 Y78.2642 
Y78.0982 
X-94.7287 Y77.9344 
X-94.6775 Y77.7766 
X-94.6021 Y77.6287 
X-94.5046 Y77.4945 
X-94.3873 Y77.3772 
X-94.2531 Y77.2797 
X-94.1052 Y77.2043 
X-93.9474 Y77.1531 
X-93.7836 Y77.1271 
X-93.6176 
X-93.4538 Y77.1531 
X-93.2960 Y77.2043 
X-93.1481 Y77.2797 
X-93.0139 Y77.3772 
X-92.9919 Y77.3992 
X-91.5927 Y76.0000 
X-93.3354 Y74.2573 
X-93.3905 Y74.1618 
X-93.4191 Y74.0552 
Y72.6957 
X-93.4538 Y72.7069 
X-93.6176 Y72.7329 
X-93.7836 
X-93.9474 Y72.7069 
X-94.1052 Y72.6557 
X-94.2531 Y72.5803 
X-94.3873 Y72.4828 
X-94.5046 Y72.3655 
X-94.6021 Y72.2313 
X-94.6775 Y72.0834 
X-94.7287 Y71.9256 
X-94.7547 Y71.7618 
Y71.5958 
X-94.7287 Y71.4320 
X-94.6775 Y71.2742 
X-94.6021 Y71.1263 
X-94.5046 Y70.9921 
X-94.4191 Y70.9066 
Y70.4191 
X-96.8574 
X-96.9591 Y70.5596 
X-97.0804 Y70.6809 
X-97.2191 Y70.7816 
X-97.3719 Y70.8595 
X-97.5349 Y70.9125 
X-97.7043 Y70.9393 
X-97.8757 
X-98.0451 Y70.9125 
X-98.2081 Y70.8595 
X-98.3609 Y70.7816 
X-98.4996 Y70.6809 
X-98.6209 Y70.5596 
X-98.7216 Y70.4209 
X-98.7995 Y70.2681 
X-98.8525 Y70.1051 
X-98.8793 Y69.9357 
Y69.7643 
X-98.8525 Y69.5949 
X-98.7995 Y69.4319 
X-98.7216 Y69.2791 
X-98.6209 Y69.1404 
X-98.4996 Y69.0191 
X-98.3609 Y68.9183 
X-98.2081 Y68.8405 
X-98.0451 Y68.7875 
X-97.8757 Y68.7607 
X-97.7043 
X-97.5349 Y68.7875 
X-97.3719 Y68.8405 
X-97.2191 Y68.9183 
X-97.0804 Y69.0191 
X-96.9591 Y69.1404 
X-96.8583 Y69.2791 
X-96.7805 Y69.4319 
X-96.7321 Y69.5809 
X-94.4191 
Y66.8147 
X-94.7167 
X-94.8664 Y66.7849 
X-95.0074 Y66.7265 
X-95.1342 Y66.6417 
X-95.2421 Y66.5338 
X-95.3269 Y66.4070 
X-95.3853 Y66.2660 
X-95.4151 Y66.1163 
Y65.9637 
X-95.3853 Y65.8140 
X-95.3269 Y65.6730 
X-95.2421 Y65.5462 
X-95.1342 Y65.4382 
G00 Z2.5400  
G00 X-87.5142 Y65.4382 
G01 Z-0.1778 F254   
G01 X-87.3874 Y65.3535 F508   
G01 X-87.2464 Y65.2951 
X-87.0967 Y65.2653 
X-85.6233 
X-85.4736 Y65.2951 
X-85.3326 Y65.3535 
X-85.2058 Y65.4382 
X-85.0978 Y65.5462 
X-85.0131 Y65.6730 
X-84.9547 Y65.8140 
X-84.9249 Y65.9637 
Y66.1163 
X-84.9547 Y66.2660 
X-85.0131 Y66.4070 
X-85.0978 Y66.5338 
X-85.2058 Y66.6417 
X-85.3326 Y66.7265 
X-85.4736 Y66.7849 
X-85.6233 Y66.8147 
X-87.0967 
X-87.2464 Y66.7849 
X-87.3874 Y66.7265 
X-87.5142 Y66.6417 
X-87.6221 Y66.5338 
X-87.7069 Y66.4070 
X-87.7653 Y66.2660 
X-87.7951 Y66.1163 
Y65.9637 
X-87.7653 Y65.8140 
X-87.7069 Y65.6730 
X-87.6221 Y65.5462 
X-87.5142 Y65.4382 
G00 Z2.5400  
G00 X-87.5142 Y64.1017 
G01 Z-0.1778 F254   
G01 X-87.6221 Y63.9938 F508   
G01 X-87.7069 Y63.8670 
X-87.7653 Y63.7260 
X-87.7951 Y63.5763 
Y63.4237 
X-87.7653 Y63.2740 
X-87.7069 Y63.1330 
X-87.6221 Y63.0062 
X-87.5142 Y62.8982 
X-87.3874 Y62.8135 
X-87.2464 Y62.7551 
X-87.0967 Y62.7253 
X-85.6233 
X-85.4736 Y62.7551 
X-85.3326 Y62.8135 
X-85.2058 Y62.8982 
X-85.0978 Y63.0062 
X-85.0131 Y63.1330 
X-84.9547 Y63.2740 
X-84.9249 Y63.4237 
Y63.5763 
X-84.9547 Y63.7260 
X-85.0131 Y63.8670 
X-85.0978 Y63.9938 
X-85.2058 Y64.1017 
X-85.3326 Y64.1865 
X-85.4736 Y64.2449 
X-85.6233 Y64.2747 
X-87.0967 
X-87.2464 Y64.2449 
X-87.3874 Y64.1865 
X-87.5142 Y64.1017 
G00 Z2.5400  
G00 X-87.5142 Y61.5617 
G01 Z-0.1778 F254   
G01 X-87.6221 Y61.4538 F508   
G01 X-87.7069 Y61.3270 
X-87.7653 Y61.1860 
X-87.7951 Y61.0363 
Y60.8837 
X-87.7653 Y60.7340 
X-87.7069 Y60.5930 
X-87.6221 Y60.4662 
X-87.5142 Y60.3582 
X-87.3874 Y60.2735 
X-87.2464 Y60.2151 
X-87.0967 Y60.1853 
X-85.6233 
X-85.4736 Y60.2151 
X-85.3326 Y60.2735 
X-85.2058 Y60.3582 
X-85.0978 Y60.4662 
X-85.0131 Y60.5930 
X-84.9547 Y60.7340 
X-84.9249 Y60.8837 
Y61.0363 
X-84.9547 Y61.1860 
X-85.0131 Y61.3270 
X-85.0978 Y61.4538 
X-85.2058 Y61.5617 
X-85.3326 Y61.6465 
X-85.4736 Y61.7049 
X-85.6233 Y61.7347 
X-87.0967 
X-87.2464 Y61.7049 
X-87.3874 Y61.6465 
X-87.5142 Y61.5617 
G00 Z2.5400  
G00 X-81.8817 Y60.8442 
G01 Z-0.1778 F254   
G01 X-81.9665 Y60.7174 F508   
G01 X-82.0249 Y60.5764 
X-82.0547 Y60.4267 
Y58.9533 
X-82.0249 Y58.8036 
X-81.9665 Y58.6626 
X-81.8817 Y58.5358 
X-81.7738 Y58.4278 
X-81.6470 Y58.3431 
X-81.5060 Y58.2847 
X-81.3563 Y58.2549 
X-81.2037 
X-81.0540 Y58.2847 
X-80.9130 Y58.3431 
X-80.7862 Y58.4278 
X-80.6783 Y58.5358 
X-80.5935 Y58.6626 
X-80.5351 Y58.8036 
X-80.5053 Y58.9533 
Y60.4267 
X-80.5351 Y60.5764 
X-80.5935 Y60.7174 
X-80.6783 Y60.8442 
X-80.7862 Y60.9521 
X-80.7968 Y60.9593 
Y71.6334 
X-80.7427 Y71.6646 
X-80.6646 Y71.7427 
X-80.6095 Y71.8382 
X-80.5809 Y71.9448 
Y72.0552 
X-80.6095 Y72.1618 
X-80.6646 Y72.2573 
X-80.7427 Y72.3354 
X-80.8382 Y72.3905 
X-80.9448 Y72.4191 
X-81.0552 
X-81.1618 Y72.3905 
X-81.2573 Y72.3354 
X-81.3354 Y72.2573 
X-81.3905 Y72.1618 
X-81.4191 Y72.0552 
Y71.9448 
X-81.3905 Y71.8382 
X-81.3354 Y71.7427 
X-81.2573 Y71.6646 
X-81.2032 Y71.6334 
Y61.1250 
X-81.3563 
X-81.5060 Y61.0953 
X-81.6470 Y61.0369 
X-81.7738 Y60.9521 
X-81.8817 Y60.8442 
G00 Z2.5400  
G00 X-79.3417 Y60.8442 
G01 Z-0.1778 F254   
G01 X-79.4265 Y60.7174 F508   
G01 X-79.4849 Y60.5764 
X-79.5147 Y60.4267 
Y58.9533 
X-79.4849 Y58.8036 
X-79.4265 Y58.6626 
X-79.3417 Y58.5358 
X-79.2338 Y58.4278 
X-79.1070 Y58.3431 
X-78.9660 Y58.2847 
X-78.8163 Y58.2549 
X-78.6637 
X-78.5140 Y58.2847 
X-78.3730 Y58.3431 
X-78.2462 Y58.4278 
X-78.1382 Y58.5358 
X-78.0535 Y58.6626 
X-77.9951 Y58.8036 
X-77.9653 Y58.9533 
Y60.4267 
X-77.9951 Y60.5764 
X-78.0535 Y60.7174 
X-78.1382 Y60.8442 
X-78.2462 Y60.9521 
X-78.3730 Y61.0369 
X-78.5140 Y61.0953 
X-78.6637 Y61.1251 
X-78.8163 
X-78.9660 Y61.0953 
X-79.1070 Y61.0369 
X-79.2338 Y60.9521 
X-79.3417 Y60.8442 
G00 Z2.5400  
G00 X-76.8017 Y60.8442 
G01 Z-0.1778 F254   
G01 X-76.8865 Y60.7174 F508   
G01 X-76.9449 Y60.5764 
X-76.9747 Y60.4267 
Y58.9533 
X-76.9449 Y58.8036 
X-76.8865 Y58.6626 
X-76.8017 Y58.5358 
X-76.6938 Y58.4278 
X-76.5670 Y58.3431 
X-76.4260 Y58.2847 
X-76.2763 Y58.2549 
X-76.1237 
X-75.9740 Y58.2847 
X-75.8330 Y58.3431 
X-75.7062 Y58.4278 
X-75.5982 Y58.5358 
X-75.5135 Y58.6626 
X-75.4551 Y58.8036 
X-75.4253 Y58.9533 
Y60.4267 
X-75.4551 Y60.5764 
X-75.5135 Y60.7174 
X-75.5982 Y60.8442 
X-75.7062 Y60.9521 
X-75.8330 Y61.0369 
X-75.9740 Y61.0953 
X-76.1237 Y61.1251 
X-76.2763 
X-76.4260 Y61.0953 
X-76.5670 Y61.0369 
X-76.6938 Y60.9521 
X-76.8017 Y60.8442 
G00 Z2.5400  
G00 X-74.2617 Y60.8442 
G01 Z-0.1778 F254   
G01 X-74.3465 Y60.7174 F508   
G01 X-74.4049 Y60.5764 
X-74.4347 Y60.4267 
Y58.9533 
X-74.4049 Y58.8036 
X-74.3465 Y58.6626 
X-74.2617 Y58.5358 
X-74.1538 Y58.4278 
X-74.0270 Y58.3431 
X-73.8860 Y58.2847 
X-73.7363 Y58.2549 
X-73.5837 
X-73.4340 Y58.2847 
X-73.2930 Y58.3431 
X-73.1662 Y58.4278 
X-73.0583 Y58.5358 
X-72.9735 Y58.6626 
X-72.9151 Y58.8036 
X-72.8853 Y58.9533 
Y60.4267 
X-72.9151 Y60.5764 
X-72.9735 Y60.7174 
X-73.0583 Y60.8442 
X-73.1662 Y60.9521 
X-73.2930 Y61.0369 
X-73.4340 Y61.0953 
X-73.5837 Y61.1251 
X-73.7363 
X-73.7968 Y61.1131 
Y71.0404 
X-73.8277 Y71.1151 
X-74.7968 Y72.0842 
Y72.9158 
X-73.0470 Y74.6656 
X-72.9052 Y74.5709 
X-72.7227 Y74.4953 
X-72.5288 Y74.4567 
X-72.3312 
X-72.1373 Y74.4953 
X-71.9548 Y74.5709 
X-71.7904 Y74.6807 
X-71.6507 Y74.8204 
X-71.5409 Y74.9848 
X-71.4653 Y75.1673 
X-71.4267 Y75.3612 
Y75.5588 
X-71.4653 Y75.7527 
X-71.5409 Y75.9352 
X-71.6507 Y76.0996 
X-71.7904 Y76.2393 
X-71.9548 Y76.3491 
X-72.1373 Y76.4247 
X-72.3312 Y76.4633 
X-72.5288 
X-72.7227 Y76.4247 
X-72.9052 Y76.3491 
X-73.0696 Y76.2393 
X-73.2093 Y76.0996 
X-73.3191 Y75.9352 
X-73.3947 Y75.7527 
X-73.4333 Y75.5588 
Y75.3612 
X-73.3947 Y75.1673 
X-73.3191 Y74.9848 
X-73.3125 Y74.9749 
X-75.1723 Y73.1151 
X-75.2032 Y73.0404 
Y71.9596 
X-75.1723 Y71.8849 
X-75.1151 Y71.8277 
X-74.2032 Y70.9158 
Y60.9028 
X-74.2617 Y60.8442 
G00 Z2.5400  
G00 X-71.7217 Y60.8442 
G01 Z-0.1778 F254   
G01 X-71.8065 Y60.7174 F508   
G01 X-71.8649 Y60.5764 
X-71.8947 Y60.4267 
Y58.9533 
X-71.8649 Y58.8036 
X-71.8065 Y58.6626 
X-71.7217 Y58.5358 
X-71.6138 Y58.4278 
X-71.4870 Y58.3431 
X-71.3460 Y58.2847 
X-71.1963 Y58.2549 
X-71.0437 
X-70.8940 Y58.2847 
X-70.7530 Y58.3431 
X-70.6262 Y58.4278 
X-70.5182 Y58.5358 
X-70.4335 Y58.6626 
X-70.3751 Y58.8036 
X-70.3453 Y58.9533 
Y60.4267 
X-70.3751 Y60.5764 
X-70.4335 Y60.7174 
X-70.5182 Y60.8442 
X-70.6262 Y60.9521 
X-70.7530 Y61.0369 
X-70.7968 Y61.0551 
Y70.9158 
X-68.8849 Y72.8277 
X-68.8277 Y72.8849 
X-68.7968 Y72.9596 
Y75.0404 
X-68.8277 Y75.1151 
X-71.4577 Y77.7451 
X-71.4267 Y77.9012 
Y78.0988 
X-71.4653 Y78.2926 
X-71.5409 Y78.4752 
X-71.6507 Y78.6396 
X-71.7904 Y78.7793 
X-71.9548 Y78.8891 
X-72.1373 Y78.9647 
X-72.3312 Y79.0033 
X-72.5288 
X-72.7227 Y78.9647 
X-72.9052 Y78.8891 
X-73.0696 Y78.7793 
X-73.2093 Y78.6396 
X-73.3191 Y78.4752 
X-73.3947 Y78.2926 
X-73.4333 Y78.0988 
Y77.9012 
X-73.3947 Y77.7073 
X-73.3191 Y77.5248 
X-73.2093 Y77.3604 
X-73.0696 Y77.2207 
X-72.9052 Y77.1109 
X-72.7227 Y77.0353 
X-72.5288 Y76.9967 
X-72.3312 
X-72.1373 Y77.0353 
X-71.9548 Y77.1109 
X-71.7904 Y77.2207 
X-71.6507 Y77.3604 
X-69.2032 Y74.9158 
Y73.0842 
X-71.1723 Y71.1151 
X-71.2032 Y71.0404 
Y61.1237 
X-71.3460 Y61.0953 
X-71.4870 Y61.0369 
X-71.6138 Y60.9521 
X-71.7217 Y60.8442 
G00 Z2.5400  
G00 X-69.2032 Y60.8121 
G01 Z-0.1778 F254   
G01 X-69.2665 Y60.7174 F508   
G01 X-69.3249 Y60.5764 
X-69.3547 Y60.4267 
Y58.9533 
X-69.3249 Y58.8036 
X-69.2665 Y58.6626 
X-69.1817 Y58.5358 
X-69.0738 Y58.4278 
X-68.9470 Y58.3431 
X-68.8060 Y58.2847 
X-68.6563 Y58.2549 
X-68.5037 
X-68.3540 Y58.2847 
X-68.2130 Y58.3431 
X-68.0862 Y58.4278 
X-67.9783 Y58.5358 
X-67.8935 Y58.6626 
X-67.8351 Y58.8036 
X-67.8053 Y58.9533 
Y60.4267 
X-67.8351 Y60.5764 
X-67.8935 Y60.7174 
X-67.9783 Y60.8442 
X-68.0862 Y60.9521 
X-68.2130 Y61.0369 
X-68.3540 Y61.0953 
X-68.5037 Y61.1251 
X-68.6563 
X-68.8060 Y61.0953 
X-68.8176 Y61.0905 
X-68.8277 Y61.1151 
X-69.7968 Y62.0842 
Y69.9158 
X-67.8849 Y71.8277 
X-67.8277 Y71.8849 
X-67.7968 Y71.9596 
Y78.0404 
X-67.8277 Y78.1151 
X-70.8277 Y81.1151 
X-70.8849 Y81.1723 
X-70.9596 Y81.2032 
X-71.6743 
X-71.7904 Y81.3193 
X-71.9548 Y81.4291 
X-72.1373 Y81.5047 
X-72.3312 Y81.5433 
X-72.5288 
X-72.7227 Y81.5047 
X-72.9052 Y81.4291 
X-73.0696 Y81.3193 
X-73.2093 Y81.1796 
X-73.3191 Y81.0152 
X-73.3947 Y80.8327 
X-73.4333 Y80.6388 
Y80.4412 
X-73.3947 Y80.2473 
X-73.3191 Y80.0648 
X-73.2093 Y79.9004 
X-73.0696 Y79.7607 
X-72.9052 Y79.6509 
X-72.7227 Y79.5753 
X-72.5288 Y79.5367 
X-72.3312 
X-72.1373 Y79.5753 
X-71.9548 Y79.6509 
X-71.7904 Y79.7607 
X-71.6507 Y79.9004 
X-71.5409 Y80.0648 
X-71.4653 Y80.2473 
X-71.4267 Y80.4412 
Y80.6388 
X-71.4581 Y80.7968 
X-71.0842 
X-68.2032 Y77.9158 
Y72.0842 
X-70.1723 Y70.1151 
X-70.2032 Y70.0404 
Y61.9596 
X-70.1723 Y61.8849 
X-70.1151 Y61.8277 
X-69.2032 Y60.9158 
Y60.8121 
G00 Z2.5400  
G00 X-69.1151 Y62.8277 
G01 Z-0.1778 F254   
G01 X-69.1151 Y62.8277 F508   
G01 X-66.7980 Y60.5106 
X-66.8147 Y60.4267 
Y58.9533 
X-66.7849 Y58.8036 
X-66.7265 Y58.6626 
X-66.6417 Y58.5358 
X-66.5338 Y58.4278 
X-66.4070 Y58.3431 
X-66.2660 Y58.2847 
X-66.1163 Y58.2549 
X-65.9637 
X-65.8140 Y58.2847 
X-65.6730 Y58.3431 
X-65.5462 Y58.4278 
X-65.4382 Y58.5358 
X-65.3535 Y58.6626 
X-65.2951 Y58.8036 
X-65.2653 Y58.9533 
Y60.4267 
X-65.2951 Y60.5764 
X-65.3535 Y60.7174 
X-65.4382 Y60.8442 
X-65.5462 Y60.9521 
X-65.6730 Y61.0369 
X-65.8140 Y61.0953 
X-65.9637 Y61.1251 
X-66.1163 
X-66.2660 Y61.0953 
X-66.4070 Y61.0369 
X-66.5338 Y60.9521 
X-66.5993 Y60.8867 
X-68.7968 Y63.0842 
Y68.9158 
X-66.8849 Y70.8277 
X-66.8277 Y70.8849 
X-66.7968 Y70.9596 
Y79.0404 
X-66.8277 Y79.1151 
X-69.8277 Y82.1151 
X-69.8849 Y82.1723 
X-69.9596 Y82.2032 
X-70.9158 
X-71.4754 Y82.7628 
X-71.4653 Y82.7873 
X-71.4267 Y82.9812 
Y83.1788 
X-71.4653 Y83.3726 
X-71.5409 Y83.5552 
X-71.6507 Y83.7196 
X-71.7904 Y83.8593 
X-71.9548 Y83.9691 
X-72.1373 Y84.0447 
X-72.3312 Y84.0833 
X-72.5288 
X-72.7227 Y84.0447 
X-72.9052 Y83.9691 
X-73.0696 Y83.8593 
X-73.2093 Y83.7196 
X-73.3191 Y83.5552 
X-73.3947 Y83.3726 
X-73.4333 Y83.1788 
Y82.9812 
X-73.3947 Y82.7873 
X-73.3191 Y82.6048 
X-73.2093 Y82.4404 
X-73.0696 Y82.3007 
X-72.9052 Y82.1909 
X-72.7227 Y82.1153 
X-72.5288 Y82.0767 
X-72.3312 
X-72.1373 Y82.1153 
X-71.9548 Y82.1909 
X-71.7904 Y82.3007 
X-71.6892 Y82.4019 
X-71.1151 Y81.8277 
X-71.0404 Y81.7968 
X-70.0842 
X-67.2032 Y78.9158 
Y71.0842 
X-69.1723 Y69.1151 
X-69.2032 Y69.0404 
Y62.9596 
X-69.1723 Y62.8849 
X-69.1151 Y62.8277 
G00 Z2.5400  
G00 X-64.2032 Y60.6771 
G01 Z-0.1778 F254   
G01 X-64.2449 Y60.5764 F508   
G01 X-64.2747 Y60.4267 
Y58.9533 
X-64.2449 Y58.8036 
X-64.1865 Y58.6626 
X-64.1017 Y58.5358 
X-63.9938 Y58.4278 
X-63.8670 Y58.3431 
X-63.7260 Y58.2847 
X-63.5763 Y58.2549 
X-63.4237 
X-63.2740 Y58.2847 
X-63.1330 Y58.3431 
X-63.0062 Y58.4278 
X-62.8982 Y58.5358 
X-62.8135 Y58.6626 
X-62.7551 Y58.8036 
X-62.7253 Y58.9533 
Y60.4267 
X-62.7551 Y60.5764 
X-62.8135 Y60.7174 
X-62.8982 Y60.8442 
X-63.0062 Y60.9521 
X-63.1330 Y61.0369 
X-63.2740 Y61.0953 
X-63.4237 Y61.1251 
X-63.5763 
X-63.7260 Y61.0953 
X-63.7968 Y61.0660 
Y78.0404 
X-63.8277 Y78.1151 
X-71.4267 Y85.7141 
Y85.7188 
X-71.4653 Y85.9126 
X-71.5409 Y86.0952 
X-71.6507 Y86.2596 
X-71.7904 Y86.3993 
X-71.9548 Y86.5091 
X-72.1373 Y86.5847 
X-72.3312 Y86.6233 
X-72.5288 
X-72.7227 Y86.5847 
X-72.9052 Y86.5091 
X-73.0696 Y86.3993 
X-73.2093 Y86.2596 
X-73.3191 Y86.0952 
X-73.3947 Y85.9126 
X-73.4333 Y85.7188 
Y85.5212 
X-73.3947 Y85.3273 
X-73.3191 Y85.1448 
X-73.2093 Y84.9804 
X-73.0696 Y84.8407 
X-72.9052 Y84.7309 
X-72.7227 Y84.6553 
X-72.5288 Y84.6167 
X-72.3312 
X-72.1373 Y84.6553 
X-71.9548 Y84.7309 
X-71.7904 Y84.8407 
X-71.6507 Y84.9804 
X-71.5409 Y85.1448 
X-71.5090 Y85.2217 
X-64.2032 Y77.9158 
Y60.6771 
G00 Z2.5400  
G00 X-61.6465 Y60.7174 
G01 Z-0.1778 F254   
G01 X-61.7049 Y60.5764 F508   
G01 X-61.7347 Y60.4267 
Y58.9533 
X-61.7049 Y58.8036 
X-61.6465 Y58.6626 
X-61.5617 Y58.5358 
X-61.4538 Y58.4278 
X-61.3270 Y58.3431 
X-61.1860 Y58.2847 
X-61.0363 Y58.2549 
X-60.8837 
X-60.7340 Y58.2847 
X-60.5930 Y58.3431 
X-60.4662 Y58.4278 
X-60.3582 Y58.5358 
X-60.2735 Y58.6626 
X-60.2151 Y58.8036 
X-60.1853 Y58.9533 
Y60.4267 
X-60.2151 Y60.5764 
X-60.2735 Y60.7174 
X-60.3582 Y60.8442 
X-60.4662 Y60.9521 
X-60.5930 Y61.0369 
X-60.7340 Y61.0953 
X-60.8837 Y61.1251 
X-61.0363 
X-61.1860 Y61.0953 
X-61.3270 Y61.0369 
X-61.4538 Y60.9521 
X-61.5617 Y60.8442 
X-61.6465 Y60.7174 
G00 Z2.5400  
G00 X-59.1065 Y60.7174 
G01 Z-0.1778 F254   
G01 X-59.1649 Y60.5764 F508   
G01 X-59.1947 Y60.4267 
Y58.9533 
X-59.1649 Y58.8036 
X-59.1065 Y58.6626 
X-59.0217 Y58.5358 
X-58.9138 Y58.4278 
X-58.7870 Y58.3431 
X-58.6460 Y58.2847 
X-58.4963 Y58.2549 
X-58.3437 
X-58.1940 Y58.2847 
X-58.0530 Y58.3431 
X-57.9262 Y58.4278 
X-57.8182 Y58.5358 
X-57.7335 Y58.6626 
X-57.6751 Y58.8036 
X-57.6453 Y58.9533 
Y59.7726 
X-57.6379 Y59.7818 
X-57.6253 Y59.8108 
X-57.6095 Y59.8382 
X-57.6033 Y59.8612 
X-57.5938 Y59.8830 
X-57.5891 Y59.9143 
X-57.5809 Y59.9448 
Y59.9686 
X-57.5774 Y59.9921 
X-57.5809 Y60.0236 
Y60.8264 
X-51.8264 Y66.5809 
X-27.4191 
Y47.9448 
X-27.3905 Y47.8382 
X-27.3354 Y47.7427 
X-27.2573 Y47.6646 
X-27.1618 Y47.6095 
X-27.0552 Y47.5809 
X-26.9448 
X-26.8382 Y47.6095 
X-26.7427 Y47.6646 
X-26.6646 Y47.7427 
X-26.6095 Y47.8382 
X-26.5809 Y47.9448 
Y66.5809 
X-25.0381 
X-25.0213 Y66.5778 
X-24.9831 Y66.5809 
X-24.9448 
X-24.9283 Y66.5853 
X-24.9113 
X-24.9011 Y66.5903 
X-24.8167 Y66.5060 
X-24.6825 Y66.4085 
X-24.5346 Y66.3331 
X-24.3768 Y66.2819 
X-24.2130 Y66.2559 
X-24.0470 
X-23.8832 Y66.2819 
X-23.7254 Y66.3331 
X-23.5775 Y66.4085 
X-23.4433 Y66.5060 
X-23.3260 Y66.6233 
X-23.2285 Y66.7575 
X-23.1531 Y66.9054 
X-23.1019 Y67.0632 
X-23.0759 Y67.2270 
Y67.3930 
X-23.1019 Y67.5568 
X-23.1531 Y67.7146 
X-23.2285 Y67.8625 
X-23.3260 Y67.9967 
X-23.4433 Y68.1140 
X-23.5775 Y68.2115 
X-23.7254 Y68.2869 
X-23.8832 Y68.3381 
X-24.0470 Y68.3641 
X-24.2130 
X-24.3768 Y68.3381 
X-24.5346 Y68.2869 
X-24.6825 Y68.2115 
X-24.8167 Y68.1140 
X-24.9340 Y67.9967 
X-25.0315 Y67.8625 
X-25.1069 Y67.7146 
X-25.1581 Y67.5568 
X-25.1800 Y67.4191 
X-52.0552 
X-52.1618 Y67.3905 
X-52.2573 Y67.3354 
X-52.3354 Y67.2573 
X-58.3354 Y61.2573 
X-58.3905 Y61.1618 
X-58.4004 Y61.1251 
X-58.4963 
X-58.6460 Y61.0953 
X-58.7870 Y61.0369 
X-58.9138 Y60.9521 
X-59.0217 Y60.8442 
X-59.1065 Y60.7174 
G00 Z2.5400  
G00 X-54.0265 Y60.7174 
G01 Z-0.1778 F254   
G01 X-54.0849 Y60.5764 F508   
G01 X-54.1147 Y60.4267 
Y59.1741 
X-54.1452 Y59.1421 
X-54.1723 Y59.1151 
Y59.1112 
X-54.1886 Y59.0757 
X-54.2032 Y59.0404 
Y59.0359 
Y58.9978 
Y50.3666 
X-54.2573 Y50.3354 
X-54.3354 Y50.2573 
X-54.3905 Y50.1618 
X-54.4191 Y50.0552 
Y49.9448 
X-54.3905 Y49.8382 
X-54.3354 Y49.7427 
X-54.2573 Y49.6646 
X-54.1618 Y49.6095 
X-54.0552 Y49.5809 
X-53.9448 
X-53.8382 Y49.6095 
X-53.7427 Y49.6646 
X-53.6646 Y49.7427 
X-53.6095 Y49.8382 
X-53.5809 Y49.9448 
Y50.0552 
X-53.6095 Y50.1618 
X-53.6646 Y50.2573 
X-53.7427 Y50.3354 
X-53.7968 Y50.3666 
Y58.4031 
X-53.7070 Y58.3431 
X-53.5660 Y58.2847 
X-53.4163 Y58.2549 
X-53.2637 
X-53.1140 Y58.2847 
X-52.9730 Y58.3431 
X-52.8462 Y58.4278 
X-52.7383 Y58.5358 
X-52.6535 Y58.6626 
X-52.5951 Y58.8036 
X-52.5653 Y58.9533 
Y60.4267 
X-52.5951 Y60.5764 
X-52.6535 Y60.7174 
X-52.7383 Y60.8442 
X-52.8462 Y60.9521 
X-52.9730 Y61.0369 
X-53.1140 Y61.0953 
X-53.2637 Y61.1251 
X-53.4163 
X-53.5660 Y61.0953 
X-53.7070 Y61.0369 
X-53.8338 Y60.9521 
X-53.9417 Y60.8442 
X-54.0265 Y60.7174 
G00 Z2.5400  
G00 X-51.4865 Y60.7174 
G01 Z-0.1778 F254   
G01 X-51.5449 Y60.5764 F508   
G01 X-51.5747 Y60.4267 
Y58.9533 
X-51.5449 Y58.8036 
X-51.4865 Y58.6626 
X-51.4017 Y58.5358 
X-51.2938 Y58.4278 
X-51.1670 Y58.3431 
X-51.0260 Y58.2847 
X-50.8763 Y58.2549 
X-50.7237 
X-50.5740 Y58.2847 
X-50.4330 Y58.3431 
X-50.3062 Y58.4278 
X-50.1983 Y58.5358 
X-50.1135 Y58.6626 
X-50.0551 Y58.8036 
X-50.0253 Y58.9533 
Y60.4267 
X-50.0551 Y60.5764 
X-50.1135 Y60.7174 
X-50.1983 Y60.8442 
X-50.3062 Y60.9521 
X-50.4330 Y61.0369 
X-50.5740 Y61.0953 
X-50.7237 Y61.1251 
X-50.8763 
X-51.0260 Y61.0953 
X-51.1670 Y61.0369 
X-51.2938 Y60.9521 
X-51.4017 Y60.8442 
X-51.4865 Y60.7174 
G00 Z2.5400  
G00 X-48.9465 Y60.7174 
G01 Z-0.1778 F254   
G01 X-49.0049 Y60.5764 F508   
G01 X-49.0347 Y60.4267 
Y58.9533 
X-49.0049 Y58.8036 
X-48.9465 Y58.6626 
X-48.8617 Y58.5358 
X-48.7538 Y58.4278 
X-48.6270 Y58.3431 
X-48.4860 Y58.2847 
X-48.3363 Y58.2549 
X-48.1837 
X-48.0340 Y58.2847 
X-47.8930 Y58.3431 
X-47.7662 Y58.4278 
X-47.6583 Y58.5358 
X-47.5735 Y58.6626 
X-47.5151 Y58.8036 
X-47.4853 Y58.9533 
Y60.4267 
X-47.5151 Y60.5764 
X-47.5735 Y60.7174 
X-47.6583 Y60.8442 
X-47.7662 Y60.9521 
X-47.8930 Y61.0369 
X-48.0340 Y61.0953 
X-48.1837 Y61.1251 
X-48.3363 
X-48.4860 Y61.0953 
X-48.6270 Y61.0369 
X-48.7538 Y60.9521 
X-48.8617 Y60.8442 
X-48.9465 Y60.7174 
G00 Z2.5400  
G00 X-46.4065 Y60.7174 
G01 Z-0.1778 F254   
G01 X-46.4649 Y60.5764 F508   
G01 X-46.4947 Y60.4267 
Y58.9533 
X-46.4649 Y58.8036 
X-46.4065 Y58.6626 
X-46.3217 Y58.5358 
X-46.2138 Y58.4278 
X-46.0870 Y58.3431 
X-45.9460 Y58.2847 
X-45.7963 Y58.2549 
X-45.6437 
X-45.4940 Y58.2847 
X-45.3530 Y58.3431 
X-45.2262 Y58.4278 
X-45.1183 Y58.5358 
X-45.0335 Y58.6626 
X-44.9751 Y58.8036 
X-44.9453 Y58.9533 
Y60.4267 
X-44.9751 Y60.5764 
X-45.0335 Y60.7174 
X-45.1183 Y60.8442 
X-45.2262 Y60.9521 
X-45.3530 Y61.0369 
X-45.4940 Y61.0953 
X-45.6437 Y61.1251 
X-45.7963 
X-45.9460 Y61.0953 
X-46.0870 Y61.0369 
X-46.2138 Y60.9521 
X-46.3217 Y60.8442 
X-46.4065 Y60.7174 
G00 Z2.5400  
G00 X-43.8665 Y60.7174 
G01 Z-0.1778 F254   
G01 X-43.9249 Y60.5764 F508   
G01 X-43.9547 Y60.4267 
Y58.9533 
X-43.9249 Y58.8036 
X-43.8665 Y58.6626 
X-43.7817 Y58.5358 
X-43.6738 Y58.4278 
X-43.5470 Y58.3431 
X-43.4060 Y58.2847 
X-43.2563 Y58.2549 
X-43.1037 
X-42.9540 Y58.2847 
X-42.8130 Y58.3431 
X-42.6862 Y58.4278 
X-42.5782 Y58.5358 
X-42.4935 Y58.6626 
X-42.4351 Y58.8036 
X-42.4053 Y58.9533 
Y60.4267 
X-42.4351 Y60.5764 
X-42.4935 Y60.7174 
X-42.5782 Y60.8442 
X-42.6862 Y60.9521 
X-42.8130 Y61.0369 
X-42.9540 Y61.0953 
X-43.1037 Y61.1251 
X-43.2563 
X-43.4060 Y61.0953 
X-43.5470 Y61.0369 
X-43.6738 Y60.9521 
X-43.7817 Y60.8442 
X-43.8665 Y60.7174 
G00 Z2.5400  
G00 X-41.3265 Y60.7174 
G01 Z-0.1778 F254   
G01 X-41.3849 Y60.5764 F508   
G01 X-41.4147 Y60.4267 
Y58.9533 
X-41.3849 Y58.8036 
X-41.3265 Y58.6626 
X-41.2417 Y58.5358 
X-41.1338 Y58.4278 
X-41.0070 Y58.3431 
X-40.8660 Y58.2847 
X-40.7163 Y58.2549 
X-40.5637 
X-40.4140 Y58.2847 
X-40.2730 Y58.3431 
X-40.1462 Y58.4278 
X-40.0382 Y58.5358 
X-39.9535 Y58.6626 
X-39.8951 Y58.8036 
X-39.8653 Y58.9533 
Y60.4267 
X-39.8951 Y60.5764 
X-39.9535 Y60.7174 
X-40.0382 Y60.8442 
X-40.1462 Y60.9521 
X-40.2730 Y61.0369 
X-40.4140 Y61.0953 
X-40.5637 Y61.1251 
X-40.7163 
X-40.8660 Y61.0953 
X-41.0070 Y61.0369 
X-41.1338 Y60.9521 
X-41.2417 Y60.8442 
X-41.3265 Y60.7174 
G00 Z2.5400  
G00 X-38.7865 Y60.7174 
G01 Z-0.1778 F254   
G01 X-38.8449 Y60.5764 F508   
G01 X-38.8747 Y60.4267 
Y58.9533 
X-38.8449 Y58.8036 
X-38.7865 Y58.6626 
X-38.7017 Y58.5358 
X-38.5938 Y58.4278 
X-38.4670 Y58.3431 
X-38.3260 Y58.2847 
X-38.1763 Y58.2549 
X-38.0237 
X-37.8740 Y58.2847 
X-37.7330 Y58.3431 
X-37.6062 Y58.4278 
X-37.4982 Y58.5358 
X-37.4135 Y58.6626 
X-37.3551 Y58.8036 
X-37.3253 Y58.9533 
Y60.4267 
X-37.3551 Y60.5764 
X-37.4135 Y60.7174 
X-37.4982 Y60.8442 
X-37.6062 Y60.9521 
X-37.7330 Y61.0369 
X-37.8740 Y61.0953 
X-38.0237 Y61.1251 
X-38.1763 
X-38.3260 Y61.0953 
X-38.4670 Y61.0369 
X-38.5938 Y60.9521 
X-38.7017 Y60.8442 
X-38.7865 Y60.7174 
G00 Z2.5400  
G00 X-36.2465 Y60.7174 
G01 Z-0.1778 F254   
G01 X-36.3049 Y60.5764 F508   
G01 X-36.3347 Y60.4267 
Y58.9533 
X-36.3049 Y58.8036 
X-36.2465 Y58.6626 
X-36.1617 Y58.5358 
X-36.0538 Y58.4278 
X-35.9270 Y58.3431 
X-35.7860 Y58.2847 
X-35.6363 Y58.2549 
X-35.4837 
X-35.3340 Y58.2847 
X-35.1930 Y58.3431 
X-35.0662 Y58.4278 
X-34.9582 Y58.5358 
X-34.8735 Y58.6626 
X-34.8151 Y58.8036 
X-34.7853 Y58.9533 
Y60.4267 
X-34.8151 Y60.5764 
X-34.8735 Y60.7174 
X-34.9582 Y60.8442 
X-35.0662 Y60.9521 
X-35.1930 Y61.0369 
X-35.3340 Y61.0953 
X-35.4837 Y61.1251 
X-35.6363 
X-35.7860 Y61.0953 
X-35.9270 Y61.0369 
X-36.0538 Y60.9521 
X-36.1617 Y60.8442 
X-36.2465 Y60.7174 
G00 Z2.5400  
G00 X-33.7813 Y60.4940 
G01 Z-0.1778 F254   
G01 X-33.7947 Y60.4267 F508   
G01 X-33.7947 Y58.9533 
X-33.7649 Y58.8036 
X-33.7065 Y58.6626 
X-33.6217 Y58.5358 
X-33.5138 Y58.4278 
X-33.3870 Y58.3431 
X-33.2460 Y58.2847 
X-33.0963 Y58.2549 
X-32.9437 
X-32.7940 Y58.2847 
X-32.6530 Y58.3431 
X-32.5262 Y58.4278 
X-32.4183 Y58.5358 
X-32.3335 Y58.6626 
X-32.2751 Y58.8036 
X-32.2453 Y58.9533 
Y60.4267 
X-32.2751 Y60.5764 
X-32.3335 Y60.7174 
X-32.4183 Y60.8442 
X-32.5262 Y60.9521 
X-32.6530 Y61.0369 
X-32.7940 Y61.0953 
X-32.9437 Y61.1251 
X-33.0963 
X-33.2460 Y61.0953 
X-33.3870 Y61.0369 
X-33.5138 Y60.9521 
X-33.5893 Y60.8767 
X-37.8277 Y65.1151 
X-37.8849 Y65.1723 
X-37.9596 Y65.2032 
X-51.6334 
X-51.6646 Y65.2573 
X-51.7427 Y65.3354 
X-51.8382 Y65.3905 
X-51.9448 Y65.4191 
X-52.0552 
X-52.1618 Y65.3905 
X-52.2573 Y65.3354 
X-52.3354 Y65.2573 
X-52.3905 Y65.1618 
X-52.4191 Y65.0552 
Y64.9448 
X-52.3905 Y64.8382 
X-52.3354 Y64.7427 
X-52.2573 Y64.6646 
X-52.1618 Y64.6095 
X-52.0552 Y64.5809 
X-51.9448 
X-51.8382 Y64.6095 
X-51.7427 Y64.6646 
X-51.6646 Y64.7427 
X-51.6334 Y64.7968 
X-38.0842 
X-33.7813 Y60.4940 
G00 Z2.5400  
G00 X-29.2573 Y60.6646 
G01 Z-0.1778 F254   
G01 X-29.2032 Y60.6334 F508   
G01 X-29.2032 Y56.0842 
X-34.0842 Y51.2032 
X-51.6334 
X-51.6646 Y51.2573 
X-51.7427 Y51.3354 
X-51.8382 Y51.3905 
X-51.9448 Y51.4191 
X-52.0552 
X-52.1618 Y51.3905 
X-52.2573 Y51.3354 
X-52.3354 Y51.2573 
X-52.3905 Y51.1618 
X-52.4191 Y51.0552 
Y50.9448 
X-52.3905 Y50.8382 
X-52.3354 Y50.7427 
X-52.2573 Y50.6646 
X-52.1618 Y50.6095 
X-52.0552 Y50.5809 
X-51.9448 
X-51.8382 Y50.6095 
X-51.7427 Y50.6646 
X-51.6646 Y50.7427 
X-51.6334 Y50.7968 
X-33.9596 
X-33.8849 Y50.8277 
X-33.8277 Y50.8849 
X-28.8277 Y55.8849 
X-28.7968 Y55.9596 
Y56.0404 
Y60.6334 
X-28.7427 Y60.6646 
X-28.6646 Y60.7427 
X-28.6095 Y60.8382 
X-28.5809 Y60.9448 
Y61.0552 
X-28.6095 Y61.1618 
X-28.6646 Y61.2573 
X-28.7427 Y61.3354 
X-28.8382 Y61.3905 
X-28.9448 Y61.4191 
X-29.0552 
X-29.1618 Y61.3905 
X-29.2573 Y61.3354 
X-29.3354 Y61.2573 
X-29.3905 Y61.1618 
X-29.4191 Y61.0552 
Y60.9448 
X-29.3905 Y60.8382 
X-29.3354 Y60.7427 
X-29.2573 Y60.6646 
G00 Z2.5400  
G00 X-25.0825 Y60.0845 
G01 Z-0.1778 F254   
G01 X-25.0825 Y59.2955 F508   
G01 X-24.5245 Y58.7375 
X-23.7355 
X-23.1775 Y59.2955 
Y60.0845 
X-23.7355 Y60.6425 
X-24.5245 
X-25.0825 Y60.0845 
G00 Z2.5400  
G00 X-25.0825 Y63.1055 
G01 Z-0.1778 F254   
G01 X-24.5245 Y62.5475 F508   
G01 X-23.7355 Y62.5475 
X-23.1775 Y63.1055 
Y63.8945 
X-23.7355 Y64.4525 
X-24.5245 
X-25.0825 Y63.8945 
Y63.1055 
G00 Z2.5400  
G00 X-14.9225 Y63.1055 
G01 Z-0.1778 F254   
G01 X-14.3645 Y62.5475 F508   
G01 X-13.5755 Y62.5475 
X-13.0175 Y63.1055 
Y63.8945 
X-13.5755 Y64.4525 
X-14.3645 
X-14.9225 Y63.8945 
Y63.1055 
G00 Z2.5400  
G00 X-14.9225 Y60.0845 
G01 Z-0.1778 F254   
G01 X-14.9225 Y59.2955 F508   
G01 X-14.6099 Y58.9828 
X-29.0000 Y44.5927 
X-33.7427 Y49.3354 
X-33.8382 Y49.3905 
X-33.9448 Y49.4191 
X-53.0552 
X-53.1618 Y49.3905 
X-53.2573 Y49.3354 
X-53.3354 Y49.2573 
X-56.3354 Y46.2573 
X-56.3905 Y46.1618 
X-56.4191 Y46.0552 
Y45.6669 
X-56.4817 Y45.6042 
X-56.5665 Y45.4774 
X-56.6249 Y45.3364 
X-56.6547 Y45.1867 
Y43.7133 
X-56.6249 Y43.5636 
X-56.5665 Y43.4226 
X-56.4817 Y43.2958 
X-56.3738 Y43.1878 
X-56.2470 Y43.1031 
X-56.1060 Y43.0447 
X-55.9563 Y43.0149 
X-55.8037 
X-55.6540 Y43.0447 
X-55.5130 Y43.1031 
X-55.3862 Y43.1878 
X-55.2782 Y43.2958 
X-55.1935 Y43.4226 
X-55.1351 Y43.5636 
X-55.1053 Y43.7133 
Y45.1867 
X-55.1351 Y45.3364 
X-55.1935 Y45.4774 
X-55.2782 Y45.6042 
X-55.3862 Y45.7121 
X-55.5130 Y45.7969 
X-55.5809 Y45.8250 
X-52.8264 Y48.5809 
X-34.1736 
X-29.4191 Y43.8264 
Y41.5566 
X-29.4841 Y41.5437 
X-29.6552 Y41.4728 
X-29.8091 Y41.3700 
X-29.9400 Y41.2391 
X-30.0428 Y41.0852 
X-30.1137 Y40.9141 
X-30.1498 Y40.7326 
Y40.5474 
X-30.1137 Y40.3659 
X-30.0428 Y40.1948 
X-29.9400 Y40.0409 
X-29.8091 Y39.9100 
X-29.6552 Y39.8072 
X-29.4841 Y39.7363 
X-29.3026 Y39.7002 
X-29.2934 
X-29.2882 Y39.6955 
X-29.2573 Y39.6646 
X-29.2472 Y39.6588 
X-29.2384 Y39.6509 
X-29.1995 Y39.6313 
X-29.1618 Y39.6095 
X-29.1504 Y39.6064 
X-29.1399 Y39.6011 
X-29.0973 Y39.5922 
X-29.0552 Y39.5809 
X-29.0434 
X-29.0319 
X-28.9884 
X-16.9448 
X-16.8382 Y39.6095 
X-16.7427 Y39.6646 
X-16.6646 Y39.7427 
X-16.6095 Y39.8382 
X-16.5809 Y39.9448 
Y40.0552 
X-16.6095 Y40.1618 
X-16.6646 Y40.2573 
X-16.7427 Y40.3354 
X-16.8382 Y40.3905 
X-16.9448 Y40.4191 
X-28.2957 
X-28.2702 Y40.5474 
Y40.7326 
X-28.3063 Y40.9141 
X-28.3772 Y41.0852 
X-28.4800 Y41.2391 
X-28.5809 Y41.3400 
Y43.8264 
X-13.7101 Y58.6972 
X-13.6761 Y58.7283 
X-13.6712 Y58.7361 
X-13.5755 
X-13.0175 Y59.2955 
Y60.0845 
X-13.5755 Y60.6425 
X-14.3645 
X-14.9225 Y60.0845 
G00 Z2.5400  
G00 X-14.6567 Y66.5060 
G01 Z-0.1778 F254   
G01 X-14.5225 Y66.4085 F508   
G01 X-14.3746 Y66.3331 
X-14.2168 Y66.2819 
X-14.0530 Y66.2559 
X-13.8870 
X-13.7232 Y66.2819 
X-13.5654 Y66.3331 
X-13.4175 Y66.4085 
X-13.2833 Y66.5060 
X-13.1660 Y66.6233 
X-13.0685 Y66.7575 
X-12.9931 Y66.9054 
X-12.9419 Y67.0632 
X-12.9159 Y67.2270 
Y67.3930 
X-12.9419 Y67.5568 
X-12.9931 Y67.7146 
X-13.0685 Y67.8625 
X-13.1660 Y67.9967 
X-13.2833 Y68.1140 
X-13.4175 Y68.2115 
X-13.5654 Y68.2869 
X-13.7232 Y68.3381 
X-13.8870 Y68.3641 
X-14.0530 
X-14.2168 Y68.3381 
X-14.3746 Y68.2869 
X-14.5225 Y68.2115 
X-14.6567 Y68.1140 
X-14.7740 Y67.9967 
X-14.8715 Y67.8625 
X-14.9469 Y67.7146 
X-14.9981 Y67.5568 
X-15.0241 Y67.3930 
Y67.2270 
X-14.9981 Y67.0632 
X-14.9469 Y66.9054 
X-14.8715 Y66.7575 
X-14.7740 Y66.6233 
X-14.6567 Y66.5060 
G00 Z2.5400  
G00 X-18.6507 Y77.3704 
G01 Z-0.1778 F254   
G01 X-18.5409 Y77.5348 F508   
G01 X-18.4653 Y77.7173 
X-18.4267 Y77.9112 
Y78.1088 
X-18.4653 Y78.3026 
X-18.5409 Y78.4852 
X-18.6507 Y78.6496 
X-18.7904 Y78.7893 
X-18.9548 Y78.8991 
X-19.1373 Y78.9747 
X-19.3312 Y79.0133 
X-19.5288 
X-19.7227 Y78.9747 
X-19.9052 Y78.8991 
X-20.0696 Y78.7893 
X-20.2093 Y78.6496 
X-20.3191 Y78.4852 
X-20.3947 Y78.3026 
X-20.4333 Y78.1088 
Y77.9112 
X-20.3947 Y77.7173 
X-20.3191 Y77.5348 
X-20.2093 Y77.3704 
X-20.0696 Y77.2307 
X-19.9052 Y77.1209 
X-19.7227 Y77.0453 
X-19.5288 Y77.0067 
X-19.3312 
X-19.1373 Y77.0453 
X-18.9548 Y77.1209 
X-18.7904 Y77.2307 
X-18.6507 Y77.3704 
G00 Z2.5400  
G00 X-18.6507 Y79.9004 
G01 Z-0.1778 F254   
G01 X-18.5409 Y80.0648 F508   
G01 X-18.4653 Y80.2473 
X-18.4267 Y80.4412 
Y80.6388 
X-18.4653 Y80.8327 
X-18.5409 Y81.0152 
X-18.6507 Y81.1796 
X-18.7904 Y81.3193 
X-18.9548 Y81.4291 
X-19.1373 Y81.5047 
X-19.3312 Y81.5433 
X-19.5288 
X-19.7227 Y81.5047 
X-19.9052 Y81.4291 
X-20.0696 Y81.3193 
X-20.2093 Y81.1796 
X-20.3191 Y81.0152 
X-20.3947 Y80.8327 
X-20.4333 Y80.6388 
Y80.4412 
X-20.3947 Y80.2473 
X-20.3191 Y80.0648 
X-20.2093 Y79.9004 
X-20.0696 Y79.7607 
X-19.9052 Y79.6509 
X-19.7227 Y79.5753 
X-19.5288 Y79.5367 
X-19.3312 
X-19.1373 Y79.5753 
X-18.9548 Y79.6509 
X-18.7904 Y79.7607 
X-18.6507 Y79.9004 
G00 Z2.5400  
G00 X-18.6507 Y82.4404 
G01 Z-0.1778 F254   
G01 X-18.5409 Y82.6048 F508   
G01 X-18.4653 Y82.7873 
X-18.4267 Y82.9812 
Y83.1788 
X-18.4653 Y83.3726 
X-18.5409 Y83.5552 
X-18.6507 Y83.7196 
X-18.7904 Y83.8593 
X-18.9548 Y83.9691 
X-19.1373 Y84.0447 
X-19.3312 Y84.0833 
X-19.5288 
X-19.7227 Y84.0447 
X-19.9052 Y83.9691 
X-20.0696 Y83.8593 
X-20.2093 Y83.7196 
X-20.3191 Y83.5552 
X-20.3947 Y83.3726 
X-20.4333 Y83.1788 
Y82.9812 
X-20.3947 Y82.7873 
X-20.3191 Y82.6048 
X-20.2093 Y82.4404 
X-20.0696 Y82.3007 
X-19.9052 Y82.1909 
X-19.7227 Y82.1153 
X-19.5288 Y82.0767 
X-19.3312 
X-19.1373 Y82.1153 
X-18.9548 Y82.1909 
X-18.7904 Y82.3007 
X-18.6507 Y82.4404 
G00 Z2.5400  
G00 X-18.6507 Y84.9804 
G01 Z-0.1778 F254   
G01 X-18.5409 Y85.1448 F508   
G01 X-18.4653 Y85.3273 
X-18.4267 Y85.5212 
Y85.7188 
X-18.4653 Y85.9126 
X-18.5409 Y86.0952 
X-18.6507 Y86.2596 
X-18.7904 Y86.3993 
X-18.9548 Y86.5091 
X-19.1373 Y86.5847 
X-19.3312 Y86.6233 
X-19.5288 
X-19.7227 Y86.5847 
X-19.9052 Y86.5091 
X-20.0696 Y86.3993 
X-20.2093 Y86.2596 
X-20.3191 Y86.0952 
X-20.3947 Y85.9126 
X-20.4333 Y85.7188 
Y85.5212 
X-20.3947 Y85.3273 
X-20.3191 Y85.1448 
X-20.2093 Y84.9804 
X-20.0696 Y84.8407 
X-19.9052 Y84.7309 
X-19.7227 Y84.6553 
X-19.5288 Y84.6167 
X-19.3312 
X-19.1373 Y84.6553 
X-18.9548 Y84.7309 
X-18.7904 Y84.8407 
X-18.6507 Y84.9804 
G00 Z2.5400  
G00 X-32.5262 Y45.7121 
G01 Z-0.1778 F254   
G01 X-32.6530 Y45.7969 F508   
G01 X-32.7940 Y45.8553 
X-32.9437 Y45.8851 
X-33.0963 
X-33.2460 Y45.8553 
X-33.3870 Y45.7969 
X-33.5138 Y45.7121 
X-33.6217 Y45.6042 
X-33.7065 Y45.4774 
X-33.7649 Y45.3364 
X-33.7947 Y45.1867 
Y43.7133 
X-33.7649 Y43.5636 
X-33.7065 Y43.4226 
X-33.6217 Y43.2958 
X-33.5138 Y43.1878 
X-33.3870 Y43.1031 
X-33.2460 Y43.0447 
X-33.0963 Y43.0149 
X-32.9437 
X-32.7940 Y43.0447 
X-32.6530 Y43.1031 
X-32.5262 Y43.1878 
X-32.4183 Y43.2958 
X-32.3335 Y43.4226 
X-32.2751 Y43.5636 
X-32.2453 Y43.7133 
Y45.1867 
X-32.2751 Y45.3364 
X-32.3335 Y45.4774 
X-32.4183 Y45.6042 
X-32.5262 Y45.7121 
G00 Z2.5400  
G00 X-35.0662 Y45.7121 
G01 Z-0.1778 F254   
G01 X-35.1930 Y45.7969 F508   
G01 X-35.3340 Y45.8553 
X-35.4837 Y45.8851 
X-35.6363 
X-35.7860 Y45.8553 
X-35.9270 Y45.7969 
X-36.0538 Y45.7121 
X-36.1617 Y45.6042 
X-36.2465 Y45.4774 
X-36.3049 Y45.3364 
X-36.3347 Y45.1867 
Y43.7133 
X-36.3049 Y43.5636 
X-36.2465 Y43.4226 
X-36.1617 Y43.2958 
X-36.0538 Y43.1878 
X-35.9270 Y43.1031 
X-35.7860 Y43.0447 
X-35.6363 Y43.0149 
X-35.4837 
X-35.3340 Y43.0447 
X-35.2032 Y43.0989 
Y36.9596 
X-35.1723 Y36.8849 
X-34.4029 Y36.1156 
X-34.4191 Y36.0552 
Y35.9448 
X-34.3905 Y35.8382 
X-34.3354 Y35.7427 
X-34.2573 Y35.6646 
X-34.1618 Y35.6095 
X-34.0552 Y35.5809 
X-33.9448 
X-33.8382 Y35.6095 
X-33.7427 Y35.6646 
X-33.6646 Y35.7427 
X-33.6095 Y35.8382 
X-33.5809 Y35.9448 
Y36.0552 
X-33.6095 Y36.1618 
X-33.6646 Y36.2573 
X-33.7427 Y36.3354 
X-33.8382 Y36.3905 
X-33.9448 Y36.4191 
X-34.0552 
X-34.1156 Y36.4029 
X-34.7968 Y37.0842 
Y43.6555 
X-34.7853 Y43.7133 
Y45.1867 
X-34.8151 Y45.3364 
X-34.8735 Y45.4774 
X-34.9582 Y45.6042 
X-35.0662 Y45.7121 
G00 Z2.5400  
G00 X-37.6062 Y45.7121 
G01 Z-0.1778 F254   
G01 X-37.7330 Y45.7969 F508   
G01 X-37.8740 Y45.8553 
X-38.0237 Y45.8851 
X-38.1763 
X-38.3260 Y45.8553 
X-38.4670 Y45.7969 
X-38.5938 Y45.7121 
X-38.7017 Y45.6042 
X-38.7865 Y45.4774 
X-38.8449 Y45.3364 
X-38.8747 Y45.1867 
Y43.7133 
X-38.8449 Y43.5636 
X-38.7865 Y43.4226 
X-38.7017 Y43.2958 
X-38.5938 Y43.1878 
X-38.4670 Y43.1031 
X-38.3260 Y43.0447 
X-38.2032 Y43.0203 
Y32.9596 
X-38.1723 Y32.8849 
X-37.6970 Y32.4096 
X-37.9095 Y32.1971 
Y31.3029 
X-37.2771 Y30.6705 
X-36.3829 
X-35.7505 Y31.3029 
Y32.1971 
X-36.3829 Y32.8295 
X-37.2771 
X-37.4096 Y32.6970 
X-37.7968 Y33.0842 
Y43.0767 
X-37.7330 Y43.1031 
X-37.6062 Y43.1878 
X-37.4982 Y43.2958 
X-37.4135 Y43.4226 
X-37.3551 Y43.5636 
X-37.3253 Y43.7133 
Y45.1867 
X-37.3551 Y45.3364 
X-37.4135 Y45.4774 
X-37.4982 Y45.6042 
X-37.6062 Y45.7121 
G00 Z2.5400  
G00 X-40.1462 Y45.7121 
G01 Z-0.1778 F254   
G01 X-40.2730 Y45.7969 F508   
G01 X-40.4140 Y45.8553 
X-40.5637 Y45.8851 
X-40.7163 
X-40.8660 Y45.8553 
X-41.0070 Y45.7969 
X-41.1338 Y45.7121 
X-41.2417 Y45.6042 
X-41.3265 Y45.4774 
X-41.3849 Y45.3364 
X-41.4147 Y45.1867 
Y43.7133 
X-41.3849 Y43.5636 
X-41.3265 Y43.4226 
X-41.2417 Y43.2958 
X-41.2032 Y43.2572 
Y35.0842 
X-43.7304 Y32.5570 
X-44.0029 Y32.8295 
X-44.8971 
X-45.5295 Y32.1971 
Y31.3029 
X-44.8971 Y30.6705 
X-44.0029 
X-43.3705 Y31.3029 
Y32.1971 
X-43.4430 Y32.2696 
X-40.8277 Y34.8849 
X-40.7968 Y34.9596 
Y43.0309 
X-40.7163 Y43.0149 
X-40.5637 
X-40.4140 Y43.0447 
X-40.2730 Y43.1031 
X-40.1462 Y43.1878 
X-40.0382 Y43.2958 
X-39.9535 Y43.4226 
X-39.8951 Y43.5636 
X-39.8653 Y43.7133 
Y45.1867 
X-39.8951 Y45.3364 
X-39.9535 Y45.4774 
X-40.0382 Y45.6042 
X-40.1462 Y45.7121 
G00 Z2.5400  
G00 X-42.6862 Y45.7121 
G01 Z-0.1778 F254   
G01 X-42.8130 Y45.7969 F508   
G01 X-42.9540 Y45.8553 
X-43.1037 Y45.8851 
X-43.2563 
X-43.4060 Y45.8553 
X-43.5470 Y45.7969 
X-43.6738 Y45.7121 
X-43.7817 Y45.6042 
X-43.8665 Y45.4774 
X-43.9249 Y45.3364 
X-43.9547 Y45.1867 
Y43.7133 
X-43.9249 Y43.5636 
X-43.8665 Y43.4226 
X-43.7817 Y43.2958 
X-43.6738 Y43.1878 
X-43.5470 Y43.1031 
X-43.4060 Y43.0447 
X-43.2563 Y43.0149 
X-43.2032 
Y39.0842 
X-46.8844 Y35.4029 
X-46.9448 Y35.4191 
X-47.0552 
X-47.1618 Y35.3905 
X-47.2573 Y35.3354 
X-47.3354 Y35.2573 
X-47.3905 Y35.1618 
X-47.4191 Y35.0552 
Y34.9448 
X-47.3905 Y34.8382 
X-47.3354 Y34.7427 
X-47.2573 Y34.6646 
X-47.1618 Y34.6095 
X-47.0552 Y34.5809 
X-46.9448 
X-46.8382 Y34.6095 
X-46.7427 Y34.6646 
X-46.6646 Y34.7427 
X-46.6095 Y34.8382 
X-46.5809 Y34.9448 
Y35.0552 
X-46.5971 Y35.1156 
X-42.8277 Y38.8849 
X-42.7968 Y38.9596 
Y43.1139 
X-42.6862 Y43.1878 
X-42.5782 Y43.2958 
X-42.4935 Y43.4226 
X-42.4351 Y43.5636 
X-42.4053 Y43.7133 
Y45.1867 
X-42.4351 Y45.3364 
X-42.4935 Y45.4774 
X-42.5782 Y45.6042 
X-42.6862 Y45.7121 
G00 Z2.5400  
G00 X-45.2262 Y45.7121 
G01 Z-0.1778 F254   
G01 X-45.3530 Y45.7969 F508   
G01 X-45.4940 Y45.8553 
X-45.6437 Y45.8851 
X-45.7963 
Y46.0404 
X-45.8277 Y46.1151 
X-46.8277 Y47.1151 
X-46.8849 Y47.1723 
X-46.9596 Y47.2032 
X-52.6334 
X-52.6646 Y47.2573 
X-52.7427 Y47.3354 
X-52.8382 Y47.3905 
X-52.9448 Y47.4191 
X-53.0552 
X-53.1618 Y47.3905 
X-53.2573 Y47.3354 
X-53.3354 Y47.2573 
X-53.3905 Y47.1618 
X-53.4191 Y47.0552 
Y46.9448 
X-53.3905 Y46.8382 
X-53.3354 Y46.7427 
X-53.2573 Y46.6646 
X-53.1618 Y46.6095 
X-53.0552 Y46.5809 
X-52.9448 
X-52.8382 Y46.6095 
X-52.7427 Y46.6646 
X-52.6646 Y46.7427 
X-52.6334 Y46.7968 
X-47.0842 
X-46.2032 Y45.9158 
Y45.7193 
X-46.2138 Y45.7121 
X-46.3217 Y45.6042 
X-46.4065 Y45.4774 
X-46.4649 Y45.3364 
X-46.4947 Y45.1867 
Y43.7133 
X-46.4649 Y43.5636 
X-46.4065 Y43.4226 
X-46.3217 Y43.2958 
X-46.2138 Y43.1878 
X-46.0870 Y43.1031 
X-45.9460 Y43.0447 
X-45.7963 Y43.0149 
X-45.6437 
X-45.4940 Y43.0447 
X-45.3530 Y43.1031 
X-45.2262 Y43.1878 
X-45.1183 Y43.2958 
X-45.0335 Y43.4226 
X-44.9751 Y43.5636 
X-44.9453 Y43.7133 
Y45.1867 
X-44.9751 Y45.3364 
X-45.0335 Y45.4774 
X-45.1183 Y45.6042 
X-45.2262 Y45.7121 
G00 Z2.5400  
G00 X-47.7662 Y45.7121 
G01 Z-0.1778 F254   
G01 X-47.8930 Y45.7969 F508   
G01 X-48.0340 Y45.8553 
X-48.1837 Y45.8851 
X-48.3363 
X-48.4860 Y45.8553 
X-48.6270 Y45.7969 
X-48.7538 Y45.7121 
X-48.8617 Y45.6042 
X-48.9465 Y45.4774 
X-49.0049 Y45.3364 
X-49.0347 Y45.1867 
Y43.7133 
X-49.0049 Y43.5636 
X-48.9465 Y43.4226 
X-48.8617 Y43.2958 
X-48.7538 Y43.1878 
X-48.6270 Y43.1031 
X-48.4860 Y43.0447 
X-48.3363 Y43.0149 
X-48.1837 
X-48.0340 Y43.0447 
X-47.8930 Y43.1031 
X-47.7662 Y43.1878 
X-47.6583 Y43.2958 
X-47.5735 Y43.4226 
X-47.5151 Y43.5636 
X-47.4853 Y43.7133 
Y45.1867 
X-47.5151 Y45.3364 
X-47.5735 Y45.4774 
X-47.6583 Y45.6042 
X-47.7662 Y45.7121 
G00 Z2.5400  
G00 X-50.3062 Y45.7121 
G01 Z-0.1778 F254   
G01 X-50.4330 Y45.7969 F508   
G01 X-50.5740 Y45.8553 
X-50.7237 Y45.8851 
X-50.8763 
X-51.0260 Y45.8553 
X-51.1670 Y45.7969 
X-51.2938 Y45.7121 
X-51.4017 Y45.6042 
X-51.4865 Y45.4774 
X-51.5449 Y45.3364 
X-51.5747 Y45.1867 
Y43.7133 
X-51.5449 Y43.5636 
X-51.4865 Y43.4226 
X-51.4017 Y43.2958 
X-51.2938 Y43.1878 
X-51.1670 Y43.1031 
X-51.0260 Y43.0447 
X-50.8763 Y43.0149 
X-50.7237 
X-50.5740 Y43.0447 
X-50.4330 Y43.1031 
X-50.3062 Y43.1878 
X-50.1983 Y43.2958 
X-50.1135 Y43.4226 
X-50.0551 Y43.5636 
X-50.0253 Y43.7133 
Y45.1867 
X-50.0551 Y45.3364 
X-50.1135 Y45.4774 
X-50.1983 Y45.6042 
X-50.3062 Y45.7121 
G00 Z2.5400  
G00 X-52.8462 Y45.7121 
G01 Z-0.1778 F254   
G01 X-52.9730 Y45.7969 F508   
G01 X-53.1140 Y45.8553 
X-53.2637 Y45.8851 
X-53.4163 
X-53.5660 Y45.8553 
X-53.7070 Y45.7969 
X-53.8338 Y45.7121 
X-53.9417 Y45.6042 
X-54.0265 Y45.4774 
X-54.0849 Y45.3364 
X-54.1147 Y45.1867 
Y44.1724 
X-54.1302 Y44.1571 
X-54.1479 Y44.1451 
X-54.1585 Y44.1289 
X-54.1723 Y44.1151 
X-54.1804 Y44.0954 
X-54.1921 Y44.0775 
X-54.1958 Y44.0584 
X-54.2032 Y44.0404 
Y44.0190 
X-54.2072 Y43.9981 
X-54.2032 Y43.9790 
Y42.9596 
X-54.1723 Y42.8849 
X-54.1151 Y42.8277 
X-52.5465 Y41.2591 
X-52.8447 Y40.9609 
Y40.3191 
X-52.3909 Y39.8653 
X-51.7491 
X-51.2953 Y40.3191 
Y40.9609 
X-51.7491 Y41.4147 
X-52.1273 
X-53.7968 Y43.0842 
Y43.1631 
X-53.7070 Y43.1031 
X-53.5660 Y43.0447 
X-53.4163 Y43.0149 
X-53.2637 
X-53.1140 Y43.0447 
X-52.9730 Y43.1031 
X-52.8462 Y43.1878 
X-52.7383 Y43.2958 
X-52.6535 Y43.4226 
X-52.5951 Y43.5636 
X-52.5653 Y43.7133 
Y45.1867 
X-52.5951 Y45.3364 
X-52.6535 Y45.4774 
X-52.7383 Y45.6042 
X-52.8462 Y45.7121 
G00 Z2.5400  
G00 X-52.8447 Y38.4209 
G01 Z-0.1778 F254   
G01 X-52.8447 Y37.7791 F508   
G01 X-52.3909 Y37.3253 
X-51.7491 
X-51.2953 Y37.7791 
Y38.4209 
X-51.7491 Y38.8747 
X-52.3909 
X-52.8447 Y38.4209 
G00 Z2.5400  
G00 X-46.3191 Y38.6400 
G01 Z-0.1778 F254   
G01 X-46.1652 Y38.5372 F508   
G01 X-45.9941 Y38.4663 
X-45.8126 Y38.4302 
X-45.6274 
X-45.4459 Y38.4663 
X-45.2748 Y38.5372 
X-45.1209 Y38.6400 
X-44.9900 Y38.7709 
X-44.8872 Y38.9248 
X-44.8163 Y39.0959 
X-44.7802 Y39.2774 
Y39.4626 
X-44.8163 Y39.6441 
X-44.8872 Y39.8152 
X-44.9900 Y39.9691 
X-45.1209 Y40.1000 
X-45.2748 Y40.2028 
X-45.4459 Y40.2737 
X-45.6274 Y40.3098 
X-45.8126 
X-45.9941 Y40.2737 
X-46.1652 Y40.2028 
X-46.3191 Y40.1000 
X-46.4500 Y39.9691 
X-46.5528 Y39.8152 
X-46.6237 Y39.6441 
X-46.6598 Y39.4626 
Y39.2774 
X-46.6237 Y39.0959 
X-46.5528 Y38.9248 
X-46.4500 Y38.7709 
X-46.3191 Y38.6400 
G00 Z2.5400  
G00 X-30.2895 Y32.1971 
G01 Z-0.1778 F254   
G01 X-30.2895 Y31.3029 F508   
G01 X-29.6571 Y30.6705 
X-28.7629 
X-28.1305 Y31.3029 
Y32.1971 
X-28.7629 Y32.8295 
X-29.6571 
X-30.2895 Y32.1971 
G00 Z2.5400  
G00 X-22.6695 Y32.1971 
G01 Z-0.1778 F254   
G01 X-22.6695 Y31.3029 F508   
G01 X-22.0371 Y30.6705 
X-21.1429 
X-20.5105 Y31.3029 
Y32.1971 
X-21.1429 Y32.8295 
X-22.0371 
X-22.6695 Y32.1971 
G00 Z2.5400  
G00 X-24.6741 Y16.0899 
G01 Z-0.1778 F254   
G01 X-24.8160 Y16.1930 F508   
G01 X-24.9723 Y16.2727 
X-25.1391 Y16.3269 
X-25.3123 Y16.3543 
X-25.4877 
X-25.6609 Y16.3269 
X-25.8277 Y16.2727 
X-25.9840 Y16.1930 
X-26.1259 Y16.0899 
X-26.2499 Y15.9659 
X-26.3530 Y15.8240 
X-26.4327 Y15.6677 
X-26.4869 Y15.5009 
X-26.5143 Y15.3277 
Y15.1523 
X-26.4869 Y14.9791 
X-26.4327 Y14.8123 
X-26.3530 Y14.6560 
X-26.2499 Y14.5141 
X-26.1259 Y14.3901 
X-25.9840 Y14.2870 
X-25.8277 Y14.2073 
X-25.6609 Y14.1531 
X-25.4877 Y14.1257 
X-25.3123 
X-25.1391 Y14.1531 
X-24.9723 Y14.2073 
X-24.8160 Y14.2870 
X-24.6741 Y14.3901 
X-24.5501 Y14.5141 
X-24.4470 Y14.6560 
X-24.3673 Y14.8123 
X-24.3131 Y14.9791 
X-24.2857 Y15.1523 
Y15.3277 
X-24.3131 Y15.5009 
X-24.3673 Y15.6677 
X-24.4470 Y15.8240 
X-24.5501 Y15.9659 
X-24.6741 Y16.0899 
G00 Z2.5400  
G00 X-24.6741 Y11.0099 
G01 Z-0.1778 F254   
G01 X-24.8160 Y11.1130 F508   
G01 X-24.9723 Y11.1927 
X-25.1391 Y11.2469 
X-25.3123 Y11.2743 
X-25.4877 
X-25.6609 Y11.2469 
X-25.8277 Y11.1927 
X-25.9840 Y11.1130 
X-26.1259 Y11.0099 
X-26.2499 Y10.8859 
X-26.3530 Y10.7440 
X-26.4327 Y10.5877 
X-26.4869 Y10.4209 
X-26.4942 Y10.3745 
X-27.4772 Y9.3916  
X-27.5444 Y9.2910  
X-27.5907 Y9.1792  
X-27.6143 Y9.0605  
Y3.0502  
Y3.0400  
Y2.9898  
Y2.9395  
Y2.9294  
Y2.9191  
X-27.6005 Y2.8701  
X-27.5907 Y2.8208  
X-27.5867 Y2.8113  
Y2.8013  
X-27.5636 Y2.7555  
X-27.5444 Y2.7090  
X-27.5387 Y2.7005  
Y1.7005  
X-27.5049 Y1.5327  
X-27.4395 Y1.3747  
X-27.3444 Y1.2325  
X-27.2235 Y1.1115  
X-27.0813 Y1.0165  
X-26.9233 Y0.9511  
X-26.7555 Y0.9177  
X-26.5845 
X-26.4167 Y0.9511  
X-26.2587 Y1.0165  
X-26.1165 Y1.1115  
X-25.9955 Y1.2325  
X-25.9005 Y1.3747  
X-25.8351 Y1.5327  
X-25.8017 Y1.7005  
Y3.3795  
X-25.8351 Y3.5473  
X-25.9005 Y3.7053  
X-25.9955 Y3.8475  
X-26.1165 Y3.9684  
X-26.2587 Y4.0635  
X-26.3857 Y4.1161  
Y8.7455  
X-25.9444 Y9.1868  
X-25.8277 Y9.1273  
X-25.6609 Y9.0731  
X-25.4877 Y9.0457  
X-25.3123 
X-25.1391 Y9.0731  
X-24.9723 Y9.1273  
X-24.8160 Y9.2070  
X-24.6741 Y9.3101  
X-24.5501 Y9.4341  
X-24.4470 Y9.5760  
X-24.3673 Y9.7323  
X-24.3131 Y9.8991  
X-24.2857 Y10.0723 
Y10.2477 
X-24.3131 Y10.4209 
X-24.3673 Y10.5877 
X-24.4470 Y10.7440 
X-24.5501 Y10.8859 
X-24.6741 Y11.0099 
G00 Z2.5400  
G00 X-29.3857 Y8.9395  
G01 Z-0.1778 F254   
G01 X-29.3857 Y14.0605 F508   
G01 X-29.4093 Y14.1792 
X-29.4556 Y14.2910 
X-29.5228 Y14.3916 
X-31.5228 Y16.3916 
X-31.6084 Y16.4772 
X-31.7090 Y16.5444 
X-31.8208 Y16.5907 
X-31.9395 Y16.6143 
X-32.9919 
X-33.0443 
X-33.0523 
X-33.0605 
X-33.1119 Y16.6041 
X-33.1636 Y16.5952 
X-33.1712 Y16.5923 
X-33.1792 
X-33.2276 Y16.5706 
X-33.2766 Y16.5519 
X-33.2834 Y16.5475 
X-33.2910 Y16.5444 
X-33.3346 Y16.5152 
X-33.3789 Y16.4873 
X-33.3848 Y16.4817 
X-33.3916 Y16.4772 
X-33.4287 Y16.4401 
X-33.4667 Y16.4040 
X-33.4714 Y16.3974 
X-33.4772 Y16.3916 
X-33.5063 Y16.3480 
X-33.5365 Y16.3052 
X-33.5399 Y16.2978 
X-33.5444 Y16.2910 
X-33.5645 Y16.2425 
X-33.5814 Y16.2046 
X-33.6040 Y16.1930 
X-33.7459 Y16.0899 
X-33.8699 Y15.9659 
X-33.9730 Y15.8240 
X-34.0527 Y15.6677 
X-34.1069 Y15.5009 
X-34.1343 Y15.3277 
Y15.1523 
X-34.1069 Y14.9791 
X-34.0527 Y14.8123 
X-33.9730 Y14.6560 
X-33.8699 Y14.5141 
X-33.7459 Y14.3901 
X-33.6040 Y14.2870 
X-33.4477 Y14.2073 
X-33.2809 Y14.1531 
X-33.1077 Y14.1257 
X-32.9323 
X-32.7591 Y14.1531 
X-32.5923 Y14.2073 
X-32.4360 Y14.2870 
X-32.2941 Y14.3901 
X-32.1701 Y14.5141 
X-32.0670 Y14.6560 
X-31.9873 Y14.8123 
X-31.9331 Y14.9791 
X-31.9215 Y15.0527 
X-30.6143 Y13.7455 
Y9.2545  
X-32.4772 Y7.3916  
X-32.5444 Y7.2910  
X-32.5907 Y7.1792  
X-32.6143 Y7.0605  
Y3.3996  
X-32.6183 Y3.3795  
Y1.7005  
X-32.5849 Y1.5327  
X-32.5195 Y1.3747  
X-32.4245 Y1.2325  
X-32.3035 Y1.1115  
X-32.1613 Y1.0165  
X-32.0033 Y0.9511  
X-31.8355 Y0.9177  
X-31.6645 
X-31.4967 Y0.9511  
X-31.3387 Y1.0165  
X-31.1965 Y1.1115  
X-31.0755 Y1.2325  
X-30.9805 Y1.3747  
X-30.9151 Y1.5327  
X-30.8817 Y1.7005  
Y3.3795  
X-30.9151 Y3.5473  
X-30.9805 Y3.7053  
X-31.0755 Y3.8475  
X-31.1965 Y3.9684  
X-31.3387 Y4.0635  
X-31.3857 Y4.0829  
Y6.7455  
X-29.6084 Y8.5228  
X-29.5228 Y8.6084  
X-29.4556 Y8.7090  
X-29.4093 Y8.8208  
X-29.3857 Y8.9395  
G00 Z2.5400  
G00 X-32.1701 Y9.4341  
G01 Z-0.1778 F254   
G01 X-32.0670 Y9.5760  F508   
G01 X-31.9873 Y9.7323  
X-31.9331 Y9.8991  
X-31.9057 Y10.0723 
Y10.2477 
X-31.9331 Y10.4209 
X-31.9873 Y10.5877 
X-32.0670 Y10.7440 
X-32.1701 Y10.8859 
X-32.2941 Y11.0099 
X-32.4360 Y11.1130 
X-32.5923 Y11.1927 
X-32.7591 Y11.2469 
X-32.9323 Y11.2743 
X-33.1077 
X-33.2809 Y11.2469 
X-33.4477 Y11.1927 
X-33.6040 Y11.1130 
X-33.7459 Y11.0099 
X-33.8699 Y10.8859 
X-33.9730 Y10.7440 
X-34.0382 Y10.6162 
X-34.0498 
X-34.0605 
X-34.1094 Y10.6046 
X-34.1587 Y10.5965 
X-34.1687 Y10.5928 
X-34.1792 
X-34.2253 Y10.5716 
X-34.2720 Y10.5541 
X-34.2811 Y10.5485 
X-34.2910 Y10.5444 
X-34.3325 Y10.5167 
X-34.3749 Y10.4904 
X-34.3827 Y10.4831 
X-34.3916 Y10.4772 
X-34.4269 Y10.4419 
X-34.4634 Y10.4078 
X-34.4696 Y10.3991 
X-34.4772 Y10.3916 
X-34.5049 Y10.3501 
X-34.5340 Y10.3096 
X-34.5384 Y10.2999 
X-34.5444 Y10.2910 
X-34.5635 Y10.2449 
X-34.5842 Y10.1995 
Y10.1891 
X-34.5907 Y10.1792 
X-34.6004 Y10.1302 
X-34.6118 Y10.0817 
Y10.0710 
Y10.0605 
Y10.0106 
Y9.9607  
Y9.9502  
Y4.0995  
X-34.7013 Y4.0635  
X-34.8435 Y3.9684  
X-34.9644 Y3.8475  
X-35.0595 Y3.7053  
X-35.1249 Y3.5473  
X-35.1583 Y3.3795  
Y1.7005  
