(.../pcb-gcode-3.6.2.4/pcb-gcode.ulp)
(Copyright 2005 - 2012 by John Johnson)
(See readme.txt for licensing terms.)
(This file generated from the board:)
(.../KKK_valdiklis_v3/KKK_valdiklis.brd)
(Current profile is .../pcb-gcode-3.6.2.4/profiles/mach.pp  )
(This file generated 2016.10.04 22:20:12)
(Settings from pcb-machine.h)
(spindle on time = 3.0000)
(spindle speed = 20000.0000)
(tool change at 0.0000  0.0000  25.4000 )
(feed rate xy = F0     )
(feed rate z  = F508   )
(Z Axis Settings)
(  High     Up        Down     Drill)
(12.7000 	2.5400  	-0.1778 	-0.8128 )
(Settings from pcb-defaults.h)
(isolate min = 0.0254)
(isolate max = 0.5080)
(isolate step = 0.1270)
(Generated top outlines, bottom outlines, bottom drill, )
(Unit of measure: mm)
( Tool|       Size       |  Min Sub |  Max Sub |   Count )
( T01 | 0.500mm 0.0197in | 0.0120in | 0.0197in |      26 )
( T02 | 0.813mm 0.0320in | 0.0276in | 0.0320in |     122 )
( T03 | 1.016mm 0.0400in | 0.0354in | 0.0440in |      88 )
( T04 | 1.270mm 0.0500in | 0.0500in | 0.0512in |       2 )
( T05 | 2.000mm 0.0787in | 0.0000in | 0.0000in |       0 )
(Metric Mode)
G21
(Absolute Coordinates)
G90
S20000
G00 Z12.7000 
G00 X0.0000  Y0.0000  
M03
G04 P3.000000
M05
G00 Z25.4000 
M06 T01  ; 0.5000  
G01 Z0.0000  F508   
M06 
G00 Z2.5400  
M03
G04 P3.000000
G82 X-15.0000 Y26.0000 Z-0.8128 F508   R2.5400  P1.000000
G82 X-19.0000 Y25.0000 
G82 X-17.0000 Y40.0000 
G82 X-27.0000 Y48.0000 
G82 X-29.0000 Y61.0000 
G82 X-52.0000 Y65.0000 
G82 X-52.0000 Y51.0000 
G82 X-54.0000 Y50.0000 
G82 X-53.0000 Y47.0000 
G82 X-55.0000 Y36.0000 
G82 X-55.0000 Y30.0000 
G82 X-47.0000 Y35.0000 
G82 X-34.0000 Y36.0000 
G82 X-63.0000 Y18.0000 
G82 X-73.0000 Y16.0000 
G82 X-75.0000 Y7.0000  
G82 X-70.0000 Y26.0000 
G82 X-84.0000 Y47.0000 
G82 X-84.0000 Y49.0000 
G82 X-98.0000 Y51.0000 
G82 X-108.0000 Y50.0000 
G82 X-102.0000 Y21.0000 
G82 X-79.0000 Y64.0000 
G82 X-76.0000 Y67.0000 
G82 X-81.0000 Y72.0000 
G82 X-85.0000 Y76.0000 
M05
G00 Z25.4000 
G00 X0.0000  Y0.0000  
M06 T02  ; 0.8128  
G01 Z0.0000  F508   
M06 
G00 Z2.5400  
M03
G04 P3.000000
G82 X-6.3500 Y35.5600 Z-0.8128 F508   R2.5400  P1.000000
G82 X-6.3500 Y38.1000 
G82 X-21.5900 Y31.7500 
G82 X-29.2100 Y31.7500 
G82 X-36.8300 Y31.7500 
G82 X-44.4500 Y31.7500 
G82 X-52.0700 Y31.7500 
G82 X-52.0700 Y38.1000 
G82 X-52.0700 Y40.6400 
G82 X-55.8800 Y40.6400 
G82 X-58.4200 Y40.6400 
G82 X-60.9600 Y40.6400 
G82 X-63.5000 Y40.6400 
G82 X-63.5000 Y36.8300 
G82 X-58.4200 Y36.8300 
G82 X-59.6900 Y31.7500 
G82 X-59.6900 Y21.5900 
G82 X-52.0700 Y21.5900 
G82 X-44.4500 Y21.5900 
G82 X-36.8300 Y21.5900 
G82 X-29.2100 Y21.5900 
G82 X-21.5900 Y21.5900 
G82 X-11.4300 Y15.2400 
G82 X-11.4300 Y12.7000 
G82 X-29.2100 Y40.6400 
G82 X-31.7500 Y40.6400 
G82 X-33.0200 Y44.4500 
G82 X-35.5600 Y44.4500 
G82 X-38.1000 Y44.4500 
G82 X-40.6400 Y44.4500 
G82 X-43.1800 Y44.4500 
G82 X-45.7200 Y44.4500 
G82 X-48.2600 Y44.4500 
G82 X-50.8000 Y44.4500 
G82 X-53.3400 Y44.4500 
G82 X-55.8800 Y44.4500 
G82 X-58.4200 Y44.4500 
G82 X-60.9600 Y44.4500 
G82 X-63.5000 Y44.4500 
G82 X-66.0400 Y44.4500 
G82 X-68.5800 Y44.4500 
G82 X-71.1200 Y44.4500 
G82 X-73.6600 Y44.4500 
G82 X-76.2000 Y44.4500 
G82 X-78.7400 Y44.4500 
G82 X-81.2800 Y44.4500 
G82 X-91.4400 Y46.9900 
G82 X-93.9800 Y46.9900 
G82 X-92.7100 Y43.1800 
G82 X-92.7100 Y40.6400 
G82 X-92.7100 Y38.1000 
G82 X-92.7100 Y27.9400 
G82 X-92.7100 Y25.4000 
G82 X-92.7100 Y22.8600 
G82 X-92.7100 Y20.3200 
G82 X-92.7100 Y17.7800 
G82 X-92.7100 Y15.2400 
G82 X-92.7100 Y12.7000 
G82 X-92.7100 Y10.1600 
G82 X-85.0900 Y10.1600 
G82 X-85.0900 Y12.7000 
G82 X-85.0900 Y15.2400 
G82 X-85.0900 Y17.7800 
G82 X-85.0900 Y20.3200 
G82 X-85.0900 Y22.8600 
G82 X-85.0900 Y25.4000 
G82 X-85.0900 Y27.9400 
G82 X-76.2000 Y31.7500 
G82 X-73.6600 Y31.7500 
G82 X-76.2000 Y19.0500 
G82 X-76.2000 Y8.8900  
G82 X-99.0600 Y15.2400 
G82 X-99.0600 Y25.4000 
G82 X-111.5650 Y48.5650 
G82 X-112.8650 Y49.3650 
G82 X-111.5650 Y50.1650 
G82 X-112.8650 Y50.9650 
G82 X-111.5650 Y51.7650 
G82 X-97.7900 Y58.4200 
G82 X-97.7900 Y60.9600 
G82 X-93.9800 Y60.9600 
G82 X-93.9800 Y63.5000 
G82 X-93.9800 Y66.0400 
G82 X-86.3600 Y66.0400 
G82 X-86.3600 Y63.5000 
G82 X-86.3600 Y60.9600 
G82 X-86.3600 Y58.4200 
G82 X-81.2800 Y59.6900 
G82 X-78.7400 Y59.6900 
G82 X-76.2000 Y59.6900 
G82 X-73.6600 Y59.6900 
G82 X-71.1200 Y59.6900 
G82 X-68.5800 Y59.6900 
G82 X-66.0400 Y59.6900 
G82 X-63.5000 Y59.6900 
G82 X-60.9600 Y59.6900 
G82 X-58.4200 Y59.6900 
G82 X-55.8800 Y59.6900 
G82 X-53.3400 Y59.6900 
G82 X-50.8000 Y59.6900 
G82 X-48.2600 Y59.6900 
G82 X-45.7200 Y59.6900 
G82 X-43.1800 Y59.6900 
G82 X-40.6400 Y59.6900 
G82 X-38.1000 Y59.6900 
G82 X-35.5600 Y59.6900 
G82 X-33.0200 Y59.6900 
G82 X-24.1300 Y59.6900 
G82 X-24.1300 Y63.5000 
G82 X-13.9700 Y63.5000 
G82 X-13.9700 Y59.6900 
G82 X-45.7200 Y39.3700 
G82 X-48.2600 Y39.3700 
G82 X-88.9000 Y53.3400 
G82 X-91.4400 Y53.3400 
G82 X-93.9800 Y58.4200 
G82 X-90.1700 Y81.2800 
G82 X-86.3600 Y81.2800 
G82 X-86.3600 Y91.4400 
G82 X-90.1700 Y91.4400 
G82 X-95.2500 Y93.9800 
G82 X-105.4100 Y93.9800 
M05
G00 Z25.4000 
G00 X0.0000  Y0.0000  
M06 T03  ; 1.0160  
G01 Z0.0000  F508   
M06 
G00 Z2.5400  
M03
G04 P3.000000
G82 X-6.3500 Y19.0500 Z-0.8128 F508   R2.5400  P1.000000
G82 X-6.3500 Y22.8600 
G82 X-7.6200 Y29.2100 
G82 X-17.7800 Y29.2100 
G82 X-16.5100 Y22.8600 
G82 X-16.5100 Y19.0500 
G82 X-25.4000 Y15.2400 
G82 X-25.4000 Y10.1600 
G82 X-33.0200 Y10.1600 
G82 X-33.0200 Y15.2400 
G82 X-40.6400 Y15.2400 
G82 X-40.6400 Y10.1600 
G82 X-48.2600 Y10.1600 
G82 X-48.2600 Y15.2400 
G82 X-55.8800 Y15.2400 
G82 X-55.8800 Y10.1600 
G82 X-63.5000 Y10.1600 
G82 X-63.5000 Y15.2400 
G82 X-63.5000 Y25.4000 
G82 X-63.5000 Y27.9400 
G82 X-55.8800 Y27.9400 
G82 X-55.8800 Y25.4000 
G82 X-48.2600 Y25.4000 
G82 X-48.2600 Y27.9400 
G82 X-40.6400 Y27.9400 
G82 X-40.6400 Y25.4000 
G82 X-33.0200 Y25.4000 
G82 X-33.0200 Y27.9400 
G82 X-25.4000 Y27.9400 
G82 X-25.4000 Y25.4000 
G82 X-26.6700 Y2.5400  
G82 X-24.1300 Y2.5400  
G82 X-31.7500 Y2.5400  
G82 X-34.2900 Y2.5400  
G82 X-39.3700 Y2.5400  
G82 X-41.9100 Y2.5400  
G82 X-46.9900 Y2.5400  
G82 X-49.5300 Y2.5400  
G82 X-54.6100 Y2.5400  
G82 X-57.1500 Y2.5400  
G82 X-62.2300 Y2.5400  
G82 X-64.7700 Y2.5400  
G82 X-72.3900 Y2.5400  
G82 X-74.9300 Y2.5400  
G82 X-77.4700 Y2.5400  
G82 X-83.8200 Y2.5400  
G82 X-86.3600 Y2.5400  
G82 X-92.7100 Y2.5400  
G82 X-95.2500 Y2.5400  
G82 X-100.3300 Y2.5400  
G82 X-102.8700 Y2.5400  
G82 X-105.4100 Y2.5400  
G82 X-107.9500 Y2.5400  
G82 X-106.6800 Y11.4300 
G82 X-104.1400 Y11.4300 
G82 X-101.6000 Y11.4300 
G82 X-104.1400 Y15.2400 
G82 X-104.1400 Y25.4000 
G82 X-93.7006 Y71.6788 
G82 X-89.1794 Y71.6788 
G82 X-89.1794 Y78.1812 
G82 X-93.7006 Y78.1812 
G82 X-96.7994 Y83.1088 
G82 X-101.3206 Y83.1088 
G82 X-104.4194 Y83.1088 
G82 X-108.9406 Y83.1088 
G82 X-112.0394 Y83.1088 
G82 X-116.5606 Y83.1088 
G82 X-116.5606 Y89.6112 
G82 X-112.0394 Y89.6112 
G82 X-108.9406 Y89.6112 
G82 X-104.4194 Y89.6112 
G82 X-101.3206 Y89.6112 
G82 X-96.7994 Y89.6112 
G82 X-72.4300 Y90.7000 
G82 X-72.4300 Y88.1600 
G82 X-72.4300 Y85.6200 
G82 X-72.4300 Y83.0800 
G82 X-72.4300 Y80.5400 
G82 X-72.4300 Y78.0000 
G82 X-72.4300 Y75.4600 
G82 X-72.4300 Y72.9200 
G82 X-24.1300 Y67.3100 
G82 X-13.9700 Y67.3100 
G82 X-19.4300 Y78.0100 
G82 X-19.4300 Y80.5400 
G82 X-19.4300 Y83.0800 
G82 X-19.4300 Y85.6200 
M05
G00 Z25.4000 
G00 X0.0000  Y0.0000  
M06 T04  ; 1.2700  
G01 Z0.0000  F508   
M06 
G00 Z2.5400  
M03
G04 P3.000000
G82 X-97.7900 Y69.8500 Z-0.8128 F508   R2.5400  P1.000000
G82 X-117.7900 Y69.8500 
M05
G00 Z25.4000 
G00 X0.0000  Y0.0000  
M06 T05  ; 2.0000  
G01 Z0.0000  F508   
M06 
G00 Z2.5400  
M03
G04 P3.000000
G82 X-116.7150 Y46.5150 Z-0.8128 F508   R2.5400  P1.000000
G82 X-116.7150 Y53.8150 
T01 
G00 Z12.7000 
M05
M02
