(.../pcb-gcode-3.6.2.4/pcb-gcode.ulp)
(Copyright 2005 - 2012 by John Johnson)
(See readme.txt for licensing terms.)
(This file generated from the board:)
(.../KKK_valdiklis_v3/KKK_valdiklis.brd)
(Current profile is .../pcb-gcode-3.6.2.4/profiles/mach.pp  )
(This file generated 2016.10.04 22:19:21)
(Settings from pcb-machine.h)
(spindle on time = 3.0000)
(  Tool Size)
(0.1778  )
(spindle speed = 30000.0000)
(tool change at 0.0000  0.0000  25.4000 )
(feed rate xy = F508   )
(feed rate z  = F254   )
(Z Axis Settings)
(  High     Up        Down     Drill)
(12.7000 	2.5400  	-0.1778 	-0.8128 )
(Settings from pcb-defaults.h)
(isolate min = 0.0254)
(isolate max = 0.5080)
(isolate step = 0.1270)
(Generated top outlines, bottom outlines, bottom drill, )
(Unit of measure: mm)
(Metric Mode)
G21
(Absolute Coordinates)
G90
S30000
G00 Z12.7000 
G00 X0.0000  Y0.0000  
M03
G04 P3.000000
G00 Z2.5400  
G00 X10.7000 Y12.1009 
G01 Z-0.1778 F254   
G01 X10.8309 Y11.9700 F508   
G01 X10.9848 Y11.8672 
X11.1559 Y11.7963 
X11.3374 Y11.7602 
X11.5226 
X11.7041 Y11.7963 
X11.8752 Y11.8672 
X12.0291 Y11.9700 
X12.1600 Y12.1009 
X12.2628 Y12.2548 
X12.3337 Y12.4259 
X12.3698 Y12.6074 
Y12.7926 
X12.3337 Y12.9741 
X12.2628 Y13.1452 
X12.1600 Y13.2991 
X12.0291 Y13.4300 
X11.8752 Y13.5328 
X11.7041 Y13.6037 
X11.5226 Y13.6398 
X11.3374 
X11.1559 Y13.6037 
X10.9848 Y13.5328 
X10.8309 Y13.4300 
X10.7000 Y13.2991 
X10.5972 Y13.1452 
X10.5263 Y12.9741 
X10.4902 Y12.7926 
Y12.6074 
X10.5263 Y12.4259 
X10.5972 Y12.2548 
X10.7000 Y12.1009 
G00 Z2.5400  
G00 X10.5818 Y14.3002 
G01 Z-0.1778 F254   
G01 X12.2782 Y14.3002 F508   
G01 X12.3202 Y14.3176 
X12.3524 Y14.3498 
X12.3698 Y14.3918 
Y15.7771 
X15.1736 Y18.5809 
X15.5660 
X15.6085 Y18.4975 
X15.7060 Y18.3633 
X15.8233 Y18.2460 
X15.9575 Y18.1485 
X16.1054 Y18.0731 
X16.2632 Y18.0219 
X16.4270 Y17.9959 
X16.5930 
X16.7568 Y18.0219 
X16.9146 Y18.0731 
X17.0625 Y18.1485 
X17.1967 Y18.2460 
X17.3140 Y18.3633 
X17.4115 Y18.4975 
X17.4869 Y18.6454 
X17.5381 Y18.8032 
X17.5641 Y18.9670 
Y19.1330 
X17.5381 Y19.2968 
X17.4869 Y19.4546 
X17.4191 Y19.5876 
Y21.9987 
Y22.0528 
X17.4051 Y22.1073 
X17.3915 Y22.1595 
X17.3807 Y22.1787 
X17.4550 Y22.2809 
X17.5339 Y22.4359 
X17.5877 Y22.6013 
X17.6149 Y22.7730 
Y22.9470 
X17.5877 Y23.1187 
X17.5339 Y23.2841 
X17.4550 Y23.4391 
X17.4191 Y23.4885 
Y28.2189 
X17.5332 Y28.1819 
X17.6970 Y28.1559 
X17.8630 
X18.0268 Y28.1819 
X18.1846 Y28.2331 
X18.3325 Y28.3085 
X18.4667 Y28.4060 
X18.5840 Y28.5233 
X18.6815 Y28.6575 
X18.7569 Y28.8054 
X18.8081 Y28.9632 
X18.8341 Y29.1270 
Y29.2930 
X18.8081 Y29.4568 
X18.7569 Y29.6146 
X18.6815 Y29.7625 
X18.5840 Y29.8967 
X18.4667 Y30.0140 
X18.4196 Y30.0482 
Y30.0511 
Y30.0552 
X18.4054 Y30.1064 
X18.3921 Y30.1579 
Y30.1618 
X18.3639 Y30.2079 
X18.3379 Y30.2540 
Y30.2573 
X18.2977 Y30.2950 
X18.2606 Y30.3328 
X17.4191 Y31.1736 
Y40.0552 
X17.3905 Y40.1618 
X17.3354 Y40.2573 
X17.2573 Y40.3354 
X17.1618 Y40.3905 
X17.0552 Y40.4191 
X16.9448 
X16.8382 Y40.3905 
X16.7427 Y40.3354 
X16.6646 Y40.2573 
X16.6095 Y40.1618 
X16.5809 Y40.0552 
Y30.9448 
X16.6095 Y30.8382 
X16.6646 Y30.7427 
X16.7427 Y30.6646 
X17.2727 Y30.1346 
X17.2275 Y30.1115 
X17.0933 Y30.0140 
X16.9760 Y29.8967 
X16.8785 Y29.7625 
X16.8031 Y29.6146 
X16.7519 Y29.4568 
X16.7307 Y29.3235 
X16.7039 Y29.2966 
X16.6646 Y29.2573 
X16.6376 Y29.2105 
X16.6095 Y29.1618 
X16.5954 Y29.1093 
X16.5809 Y29.0552 
Y28.9995 
Y23.9649 
X16.4230 
X16.2513 Y23.9377 
X16.0859 Y23.8839 
X15.9309 Y23.8050 
X15.7902 Y23.7028 
X15.6672 Y23.5798 
X15.5650 Y23.4391 
X15.4861 Y23.2841 
X15.4323 Y23.1187 
X15.4051 Y22.9470 
Y22.7730 
X15.4323 Y22.6013 
X15.4861 Y22.4359 
X15.5650 Y22.2809 
X15.6672 Y22.1402 
X15.7902 Y22.0172 
X15.9309 Y21.9150 
X16.0859 Y21.8361 
X16.2513 Y21.7823 
X16.4230 Y21.7551 
X16.5809 
Y20.1041 
X16.4270 
X16.2632 Y20.0781 
X16.1054 Y20.0269 
X15.9575 Y19.9515 
X15.8233 Y19.8540 
X15.7060 Y19.7367 
X15.6085 Y19.6025 
X15.5331 Y19.4546 
X15.5216 Y19.4191 
X14.9448 
X14.8382 Y19.3905 
X14.7427 Y19.3354 
X14.6646 Y19.2573 
X11.7214 Y16.3141 
X11.6978 Y16.2956 
X11.6826 Y16.2753 
X11.6646 Y16.2573 
X11.6496 Y16.2313 
X11.6110 Y16.1798 
X10.5818 
X10.5398 Y16.1624 
X10.5076 Y16.1302 
X10.4902 Y16.0882 
Y14.3918 
X10.5076 Y14.3498 
X10.5398 Y14.3176 
X10.5818 Y14.3002 
G00 Z2.5400  
G00 X7.0367  Y18.2460 
G01 Z-0.1778 F254   
G01 X7.1540  Y18.3633 F508   
G01 X7.2515  Y18.4975 
X7.3269  Y18.6454 
X7.3781  Y18.8032 
X7.4041  Y18.9670 
Y19.1330 
X7.3781  Y19.2968 
X7.3269  Y19.4546 
X7.2515  Y19.6025 
X7.1540  Y19.7367 
X7.0367  Y19.8540 
X6.9025  Y19.9515 
X6.7546  Y20.0269 
X6.5968  Y20.0781 
X6.4330  Y20.1041 
X6.2670  
X6.1032  Y20.0781 
X5.9454  Y20.0269 
X5.7975  Y19.9515 
X5.6633  Y19.8540 
X5.5460  Y19.7367 
X5.4485  Y19.6025 
X5.3731  Y19.4546 
X5.3219  Y19.2968 
X5.2959  Y19.1330 
Y18.9670 
X5.3219  Y18.8032 
X5.3731  Y18.6454 
X5.4485  Y18.4975 
X5.5460  Y18.3633 
X5.6633  Y18.2460 
X5.7975  Y18.1485 
X5.9454  Y18.0731 
X6.1032  Y18.0219 
X6.2670  Y17.9959 
X6.4330  
X6.5968  Y18.0219 
X6.7546  Y18.0731 
X6.9025  Y18.1485 
X7.0367  Y18.2460 
G00 Z2.5400  
G00 X6.9291  Y21.9150 
G01 Z-0.1778 F254   
G01 X7.0698  Y22.0172 F508   
G01 X7.1928  Y22.1402 
X7.2950  Y22.2809 
X7.3739  Y22.4359 
X7.4277  Y22.6013 
X7.4549  Y22.7730 
Y22.9470 
X7.4277  Y23.1187 
X7.3739  Y23.2841 
X7.2950  Y23.4391 
X7.2032  Y23.5654 
Y28.2393 
X7.2154  Y28.2331 
X7.3732  Y28.1819 
X7.5370  Y28.1559 
X7.7030  
X7.8668  Y28.1819 
X8.0246  Y28.2331 
X8.1725  Y28.3085 
X8.3067  Y28.4060 
X8.4240  Y28.5233 
X8.5215  Y28.6575 
X8.5969  Y28.8054 
X8.6481  Y28.9632 
X8.6741  Y29.1270 
Y29.2930 
X8.6481  Y29.4568 
X8.5969  Y29.6146 
X8.5215  Y29.7625 
X8.4240  Y29.8967 
X8.3067  Y30.0140 
X8.1725  Y30.1115 
X8.0246  Y30.1869 
X7.8668  Y30.2381 
X7.7030  Y30.2641 
X7.5370  
X7.3732  Y30.2381 
X7.2154  Y30.1869 
X7.0675  Y30.1115 
X6.9333  Y30.0140 
X6.8160  Y29.8967 
X6.7185  Y29.7625 
X6.6431  Y29.6146 
X6.5919  Y29.4568 
X6.5659  Y29.2930 
Y29.1270 
X6.5919  Y28.9632 
X6.6431  Y28.8054 
X6.7185  Y28.6575 
X6.7968  Y28.5497 
Y23.8724 
X6.7741  Y23.8839 
X6.6087  Y23.9377 
X6.4370  Y23.9649 
X6.2630  
X6.0913  Y23.9377 
X5.9259  Y23.8839 
X5.7709  Y23.8050 
X5.6302  Y23.7028 
X5.5072  Y23.5798 
X5.4050  Y23.4391 
X5.3261  Y23.2841 
X5.2723  Y23.1187 
X5.2451  Y22.9470 
Y22.7730 
X5.2723  Y22.6013 
X5.3261  Y22.4359 
X5.4050  Y22.2809 
X5.5072  Y22.1402 
X5.6302  Y22.0172 
X5.7709  Y21.9150 
X5.9259  Y21.8361 
X6.0913  Y21.7823 
X6.2630  Y21.7551 
X6.4370  
X6.6087  Y21.7823 
X6.7741  Y21.8361 
X6.9291  Y21.9150 
G00 Z2.5400  
G00 X14.6646 Y25.7427 
G01 Z-0.1778 F254   
G01 X14.7427 Y25.6646 F508   
G01 X14.8382 Y25.6095 
X14.9448 Y25.5809 
X15.0552 
X15.1618 Y25.6095 
X15.2573 Y25.6646 
X15.3354 Y25.7427 
X15.3905 Y25.8382 
X15.4191 Y25.9448 
Y26.0552 
X15.3905 Y26.1618 
X15.3354 Y26.2573 
X15.2573 Y26.3354 
X15.2032 Y26.3666 
Y39.9158 
X27.1151 Y51.8277 
X27.1723 Y51.8849 
X27.2032 Y51.9596 
Y56.9158 
X33.0842 Y62.7968 
X52.0404 
X52.1151 Y62.8277 
X52.1723 Y62.8849 
X53.0842 Y63.7968 
X77.0404 
X77.1151 Y63.8277 
X77.1723 Y63.8849 
X85.0842 Y71.7968 
X88.1309 
X88.1253 Y71.7618 
Y71.5958 
X88.1513 Y71.4320 
X88.2025 Y71.2742 
X88.2779 Y71.1263 
X88.3754 Y70.9921 
X88.4927 Y70.8748 
X88.6269 Y70.7773 
X88.7748 Y70.7019 
X88.9326 Y70.6507 
X89.0964 Y70.6247 
X89.2624 
X89.4262 Y70.6507 
X89.5840 Y70.7019 
X89.7319 Y70.7773 
X89.8661 Y70.8748 
X89.9834 Y70.9921 
X90.0809 Y71.1263 
X90.1563 Y71.2742 
X90.2075 Y71.4320 
X90.2335 Y71.5958 
Y71.7618 
X90.2075 Y71.9256 
X90.1997 Y71.9496 
X90.2024 Y71.9556 
Y71.9596 
Y71.9980 
Y72.0364 
Y77.9210 
X90.2075 Y77.9344 
X90.2335 Y78.0982 
Y78.2642 
X90.2075 Y78.4280 
X90.1563 Y78.5858 
X90.0809 Y78.7337 
X89.9834 Y78.8679 
X89.8661 Y78.9852 
X89.7319 Y79.0827 
X89.5840 Y79.1581 
X89.4262 Y79.2093 
X89.2624 Y79.2353 
X89.0964 
X88.9326 Y79.2093 
X88.7748 Y79.1581 
X88.6269 Y79.0827 
X88.4927 Y78.9852 
X88.3754 Y78.8679 
X88.2779 Y78.7337 
X88.2025 Y78.5858 
X88.1513 Y78.4280 
X88.1253 Y78.2642 
Y78.0982 
X88.1513 Y77.9344 
X88.2025 Y77.7766 
X88.2779 Y77.6287 
X88.3754 Y77.4945 
X88.4927 Y77.3772 
X88.6269 Y77.2797 
X88.7748 Y77.2043 
X88.9326 Y77.1531 
X89.0964 Y77.1271 
X89.2624 
X89.4262 Y77.1531 
X89.5840 Y77.2043 
X89.7319 Y77.2797 
X89.7968 Y77.3268 
Y72.5332 
X89.7319 Y72.5803 
X89.5840 Y72.6557 
X89.4262 Y72.7069 
X89.2624 Y72.7329 
X89.0964 
X88.9326 Y72.7069 
X88.7748 Y72.6557 
X88.6269 Y72.5803 
X88.4927 Y72.4828 
X88.3754 Y72.3655 
X88.2779 Y72.2313 
X88.2636 Y72.2032 
X84.9596 
X84.8849 Y72.1723 
X76.9158 Y64.2032 
X52.9596 
X52.8849 Y64.1723 
X51.9158 Y63.2032 
X32.9596 
X32.8849 Y63.1723 
X26.8849 Y57.1723 
X26.8277 Y57.1151 
X26.7968 Y57.0404 
Y52.0842 
X14.8849 Y40.1723 
X14.8277 Y40.1151 
X14.7968 Y40.0404 
Y26.3666 
X14.7427 Y26.3354 
X14.6646 Y26.2573 
X14.6095 Y26.1618 
X14.5809 Y26.0552 
Y25.9448 
X14.6095 Y25.8382 
X14.6646 Y25.7427 
G00 Z2.5400  
G00 X18.7427 Y25.3354 
G01 Z-0.1778 F254   
G01 X18.6646 Y25.2573 F508   
G01 X18.6095 Y25.1618 
X18.5809 Y25.0552 
Y24.9448 
X18.6095 Y24.8382 
X18.6646 Y24.7427 
X18.7427 Y24.6646 
X18.7968 Y24.6334 
Y20.9596 
X18.8277 Y20.8849 
X18.8849 Y20.8277 
X21.8849 Y17.8277 
X21.9596 Y17.7968 
X44.0404 
X44.1151 Y17.8277 
X44.1723 Y17.8849 
X52.1723 Y25.8849 
X52.2032 Y25.9596 
Y26.9158 
X54.8844 Y29.5971 
X54.9448 Y29.5809 
X55.0552 
X55.1618 Y29.6095 
X55.2573 Y29.6646 
X55.3354 Y29.7427 
X55.3905 Y29.8382 
X55.4191 Y29.9448 
Y30.0552 
X55.3905 Y30.1618 
X55.3354 Y30.2573 
X55.2573 Y30.3354 
X55.1618 Y30.3905 
X55.0552 Y30.4191 
X54.9448 
X54.8382 Y30.3905 
X54.7427 Y30.3354 
X54.6646 Y30.2573 
X54.6095 Y30.1618 
X54.5809 Y30.0552 
Y29.9448 
X54.5971 Y29.8844 
X51.8849 Y27.1723 
X51.8277 Y27.1151 
X51.7968 Y27.0404 
Y26.0842 
X43.9158 Y18.2032 
X22.0842 
X19.2032 Y21.0842 
Y24.6334 
X19.2573 Y24.6646 
X19.3354 Y24.7427 
X19.3905 Y24.8382 
X19.4191 Y24.9448 
Y25.0552 
X19.3905 Y25.1618 
X19.3354 Y25.2573 
X19.2573 Y25.3354 
X19.1618 Y25.3905 
X19.0552 Y25.4191 
X18.9448 
X18.8382 Y25.3905 
X18.7427 Y25.3354 
G00 Z2.5400  
G00 X21.1429 Y22.6695 
G01 Z-0.1778 F254   
G01 X20.5105 Y22.0371 F508   
G01 X20.5105 Y21.1429 
X21.1429 Y20.5105 
X22.0371 
X22.6695 Y21.1429 
Y22.0371 
X22.4970 Y22.2096 
X24.7687 Y24.4813 
X24.8160 Y24.4470 
X24.9723 Y24.3673 
X25.1391 Y24.3131 
X25.3123 Y24.2857 
X25.4877 
X25.6609 Y24.3131 
X25.8277 Y24.3673 
X25.9840 Y24.4470 
X26.1259 Y24.5501 
X26.2499 Y24.6741 
X26.3530 Y24.8160 
X26.4327 Y24.9723 
X26.4869 Y25.1391 
X26.5143 Y25.3123 
Y25.4877 
X26.4869 Y25.6609 
X26.4327 Y25.8277 
X26.3530 Y25.9840 
X26.2499 Y26.1259 
X26.1259 Y26.2499 
X25.9840 Y26.3530 
X25.8277 Y26.4327 
X25.6609 Y26.4869 
X25.4877 Y26.5143 
X25.3123 
X25.1391 Y26.4869 
X24.9723 Y26.4327 
X24.8160 Y26.3530 
X24.6741 Y26.2499 
X24.5501 Y26.1259 
X24.4470 Y25.9840 
X24.3673 Y25.8277 
X24.3131 Y25.6609 
X24.2857 Y25.4877 
Y25.3123 
X24.3131 Y25.1391 
X24.3673 Y24.9723 
X24.4470 Y24.8160 
X24.4813 Y24.7687 
X22.2096 Y22.4970 
X22.0371 Y22.6695 
X21.1429 
G00 Z2.5400  
G00 X28.7629 Y22.6695 
G01 Z-0.1778 F254   
G01 X28.1305 Y22.0371 F508   
G01 X28.1305 Y21.1429 
X28.7629 Y20.5105 
X29.6571 
X30.2895 Y21.1429 
Y22.0021 
X32.6394 Y24.3520 
X32.7591 Y24.3131 
X32.9323 Y24.2857 
X33.1077 
X33.2809 Y24.3131 
X33.4477 Y24.3673 
X33.6040 Y24.4470 
X33.7459 Y24.5501 
X33.8699 Y24.6741 
X33.9730 Y24.8160 
X34.0527 Y24.9723 
X34.1069 Y25.1391 
X34.1343 Y25.3123 
Y25.4877 
X34.1069 Y25.6609 
X34.0527 Y25.8277 
X33.9730 Y25.9840 
X33.8699 Y26.1259 
X33.7459 Y26.2499 
X33.6040 Y26.3530 
X33.4477 Y26.4327 
X33.2809 Y26.4869 
X33.1077 Y26.5143 
X32.9323 
X32.7591 Y26.4869 
X32.5923 Y26.4327 
X32.4360 Y26.3530 
X32.2941 Y26.2499 
X32.1701 Y26.1259 
X32.0670 Y25.9840 
X31.9873 Y25.8277 
X31.9331 Y25.6609 
X31.9057 Y25.4877 
Y25.3123 
X31.9331 Y25.1391 
X31.9873 Y24.9723 
X32.0670 Y24.8160 
X32.1701 Y24.6741 
X32.2784 Y24.5658 
X30.0196 Y22.3070 
X29.6571 Y22.6695 
X28.7629 
G00 Z2.5400  
G00 X26.1259 Y27.0901 
G01 Z-0.1778 F254   
G01 X26.2499 Y27.2141 F508   
G01 X26.3530 Y27.3560 
X26.4327 Y27.5123 
X26.4869 Y27.6791 
X26.5143 Y27.8523 
Y28.0277 
X26.4869 Y28.2009 
X26.4327 Y28.3677 
X26.3530 Y28.5240 
X26.2499 Y28.6659 
X26.1259 Y28.7899 
X25.9840 Y28.8930 
X25.8277 Y28.9727 
X25.6609 Y29.0269 
X25.4877 Y29.0543 
X25.3123 
X25.1391 Y29.0269 
X24.9723 Y28.9727 
X24.8160 Y28.8930 
X24.6741 Y28.7899 
X24.5501 Y28.6659 
X24.4470 Y28.5240 
X24.3673 Y28.3677 
X24.3131 Y28.2009 
X24.2857 Y28.0277 
Y27.8523 
X24.3131 Y27.6791 
X24.3673 Y27.5123 
X24.4470 Y27.3560 
X24.5501 Y27.2141 
X24.6741 Y27.0901 
X24.8160 Y26.9870 
X24.9723 Y26.9073 
X25.1391 Y26.8531 
X25.3123 Y26.8257 
X25.4877 
X25.6609 Y26.8531 
X25.8277 Y26.9073 
X25.9840 Y26.9870 
X26.1259 Y27.0901 
G00 Z2.5400  
G00 X32.1701 Y27.2141 
G01 Z-0.1778 F254   
G01 X32.2941 Y27.0901 F508   
G01 X32.4360 Y26.9870 
X32.5923 Y26.9073 
X32.7591 Y26.8531 
X32.9323 Y26.8257 
X33.1077 
X33.2809 Y26.8531 
X33.4477 Y26.9073 
X33.6040 Y26.9870 
X33.7459 Y27.0901 
X33.8699 Y27.2141 
X33.9730 Y27.3560 
X34.0527 Y27.5123 
X34.1069 Y27.6791 
X34.1343 Y27.8523 
Y28.0277 
X34.1069 Y28.2009 
X34.0527 Y28.3677 
X33.9730 Y28.5240 
X33.8699 Y28.6659 
X33.7459 Y28.7899 
X33.6040 Y28.8930 
X33.4477 Y28.9727 
X33.2809 Y29.0269 
X33.1077 Y29.0543 
X32.9323 
X32.7591 Y29.0269 
X32.5923 Y28.9727 
X32.4360 Y28.8930 
X32.2941 Y28.7899 
X32.1701 Y28.6659 
X32.0670 Y28.5240 
X31.9873 Y28.3677 
X31.9331 Y28.2009 
X31.9057 Y28.0277 
Y27.8523 
X31.9331 Y27.6791 
X31.9873 Y27.5123 
X32.0670 Y27.3560 
X32.1701 Y27.2141 
G00 Z2.5400  
G00 X30.2895 Y31.3029 
G01 Z-0.1778 F254   
G01 X30.2895 Y32.0021 F508   
G01 X33.8844 Y35.5971 
X33.9448 Y35.5809 
X34.0552 
X34.1618 Y35.6095 
X34.2573 Y35.6646 
X34.3354 Y35.7427 
X34.3905 Y35.8382 
X34.4191 Y35.9448 
Y36.0552 
X34.3905 Y36.1618 
X34.3354 Y36.2573 
X34.2573 Y36.3354 
X34.1618 Y36.3905 
X34.0552 Y36.4191 
X33.9448 
X33.8382 Y36.3905 
X33.7427 Y36.3354 
X33.6646 Y36.2573 
X33.6095 Y36.1618 
X33.5809 Y36.0552 
Y35.9448 
X33.5971 Y35.8844 
X30.0996 Y32.3870 
X29.6571 Y32.8295 
X28.7629 
X28.1305 Y32.1971 
Y31.3029 
X28.7629 Y30.6705 
X29.6571 
X30.2895 Y31.3029 
G00 Z2.5400  
G00 X35.7505 Y31.3029 
G01 Z-0.1778 F254   
G01 X36.3829 Y30.6705 F508   
G01 X37.2771 Y30.6705 
X37.9095 Y31.3029 
Y32.1971 
X37.2771 Y32.8295 
X36.3829 
X35.7505 Y32.1971 
Y31.3029 
G00 Z2.5400  
G00 X39.9141 Y28.7899 
G01 Z-0.1778 F254   
G01 X39.7901 Y28.6659 F508   
G01 X39.6870 Y28.5240 
X39.6073 Y28.3677 
X39.5531 Y28.2009 
X39.5257 Y28.0277 
Y27.8523 
X39.5531 Y27.6791 
X39.6073 Y27.5123 
X39.6870 Y27.3560 
X39.7901 Y27.2141 
X39.9141 Y27.0901 
X40.0560 Y26.9870 
X40.2123 Y26.9073 
X40.3791 Y26.8531 
X40.5523 Y26.8257 
X40.7277 
X40.9009 Y26.8531 
X41.0677 Y26.9073 
X41.2240 Y26.9870 
X41.3659 Y27.0901 
X41.4899 Y27.2141 
X41.5930 Y27.3560 
X41.6727 Y27.5123 
X41.7269 Y27.6791 
X41.7543 Y27.8523 
Y28.0277 
X41.7269 Y28.2009 
X41.6727 Y28.3677 
X41.5930 Y28.5240 
X41.4899 Y28.6659 
X41.3659 Y28.7899 
X41.2240 Y28.8930 
X41.0677 Y28.9727 
X40.9009 Y29.0269 
X40.7277 Y29.0543 
X40.5523 
X40.3791 Y29.0269 
X40.2123 Y28.9727 
X40.0560 Y28.8930 
X39.9141 Y28.7899 
G00 Z2.5400  
G00 X39.9141 Y26.2499 
G01 Z-0.1778 F254   
G01 X39.7901 Y26.1259 F508   
G01 X39.6870 Y25.9840 
X39.6073 Y25.8277 
X39.5531 Y25.6609 
X39.5257 Y25.4877 
Y25.3123 
X39.5531 Y25.1391 
X39.6073 Y24.9723 
X39.6335 Y24.9209 
X37.3296 Y22.6170 
X37.2771 Y22.6695 
X36.3829 
X35.7505 Y22.0371 
Y21.1429 
X36.3829 Y20.5105 
X37.2771 
X37.9095 Y21.1429 
Y22.0371 
X37.6170 Y22.3296 
X39.8758 Y24.5884 
X39.9141 Y24.5501 
X40.0560 Y24.4470 
X40.2123 Y24.3673 
X40.3791 Y24.3131 
X40.5523 Y24.2857 
X40.7277 
X40.9009 Y24.3131 
X41.0677 Y24.3673 
X41.2240 Y24.4470 
X41.3659 Y24.5501 
X41.4899 Y24.6741 
X41.5930 Y24.8160 
X41.6727 Y24.9723 
X41.7269 Y25.1391 
X41.7543 Y25.3123 
Y25.4877 
X41.7269 Y25.6609 
X41.6727 Y25.8277 
X41.5930 Y25.9840 
X41.4899 Y26.1259 
X41.3659 Y26.2499 
X41.2240 Y26.3530 
X41.0677 Y26.4327 
X40.9009 Y26.4869 
X40.7277 Y26.5143 
X40.5523 
X40.3791 Y26.4869 
X40.2123 Y26.4327 
X40.0560 Y26.3530 
X39.9141 Y26.2499 
G00 Z2.5400  
G00 X47.5341 Y26.2499 
G01 Z-0.1778 F254   
G01 X47.4101 Y26.1259 F508   
G01 X47.3070 Y25.9840 
X47.2273 Y25.8277 
X47.1731 Y25.6609 
X47.1457 Y25.4877 
Y25.3123 
X47.1731 Y25.1391 
X47.2273 Y24.9723 
X47.3070 Y24.8160 
X47.4002 Y24.6876 
X45.1396 Y22.4270 
X44.8971 Y22.6695 
X44.0029 
X43.3705 Y22.0371 
Y21.1429 
X44.0029 Y20.5105 
X44.8971 
X45.5295 Y21.1429 
Y22.0371 
X45.4270 Y22.1396 
X47.7146 Y24.4273 
X47.8323 Y24.3673 
X47.9991 Y24.3131 
X48.1723 Y24.2857 
X48.3477 
X48.5209 Y24.3131 
X48.6877 Y24.3673 
X48.8440 Y24.4470 
X48.9859 Y24.5501 
X49.1099 Y24.6741 
X49.2130 Y24.8160 
X49.2927 Y24.9723 
X49.3469 Y25.1391 
X49.3743 Y25.3123 
Y25.4877 
X49.3469 Y25.6609 
X49.2927 Y25.8277 
X49.2130 Y25.9840 
X49.1099 Y26.1259 
X48.9859 Y26.2499 
X48.8440 Y26.3530 
X48.6877 Y26.4327 
X48.5209 Y26.4869 
X48.3477 Y26.5143 
X48.1723 
X47.9991 Y26.4869 
X47.8323 Y26.4327 
X47.6760 Y26.3530 
X47.5341 Y26.2499 
G00 Z2.5400  
G00 X47.5341 Y27.0901 
G01 Z-0.1778 F254   
G01 X47.6760 Y26.9870 F508   
G01 X47.8323 Y26.9073 
X47.9991 Y26.8531 
X48.1723 Y26.8257 
X48.3477 
X48.5209 Y26.8531 
X48.6877 Y26.9073 
X48.8440 Y26.9870 
X48.9859 Y27.0901 
X49.1099 Y27.2141 
X49.2130 Y27.3560 
X49.2927 Y27.5123 
X49.3469 Y27.6791 
X49.3743 Y27.8523 
Y28.0277 
X49.3469 Y28.2009 
X49.2927 Y28.3677 
X49.2130 Y28.5240 
X49.1099 Y28.6659 
X48.9859 Y28.7899 
X48.8440 Y28.8930 
X48.6877 Y28.9727 
X48.5209 Y29.0269 
X48.3477 Y29.0543 
X48.1723 
X47.9991 Y29.0269 
X47.8323 Y28.9727 
X47.6760 Y28.8930 
X47.5341 Y28.7899 
X47.4101 Y28.6659 
X47.3070 Y28.5240 
X47.2273 Y28.3677 
X47.1731 Y28.2009 
X47.1457 Y28.0277 
Y27.8523 
X47.1731 Y27.6791 
X47.2273 Y27.5123 
X47.3070 Y27.3560 
X47.4101 Y27.2141 
X47.5341 Y27.0901 
G00 Z2.5400  
G00 X45.5295 Y31.3029 
G01 Z-0.1778 F254   
G01 X45.5295 Y32.1971 F508   
G01 X44.8971 Y32.8295 
X44.0029 
X43.3705 Y32.1971 
Y31.3029 
X44.0029 Y30.6705 
X44.8971 
X45.5295 Y31.3029 
G00 Z2.5400  
G00 X46.6646 Y34.7427 
G01 Z-0.1778 F254   
G01 X46.7427 Y34.6646 F508   
G01 X46.8382 Y34.6095 
X46.9448 Y34.5809 
X47.0552 
X47.1618 Y34.6095 
X47.2573 Y34.6646 
X47.3354 Y34.7427 
X47.3666 Y34.7968 
X48.9158 
X51.2530 Y32.4596 
X50.9905 Y32.1971 
Y31.3029 
X51.6229 Y30.6705 
X52.5171 
X53.1495 Y31.3029 
Y32.1971 
X52.5171 Y32.8295 
X51.6229 
X51.5404 Y32.7470 
X49.1151 Y35.1723 
X49.0404 Y35.2032 
X47.3666 
X47.3354 Y35.2573 
X47.2573 Y35.3354 
X47.1618 Y35.3905 
X47.0552 Y35.4191 
X46.9448 
X46.8382 Y35.3905 
X46.7427 Y35.3354 
X46.6646 Y35.2573 
X46.6095 Y35.1618 
X46.5809 Y35.0552 
Y34.9448 
X46.6095 Y34.8382 
X46.6646 Y34.7427 
G00 Z2.5400  
G00 X46.3191 Y38.6400 
G01 Z-0.1778 F254   
G01 X46.4500 Y38.7709 F508   
G01 X46.5528 Y38.9248 
X46.6237 Y39.0959 
X46.6598 Y39.2774 
Y39.4626 
X46.6237 Y39.6441 
X46.5528 Y39.8152 
X46.4500 Y39.9691 
X46.3191 Y40.1000 
X46.1652 Y40.2028 
X45.9941 Y40.2737 
X45.8126 Y40.3098 
X45.6274 
X45.4459 Y40.2737 
X45.2748 Y40.2028 
X45.1209 Y40.1000 
X44.9900 Y39.9691 
X44.8872 Y39.8152 
X44.8163 Y39.6441 
X44.7802 Y39.4626 
Y39.4191 
X32.9448 
X32.8382 Y39.3905 
X32.7427 Y39.3354 
X31.8264 Y38.4191 
X29.1736 
X27.4191 Y40.1736 
Y48.0552 
X27.3905 Y48.1618 
X27.3354 Y48.2573 
X27.2573 Y48.3354 
X27.1618 Y48.3905 
X27.0552 Y48.4191 
X26.9448 
X26.8382 Y48.3905 
X26.7427 Y48.3354 
X26.6646 Y48.2573 
X26.6095 Y48.1618 
X26.5809 Y48.0552 
Y39.9448 
X26.6095 Y39.8382 
X26.6646 Y39.7427 
X26.7427 Y39.6646 
X28.7427 Y37.6646 
X28.8382 Y37.6095 
X28.9448 Y37.5809 
X32.0552 
X32.1618 Y37.6095 
X32.2573 Y37.6646 
X32.3354 Y37.7427 
X33.1736 Y38.5809 
X44.9897 
X45.0346 
X45.0448 
X45.0552 
X45.0986 Y38.5925 
X45.1425 Y38.6020 
X45.1517 Y38.6068 
X45.1618 Y38.6095 
X45.1644 
X45.2748 Y38.5372 
X45.4459 Y38.4663 
X45.6274 Y38.4302 
X45.8126 
X45.9941 Y38.4663 
X46.1652 Y38.5372 
X46.3191 Y38.6400 
G00 Z2.5400  
G00 X47.5300 Y38.7709 
G01 Z-0.1778 F254   
G01 X47.6609 Y38.6400 F508   
G01 X47.8148 Y38.5372 
X47.9859 Y38.4663 
X48.1674 Y38.4302 
X48.3526 
X48.5341 Y38.4663 
X48.7052 Y38.5372 
X48.8591 Y38.6400 
X48.9900 Y38.7709 
X49.0928 Y38.9248 
X49.1637 Y39.0959 
X49.1998 Y39.2774 
Y39.4626 
X49.1637 Y39.6441 
X49.0928 Y39.8152 
X48.9900 Y39.9691 
X48.8591 Y40.1000 
X48.7052 Y40.2028 
X48.5341 Y40.2737 
X48.3526 Y40.3098 
X48.1674 
X47.9859 Y40.2737 
X47.8148 Y40.2028 
X47.6609 Y40.1000 
X47.5300 Y39.9691 
X47.4272 Y39.8152 
X47.3563 Y39.6441 
X47.3202 Y39.4626 
Y39.2774 
X47.3563 Y39.0959 
X47.4272 Y38.9248 
X47.5300 Y38.7709 
G00 Z2.5400  
G00 X51.2953 Y38.4209 
G01 Z-0.1778 F254   
G01 X51.2953 Y37.7791 F508   
G01 X51.7491 Y37.3253 
X52.3909 
X52.8447 Y37.7791 
Y38.4209 
X52.3909 Y38.8747 
X51.7491 
X51.2953 Y38.4209 
G00 Z2.5400  
G00 X51.2953 Y40.3191 
G01 Z-0.1778 F254   
G01 X51.7491 Y39.8653 F508   
G01 X51.8473 Y39.8653 
X51.8668 Y39.8413 
X51.8768 Y39.8358 
X51.8849 Y39.8277 
X51.9120 Y39.8165 
X51.9377 Y39.8024 
X51.9490 
X51.9596 Y39.7968 
X51.9889 
X52.0181 Y39.7936 
X52.0290 Y39.7968 
X53.9158 
X54.7968 Y38.9158 
Y36.3666 
X54.7427 Y36.3354 
X54.6646 Y36.2573 
X54.6095 Y36.1618 
X54.5809 Y36.0552 
Y35.9448 
X54.6095 Y35.8382 
X54.6646 Y35.7427 
X54.7427 Y35.6646 
X54.8382 Y35.6095 
X54.9448 Y35.5809 
X55.0552 
X55.1618 Y35.6095 
X55.2573 Y35.6646 
X55.3354 Y35.7427 
X55.3905 Y35.8382 
X55.4191 Y35.9448 
Y36.0552 
X55.3905 Y36.1618 
X55.3354 Y36.2573 
X55.2573 Y36.3354 
X55.2032 Y36.3666 
Y39.0404 
X55.1723 Y39.1151 
X55.1151 Y39.1723 
X54.1151 Y40.1723 
X54.0404 Y40.2032 
X52.7288 
X52.8447 Y40.3191 
Y40.9609 
X52.3909 Y41.4147 
X51.7491 
X51.2953 Y40.9609 
Y40.3191 
G00 Z2.5400  
G00 X50.2032 Y41.0404 
G01 Z-0.1778 F254   
G01 X50.1723 Y41.1151 F508   
G01 X50.1151 Y41.1723 
X48.2725 Y43.0149 
X48.3363 
X48.4860 Y43.0447 
X48.6270 Y43.1031 
X48.7538 Y43.1878 
X48.8617 Y43.2958 
X48.9465 Y43.4226 
X49.0049 Y43.5636 
X49.0347 Y43.7133 
Y45.1867 
X49.0049 Y45.3364 
X48.9465 Y45.4774 
X48.8617 Y45.6042 
X48.7538 Y45.7121 
X48.6270 Y45.7969 
X48.4860 Y45.8553 
X48.3363 Y45.8851 
X48.1837 
X48.0340 Y45.8553 
X47.8930 Y45.7969 
X47.7662 Y45.7121 
X47.6583 Y45.6042 
X47.5735 Y45.4774 
X47.5151 Y45.3364 
X47.4853 Y45.1867 
Y43.7133 
X47.5151 Y43.5636 
X47.5735 Y43.4226 
X47.6583 Y43.2958 
X47.7662 Y43.1878 
X47.7968 Y43.1674 
Y42.9596 
X47.8277 Y42.8849 
X49.7968 Y40.9158 
Y35.9596 
X49.8277 Y35.8849 
X51.8277 Y33.8849 
X51.8849 Y33.8277 
X51.9596 Y33.7968 
X61.9158 
X69.5971 Y26.1156 
X69.5809 Y26.0552 
Y25.9448 
X69.6095 Y25.8382 
X69.6646 Y25.7427 
X69.7427 Y25.6646 
X69.8382 Y25.6095 
X69.9448 Y25.5809 
X70.0552 
X70.1618 Y25.6095 
X70.2573 Y25.6646 
X70.3354 Y25.7427 
X70.3905 Y25.8382 
X70.4191 Y25.9448 
Y26.0552 
X70.3905 Y26.1618 
X70.3354 Y26.2573 
X70.2573 Y26.3354 
X70.1618 Y26.3905 
X70.0552 Y26.4191 
X69.9448 
X69.8844 Y26.4029 
X62.1151 Y34.1723 
X62.0404 Y34.2032 
X52.0842 
X50.2032 Y36.0842 
Y41.0404 
G00 Z2.5400  
G00 X50.3062 Y43.1878 
G01 Z-0.1778 F254   
G01 X50.4330 Y43.1031 F508   
G01 X50.5740 Y43.0447 
X50.7237 Y43.0149 
X50.8763 
X51.0260 Y43.0447 
X51.1670 Y43.1031 
X51.2938 Y43.1878 
X51.4017 Y43.2958 
X51.4865 Y43.4226 
X51.5449 Y43.5636 
X51.5747 Y43.7133 
Y45.1867 
X51.5449 Y45.3364 
X51.4865 Y45.4774 
X51.4017 Y45.6042 
X51.2938 Y45.7121 
X51.1670 Y45.7969 
X51.0260 Y45.8553 
X50.8763 Y45.8851 
X50.7237 
X50.5740 Y45.8553 
X50.4330 Y45.7969 
X50.3062 Y45.7121 
X50.1983 Y45.6042 
X50.1135 Y45.4774 
X50.0551 Y45.3364 
X50.0253 Y45.1867 
Y43.7133 
X50.0551 Y43.5636 
X50.1135 Y43.4226 
X50.1983 Y43.2958 
X50.3062 Y43.1878 
G00 Z2.5400  
G00 X52.7383 Y43.2958 
G01 Z-0.1778 F254   
G01 X52.8462 Y43.1878 F508   
G01 X52.9730 Y43.1031 
X53.1140 Y43.0447 
X53.2637 Y43.0149 
X53.4163 
X53.5660 Y43.0447 
X53.7070 Y43.1031 
X53.8338 Y43.1878 
X53.9417 Y43.2958 
X54.0265 Y43.4226 
X54.0849 Y43.5636 
X54.1147 Y43.7133 
Y45.1867 
X54.0849 Y45.3364 
X54.0265 Y45.4774 
X53.9417 Y45.6042 
X53.8338 Y45.7121 
X53.7070 Y45.7969 
X53.5660 Y45.8553 
X53.4163 Y45.8851 
X53.2637 
X53.1140 Y45.8553 
X52.9730 Y45.7969 
X52.8462 Y45.7121 
X52.7383 Y45.6042 
X52.6535 Y45.4774 
X52.5951 Y45.3364 
X52.5653 Y45.1867 
Y43.7133 
X52.5951 Y43.5636 
X52.6535 Y43.4226 
X52.7383 Y43.2958 
G00 Z2.5400  
G00 X55.2782 Y43.2958 
G01 Z-0.1778 F254   
G01 X55.3862 Y43.1878 F508   
G01 X55.5130 Y43.1031 
X55.6540 Y43.0447 
X55.8037 Y43.0149 
X55.9563 
X56.1060 Y43.0447 
X56.2470 Y43.1031 
X56.3738 Y43.1878 
X56.4817 Y43.2958 
X56.5665 Y43.4226 
X56.6249 Y43.5636 
X56.6547 Y43.7133 
Y45.1867 
X56.6249 Y45.3364 
X56.5665 Y45.4774 
X56.4817 Y45.6042 
X56.3738 Y45.7121 
X56.2470 Y45.7969 
X56.1060 Y45.8553 
X55.9563 Y45.8851 
X55.8037 
X55.6540 Y45.8553 
X55.5130 Y45.7969 
X55.3862 Y45.7121 
X55.2782 Y45.6042 
X55.1935 Y45.4774 
X55.1351 Y45.3364 
X55.1053 Y45.1867 
Y43.7133 
X55.1351 Y43.5636 
X55.1935 Y43.4226 
X55.2782 Y43.2958 
G00 Z2.5400  
G00 X55.2809 Y41.3700 
G01 Z-0.1778 F254   
G01 X55.1500 Y41.2391 F508   
G01 X55.0472 Y41.0852 
X54.9763 Y40.9141 
X54.9402 Y40.7326 
Y40.5474 
X54.9763 Y40.3659 
X55.0472 Y40.1948 
X55.1500 Y40.0409 
X55.2809 Y39.9100 
X55.4348 Y39.8072 
X55.6059 Y39.7363 
X55.7874 Y39.7002 
X55.9726 
X56.1541 Y39.7363 
X56.3252 Y39.8072 
X56.4791 Y39.9100 
X56.6100 Y40.0409 
X56.7128 Y40.1948 
X56.7837 Y40.3659 
X56.8198 Y40.5474 
Y40.7326 
X56.7837 Y40.9141 
X56.7128 Y41.0852 
X56.6100 Y41.2391 
X56.4791 Y41.3700 
X56.3252 Y41.4728 
X56.1541 Y41.5437 
X55.9726 Y41.5798 
X55.7874 
X55.6059 Y41.5437 
X55.4348 Y41.4728 
X55.2809 Y41.3700 
G00 Z2.5400  
G00 X57.8209 Y41.3700 
G01 Z-0.1778 F254   
G01 X57.6900 Y41.2391 F508   
G01 X57.5872 Y41.0852 
X57.5163 Y40.9141 
X57.4802 Y40.7326 
Y40.5474 
X57.5163 Y40.3659 
X57.5872 Y40.1948 
X57.6900 Y40.0409 
X57.8209 Y39.9100 
X57.9748 Y39.8072 
X58.1459 Y39.7363 
X58.3274 Y39.7002 
X58.5126 
X58.6941 Y39.7363 
X58.8652 Y39.8072 
X59.0191 Y39.9100 
X59.1500 Y40.0409 
X59.2528 Y40.1948 
X59.3237 Y40.3659 
X59.3598 Y40.5474 
Y40.7326 
X59.3237 Y40.9141 
X59.2528 Y41.0852 
X59.1500 Y41.2391 
X59.0191 Y41.3700 
X58.8652 Y41.4728 
X58.7909 Y41.5036 
X60.4716 Y43.1842 
X60.5930 Y43.1031 
X60.7340 Y43.0447 
X60.8837 Y43.0149 
X61.0363 
X61.1860 Y43.0447 
X61.3270 Y43.1031 
X61.4538 Y43.1878 
X61.5617 Y43.2958 
X61.6465 Y43.4226 
X61.7049 Y43.5636 
X61.7347 Y43.7133 
Y45.1867 
X61.7049 Y45.3364 
X61.6465 Y45.4774 
X61.5617 Y45.6042 
X61.4538 Y45.7121 
X61.3270 Y45.7969 
X61.1860 Y45.8553 
X61.0363 Y45.8851 
X60.8837 
X60.7340 Y45.8553 
X60.5930 Y45.7969 
X60.4662 Y45.7121 
X60.3582 Y45.6042 
X60.2735 Y45.4774 
X60.2151 Y45.3364 
X60.1853 Y45.1867 
Y43.7133 
X60.2151 Y43.5636 
X60.2330 Y43.5204 
X58.2837 Y41.5711 
X58.1459 Y41.5437 
X57.9748 Y41.4728 
X57.8209 Y41.3700 
G00 Z2.5400  
G00 X57.9262 Y43.1878 
G01 Z-0.1778 F254   
G01 X58.0530 Y43.1031 F508   
G01 X58.1940 Y43.0447 
X58.3437 Y43.0149 
X58.4963 
X58.6460 Y43.0447 
X58.7870 Y43.1031 
X58.9138 Y43.1878 
X59.0217 Y43.2958 
X59.1065 Y43.4226 
X59.1649 Y43.5636 
X59.1947 Y43.7133 
Y45.1867 
X59.1649 Y45.3364 
X59.1065 Y45.4774 
X59.0217 Y45.6042 
X58.9138 Y45.7121 
X58.7870 Y45.7969 
X58.6460 Y45.8553 
X58.4963 Y45.8851 
X58.3437 
X58.1940 Y45.8553 
X58.0530 Y45.7969 
X57.9262 Y45.7121 
X57.8182 Y45.6042 
X57.7335 Y45.4774 
X57.6751 Y45.3364 
X57.6453 Y45.1867 
Y43.7133 
X57.6751 Y43.5636 
X57.7335 Y43.4226 
X57.8182 Y43.2958 
X57.9262 Y43.1878 
G00 Z2.5400  
G00 X60.3609 Y41.3700 
G01 Z-0.1778 F254   
G01 X60.2300 Y41.2391 F508   
G01 X60.1272 Y41.0852 
X60.0563 Y40.9141 
X60.0202 Y40.7326 
Y40.5474 
X60.0563 Y40.3659 
X60.1272 Y40.1948 
X60.2300 Y40.0409 
X60.3609 Y39.9100 
X60.5148 Y39.8072 
X60.6859 Y39.7363 
X60.8674 Y39.7002 
X61.0526 
X61.2341 Y39.7363 
X61.4052 Y39.8072 
X61.5591 Y39.9100 
X61.6900 Y40.0409 
X61.7928 Y40.1948 
X61.8637 Y40.3659 
X61.8998 Y40.5474 
Y40.7326 
X61.8637 Y40.9141 
X61.7928 Y41.0852 
X61.6900 Y41.2391 
X61.5591 Y41.3700 
X61.4052 Y41.4728 
X61.2341 Y41.5437 
X61.0526 Y41.5798 
X60.8674 
X60.6859 Y41.5437 
X60.5148 Y41.4728 
X60.3609 Y41.3700 
G00 Z2.5400  
G00 X62.9009 Y41.3700 
G01 Z-0.1778 F254   
G01 X62.7700 Y41.2391 F508   
G01 X62.6672 Y41.0852 
X62.5963 Y40.9141 
X62.5602 Y40.7326 
Y40.5474 
X62.5963 Y40.3659 
X62.6672 Y40.1948 
X62.7700 Y40.0409 
X62.9009 Y39.9100 
X63.0548 Y39.8072 
X63.2259 Y39.7363 
X63.4074 Y39.7002 
X63.5926 
X63.7741 Y39.7363 
X63.7968 Y39.7457 
Y37.5456 
X63.7260 Y37.5749 
X63.5763 Y37.6047 
X63.4237 
X63.2740 Y37.5749 
X63.1330 Y37.5165 
X63.0062 Y37.4317 
X62.8982 Y37.3238 
X62.8135 Y37.1970 
X62.7551 Y37.0560 
X62.7253 Y36.9063 
Y36.7537 
X62.7551 Y36.6040 
X62.8135 Y36.4630 
X62.8982 Y36.3362 
X63.0062 Y36.2283 
X63.1330 Y36.1435 
X63.2740 Y36.0851 
X63.4237 Y36.0553 
X63.5763 
X63.7260 Y36.0851 
X63.8670 Y36.1435 
X63.9938 Y36.2283 
X64.1017 Y36.3362 
X64.1865 Y36.4630 
X64.2449 Y36.6040 
X64.2747 Y36.7537 
Y36.9063 
X64.2449 Y37.0560 
X64.2032 Y37.1567 
Y39.9876 
X64.2066 Y40.0153 
X64.2300 Y40.0409 
X64.3328 Y40.1948 
X64.4037 Y40.3659 
X64.4398 Y40.5474 
Y40.7326 
X64.4037 Y40.9141 
X64.3328 Y41.0852 
X64.2300 Y41.2391 
X64.0991 Y41.3700 
X63.9452 Y41.4728 
X63.7741 Y41.5437 
X63.5926 Y41.5798 
X63.4074 
X63.2259 Y41.5437 
X63.0548 Y41.4728 
X62.9009 Y41.3700 
G00 Z2.5400  
G00 X63.0062 Y43.1878 
G01 Z-0.1778 F254   
G01 X63.1330 Y43.1031 F508   
G01 X63.2740 Y43.0447 
X63.4237 Y43.0149 
X63.5763 
X63.7260 Y43.0447 
X63.8670 Y43.1031 
X63.9938 Y43.1878 
X64.1017 Y43.2958 
X64.1865 Y43.4226 
X64.2449 Y43.5636 
X64.2747 Y43.7133 
Y45.1867 
X64.2449 Y45.3364 
X64.1865 Y45.4774 
X64.1017 Y45.6042 
X63.9938 Y45.7121 
X63.8670 Y45.7969 
X63.7260 Y45.8553 
X63.5763 Y45.8851 
X63.4237 
X63.2740 Y45.8553 
X63.1330 Y45.7969 
X63.0062 Y45.7121 
X62.8982 Y45.6042 
X62.8135 Y45.4774 
X62.7551 Y45.3364 
X62.7253 Y45.1867 
Y43.7133 
X62.7551 Y43.5636 
X62.8135 Y43.4226 
X62.8982 Y43.2958 
X63.0062 Y43.1878 
G00 Z2.5400  
G00 X65.4382 Y43.2958 
G01 Z-0.1778 F254   
G01 X65.5462 Y43.1878 F508   
G01 X65.6730 Y43.1031 
X65.8140 Y43.0447 
X65.9637 Y43.0149 
X66.1163 
X66.2660 Y43.0447 
X66.4070 Y43.1031 
X66.5338 Y43.1878 
X66.6417 Y43.2958 
X66.7265 Y43.4226 
X66.7849 Y43.5636 
X66.8147 Y43.7133 
Y45.1867 
X66.7849 Y45.3364 
X66.7265 Y45.4774 
X66.6417 Y45.6042 
X66.5338 Y45.7121 
X66.4070 Y45.7969 
X66.2660 Y45.8553 
X66.1163 Y45.8851 
X65.9637 
X65.8140 Y45.8553 
X65.6730 Y45.7969 
X65.5462 Y45.7121 
X65.4382 Y45.6042 
X65.3535 Y45.4774 
X65.2951 Y45.3364 
X65.2653 Y45.1867 
Y43.7133 
X65.2951 Y43.5636 
X65.3535 Y43.4226 
X65.4382 Y43.2958 
G00 Z2.5400  
G00 X67.9783 Y43.2958 
G01 Z-0.1778 F254   
G01 X68.0862 Y43.1878 F508   
G01 X68.2130 Y43.1031 
X68.3540 Y43.0447 
X68.5037 Y43.0149 
X68.6563 
X68.8060 Y43.0447 
X68.9470 Y43.1031 
X69.0738 Y43.1878 
X69.1817 Y43.2958 
X69.2665 Y43.4226 
X69.3249 Y43.5636 
X69.3547 Y43.7133 
Y45.1867 
X69.3249 Y45.3364 
X69.2665 Y45.4774 
X69.1817 Y45.6042 
X69.0738 Y45.7121 
X68.9470 Y45.7969 
X68.8060 Y45.8553 
X68.6563 Y45.8851 
X68.5037 
X68.3540 Y45.8553 
X68.2130 Y45.7969 
X68.0862 Y45.7121 
X67.9783 Y45.6042 
X67.8935 Y45.4774 
X67.8351 Y45.3364 
X67.8053 Y45.1867 
Y43.7133 
X67.8351 Y43.5636 
X67.8935 Y43.4226 
X67.9783 Y43.2958 
G00 Z2.5400  
G00 X70.5182 Y43.2958 
G01 Z-0.1778 F254   
G01 X70.6262 Y43.1878 F508   
G01 X70.7530 Y43.1031 
X70.8940 Y43.0447 
X71.0437 Y43.0149 
X71.1963 
X71.3460 Y43.0447 
X71.4870 Y43.1031 
X71.5605 Y43.1522 
X77.7968 Y36.9158 
Y29.9596 
X77.8277 Y29.8849 
X77.8849 Y29.8277 
X81.7968 Y25.9158 
Y14.9596 
X81.8277 Y14.8849 
X81.8849 Y14.8277 
X83.7145 Y12.9981 
X83.6847 Y12.9260 
X83.6549 Y12.7763 
Y12.6237 
X83.6847 Y12.4740 
X83.7431 Y12.3330 
X83.8278 Y12.2062 
X83.9358 Y12.0983 
X84.0626 Y12.0135 
X84.2036 Y11.9551 
X84.3533 Y11.9253 
X85.8267 
X85.9764 Y11.9551 
X86.1174 Y12.0135 
X86.2442 Y12.0983 
X86.3521 Y12.2062 
X86.4369 Y12.3330 
X86.4953 Y12.4740 
X86.5251 Y12.6237 
Y12.7763 
X86.4953 Y12.9260 
X86.4369 Y13.0670 
X86.3521 Y13.1938 
X86.2442 Y13.3017 
X86.1174 Y13.3865 
X85.9764 Y13.4449 
X85.8267 Y13.4747 
X84.3533 
X84.2036 Y13.4449 
X84.0626 Y13.3865 
X83.9656 Y13.3217 
X82.2032 Y15.0842 
Y26.0404 
X82.1723 Y26.1151 
X78.2032 Y30.0842 
Y37.0404 
X78.1723 Y37.1151 
X71.8236 Y43.4638 
X71.8649 Y43.5636 
X71.8947 Y43.7133 
Y45.1867 
X71.8649 Y45.3364 
X71.8065 Y45.4774 
X71.7217 Y45.6042 
X71.6138 Y45.7121 
X71.4870 Y45.7969 
X71.3460 Y45.8553 
X71.1963 Y45.8851 
X71.0437 
X70.8940 Y45.8553 
X70.7530 Y45.7969 
X70.6262 Y45.7121 
X70.5182 Y45.6042 
X70.4335 Y45.4774 
X70.3751 Y45.3364 
X70.3453 Y45.1867 
Y43.7133 
X70.3751 Y43.5636 
X70.4335 Y43.4226 
X70.5182 Y43.2958 
G00 Z2.5400  
G00 X73.0583 Y43.2958 
G01 Z-0.1778 F254   
G01 X73.1662 Y43.1878 F508   
G01 X73.2930 Y43.1031 
X73.4340 Y43.0447 
X73.5837 Y43.0149 
X73.6977 
X78.7968 Y37.9158 
Y30.9596 
X78.8277 Y30.8849 
X78.8849 Y30.8277 
X83.8242 Y25.8884 
X83.7431 Y25.7670 
X83.6847 Y25.6260 
X83.6549 Y25.4763 
Y25.3237 
X83.6847 Y25.1740 
X83.7431 Y25.0330 
X83.8278 Y24.9062 
X83.9358 Y24.7982 
X84.0626 Y24.7135 
X84.2036 Y24.6551 
X84.3533 Y24.6253 
X85.8267 
X85.9764 Y24.6551 
X86.1174 Y24.7135 
X86.2442 Y24.7982 
X86.3521 Y24.9062 
X86.4369 Y25.0330 
X86.4953 Y25.1740 
X86.5251 Y25.3237 
Y25.4763 
X86.4953 Y25.6260 
X86.4369 Y25.7670 
X86.3521 Y25.8938 
X86.2442 Y26.0017 
X86.1174 Y26.0865 
X85.9764 Y26.1449 
X85.8267 Y26.1747 
X85.1092 
X85.1008 Y26.1782 
X85.0883 Y26.1874 
X85.0638 Y26.1935 
X85.0404 Y26.2032 
X85.0249 
X85.0098 Y26.2069 
X84.9848 Y26.2032 
X84.0842 
X79.2032 Y31.0842 
Y38.0404 
X79.1723 Y38.1151 
X74.1213 Y43.1661 
X74.1538 Y43.1878 
X74.2617 Y43.2958 
X74.3465 Y43.4226 
X74.4049 Y43.5636 
X74.4347 Y43.7133 
Y45.1867 
X74.4049 Y45.3364 
X74.3465 Y45.4774 
X74.2617 Y45.6042 
X74.1538 Y45.7121 
X74.0270 Y45.7969 
X73.8860 Y45.8553 
X73.7363 Y45.8851 
X73.5837 
X73.4340 Y45.8553 
X73.2930 Y45.7969 
X73.1662 Y45.7121 
X73.0583 Y45.6042 
X72.9735 Y45.4774 
X72.9151 Y45.3364 
X72.8853 Y45.1867 
Y44.1724 
X72.8698 Y44.1572 
X72.8521 Y44.1451 
X72.8415 Y44.1289 
X72.8277 Y44.1151 
X72.8196 Y44.0954 
X72.8079 Y44.0775 
X72.8042 Y44.0584 
X72.7968 Y44.0404 
Y44.0191 
X72.7928 Y43.9981 
X72.7968 Y43.9790 
Y43.9596 
X72.8050 Y43.9398 
X72.8093 Y43.9189 
X72.8203 Y43.9029 
X72.8277 Y43.8849 
X72.8428 Y43.8698 
X72.8549 Y43.8521 
X72.8711 Y43.8415 
X72.8853 Y43.8273 
Y43.7133 
X72.9151 Y43.5636 
X72.9735 Y43.4226 
X73.0583 Y43.2958 
G00 Z2.5400  
G00 X75.5982 Y43.2958 
G01 Z-0.1778 F254   
G01 X75.7062 Y43.1878 F508   
G01 X75.8330 Y43.1031 
X75.9740 Y43.0447 
X76.1237 Y43.0149 
X76.2763 
X76.4260 Y43.0447 
X76.5670 Y43.1031 
X76.6938 Y43.1878 
X76.8017 Y43.2958 
X76.8865 Y43.4226 
X76.9449 Y43.5636 
X76.9747 Y43.7133 
Y45.1867 
X76.9449 Y45.3364 
X76.8865 Y45.4774 
X76.8017 Y45.6042 
X76.6938 Y45.7121 
X76.5670 Y45.7969 
X76.4260 Y45.8553 
X76.2763 Y45.8851 
X76.1237 
X75.9740 Y45.8553 
X75.8330 Y45.7969 
X75.7062 Y45.7121 
X75.5982 Y45.6042 
X75.5135 Y45.4774 
X75.4551 Y45.3364 
X75.4253 Y45.1867 
Y43.7133 
X75.4551 Y43.5636 
X75.5135 Y43.4226 
X75.5982 Y43.2958 
G00 Z2.5400  
G00 X78.1382 Y43.2958 
G01 Z-0.1778 F254   
G01 X78.2462 Y43.1878 F508   
G01 X78.3730 Y43.1031 
X78.5140 Y43.0447 
X78.6637 Y43.0149 
X78.7968 
Y42.9596 
X78.8277 Y42.8849 
X78.8849 Y42.8277 
X79.7968 Y41.9158 
Y36.9596 
X79.8277 Y36.8849 
X79.8849 Y36.8277 
X90.8849 Y25.8277 
X90.9596 Y25.7968 
X91.3830 
X91.3631 Y25.7670 
X91.3047 Y25.6260 
X91.2749 Y25.4763 
Y25.3237 
X91.3047 Y25.1740 
X91.3631 Y25.0330 
X91.4479 Y24.9062 
X91.5558 Y24.7982 
X91.6826 Y24.7135 
X91.8236 Y24.6551 
X91.9733 Y24.6253 
X93.4467 
X93.5964 Y24.6551 
X93.7374 Y24.7135 
X93.8642 Y24.7982 
X93.9721 Y24.9062 
X94.0569 Y25.0330 
X94.1153 Y25.1740 
X94.1451 Y25.3237 
Y25.4763 
X94.1153 Y25.6260 
X94.0569 Y25.7670 
X93.9721 Y25.8938 
X93.8642 Y26.0017 
X93.7374 Y26.0865 
X93.5964 Y26.1449 
X93.4467 Y26.1747 
X92.1092 
X92.1003 Y26.1813 
X92.0699 Y26.1910 
X92.0404 Y26.2032 
X92.0316 
X92.0233 Y26.2059 
X91.9915 Y26.2032 
X91.0842 
X80.2032 Y37.0842 
Y42.0404 
X80.1723 Y42.1151 
X79.2032 Y43.0842 
Y43.1674 
X79.2338 Y43.1878 
X79.3417 Y43.2958 
X79.4265 Y43.4226 
X79.4849 Y43.5636 
X79.5147 Y43.7133 
Y45.1867 
X79.4849 Y45.3364 
X79.4265 Y45.4774 
X79.3417 Y45.6042 
X79.2338 Y45.7121 
X79.1070 Y45.7969 
X78.9660 Y45.8553 
X78.8163 Y45.8851 
X78.6637 
X78.5140 Y45.8553 
X78.3730 Y45.7969 
X78.2462 Y45.7121 
X78.1382 Y45.6042 
X78.0535 Y45.4774 
X77.9951 Y45.3364 
X77.9653 Y45.1867 
Y43.7133 
X77.9951 Y43.5636 
X78.0535 Y43.4226 
X78.1382 Y43.2958 
G00 Z2.5400  
G00 X80.6783 Y43.2958 
G01 Z-0.1778 F254   
G01 X80.7862 Y43.1878 F508   
G01 X80.7968 Y43.1807 
Y37.9596 
X80.8277 Y37.8849 
X80.8849 Y37.8277 
X87.8849 Y30.8277 
X87.9596 Y30.7968 
X93.9158 
X98.6385 Y26.0741 
X98.2853 Y25.7209 
Y25.0791 
X98.7391 Y24.6253 
X99.3809 
X99.8347 Y25.0791 
Y25.7209 
X99.3809 Y26.1747 
X99.1127 
X94.1723 Y31.1151 
X94.1151 Y31.1723 
X94.0404 Y31.2032 
X88.0842 
X81.2032 Y38.0842 
Y43.0150 
X81.3563 
X81.5060 Y43.0447 
X81.6470 Y43.1031 
X81.7738 Y43.1878 
X81.8817 Y43.2958 
X81.9665 Y43.4226 
X82.0249 Y43.5636 
X82.0547 Y43.7133 
Y45.1867 
X82.0249 Y45.3364 
X81.9665 Y45.4774 
X81.8817 Y45.6042 
X81.7738 Y45.7121 
X81.6470 Y45.7969 
X81.5060 Y45.8553 
X81.3563 Y45.8851 
X81.2037 
X81.0540 Y45.8553 
X80.9130 Y45.7969 
X80.7862 Y45.7121 
X80.6783 Y45.6042 
X80.5935 Y45.4774 
X80.5351 Y45.3364 
X80.5053 Y45.1867 
Y43.7133 
X80.5351 Y43.5636 
X80.5935 Y43.4226 
X80.6783 Y43.2958 
G00 Z2.5400  
G00 X81.0404 Y47.7968 
G01 Z-0.1778 F254   
G01 X81.1151 Y47.8277 F508   
G01 X86.0842 Y52.7968 
X88.1327 
X88.1700 Y52.7409 
X88.3009 Y52.6100 
X88.4548 Y52.5072 
X88.6259 Y52.4363 
X88.8074 Y52.4002 
X88.9926 
X89.1741 Y52.4363 
X89.3452 Y52.5072 
X89.4991 Y52.6100 
X89.6300 Y52.7409 
X89.7328 Y52.8948 
X89.8037 Y53.0659 
X89.8398 Y53.2474 
Y53.4326 
X89.8037 Y53.6141 
X89.7328 Y53.7852 
X89.6300 Y53.9391 
X89.4991 Y54.0700 
X89.3452 Y54.1728 
X89.1741 Y54.2437 
X88.9926 Y54.2798 
X88.8074 
X88.6259 Y54.2437 
X88.4548 Y54.1728 
X88.3009 Y54.0700 
X88.1700 Y53.9391 
X88.0672 Y53.7852 
X87.9963 Y53.6141 
X87.9602 Y53.4326 
Y53.2474 
X87.9690 Y53.2032 
X85.9596 
X85.8849 Y53.1723 
X85.8277 Y53.1151 
X80.9158 Y48.2032 
X56.0842 
X54.4029 Y49.8844 
X54.4191 Y49.9448 
Y50.0552 
X54.3905 Y50.1618 
X54.3354 Y50.2573 
X54.2573 Y50.3354 
X54.1618 Y50.3905 
X54.0552 Y50.4191 
X53.9448 
X53.8382 Y50.3905 
X53.7427 Y50.3354 
X53.6646 Y50.2573 
X53.6095 Y50.1618 
X53.5809 Y50.0552 
Y49.9448 
X53.6095 Y49.8382 
X53.6646 Y49.7427 
X53.7427 Y49.6646 
X53.8382 Y49.6095 
X53.9448 Y49.5809 
X54.0552 
X54.1156 Y49.5971 
X55.8277 Y47.8849 
X55.8849 Y47.8277 
X55.9596 Y47.7968 
X81.0404 
G00 Z2.5400  
G00 X83.7427 Y47.3354 
G01 Z-0.1778 F254   
G01 X83.6646 Y47.2573 F508   
G01 X83.6334 Y47.2032 
X53.3666 
X53.3354 Y47.2573 
X53.2573 Y47.3354 
X53.1618 Y47.3905 
X53.0552 Y47.4191 
X52.9448 
X52.8382 Y47.3905 
X52.7427 Y47.3354 
X52.6646 Y47.2573 
X52.6095 Y47.1618 
X52.5809 Y47.0552 
Y46.9448 
X52.6095 Y46.8382 
X52.6646 Y46.7427 
X52.7427 Y46.6646 
X52.8382 Y46.6095 
X52.9448 Y46.5809 
X53.0552 
X53.1618 Y46.6095 
X53.2573 Y46.6646 
X53.3354 Y46.7427 
X53.3666 Y46.7968 
X83.6334 
X83.6646 Y46.7427 
X83.7427 Y46.6646 
X83.8382 Y46.6095 
X83.9448 Y46.5809 
X84.0552 
X84.1618 Y46.6095 
X84.2573 Y46.6646 
X84.3354 Y46.7427 
X84.3905 Y46.8382 
X84.4191 Y46.9448 
Y47.0552 
X84.3905 Y47.1618 
X84.3354 Y47.2573 
X84.2573 Y47.3354 
X84.1618 Y47.3905 
X84.0552 Y47.4191 
X83.9448 
X83.8382 Y47.3905 
X83.7427 Y47.3354 
G00 Z2.5400  
G00 X83.7427 Y48.6646 
G01 Z-0.1778 F254   
G01 X83.8382 Y48.6095 F508   
G01 X83.9448 Y48.5809 
X84.0552 
X84.1156 Y48.5971 
X85.7968 Y46.9158 
Y40.9596 
X85.8277 Y40.8849 
X85.8849 Y40.8277 
X101.7968 Y24.9158 
Y21.3666 
X101.7427 Y21.3354 
X101.6646 Y21.2573 
X101.6095 Y21.1618 
X101.5809 Y21.0552 
Y20.9448 
X101.6095 Y20.8382 
X101.6646 Y20.7427 
X101.7427 Y20.6646 
X101.8382 Y20.6095 
X101.9448 Y20.5809 
X102.0552 
X102.1618 Y20.6095 
X102.2573 Y20.6646 
X102.3354 Y20.7427 
X102.3905 Y20.8382 
X102.4191 Y20.9448 
Y21.0552 
X102.3905 Y21.1618 
X102.3354 Y21.2573 
X102.2573 Y21.3354 
X102.2032 Y21.3666 
Y24.9596 
Y25.0404 
X102.1723 Y25.1151 
X86.2032 Y41.0842 
Y47.0404 
X86.1723 Y47.1151 
X84.4029 Y48.8844 
X84.4191 Y48.9448 
Y49.0552 
X84.3905 Y49.1618 
X84.3354 Y49.2573 
X84.2573 Y49.3354 
X84.1618 Y49.3905 
X84.0552 Y49.4191 
X83.9448 
X83.8382 Y49.3905 
X83.7427 Y49.3354 
X83.6646 Y49.2573 
X83.6095 Y49.1618 
X83.5809 Y49.0552 
Y48.9448 
X83.6095 Y48.8382 
X83.6646 Y48.7427 
X83.7427 Y48.6646 
G00 Z2.5400  
G00 X90.8409 Y47.7200 
G01 Z-0.1778 F254   
G01 X90.7100 Y47.5891 F508   
G01 X90.6072 Y47.4352 
X90.5363 Y47.2641 
X90.5002 Y47.0826 
Y46.8974 
X90.5363 Y46.7159 
X90.6072 Y46.5448 
X90.7100 Y46.3909 
X90.8409 Y46.2600 
X90.9948 Y46.1572 
X91.1659 Y46.0863 
X91.3474 Y46.0502 
X91.5326 
X91.7141 Y46.0863 
X91.8852 Y46.1572 
X92.0391 Y46.2600 
X92.1700 Y46.3909 
X92.2728 Y46.5448 
X92.3437 Y46.7159 
X92.3560 Y46.7777 
X92.3648 Y46.7937 
X92.3905 Y46.8382 
Y46.8419 
Y46.8452 
X92.4058 Y46.8951 
X92.4191 Y46.9448 
Y46.9486 
Y46.9523 
Y47.0037 
Y48.8264 
X94.1736 Y50.5809 
X99.3557 
Y50.4773 
X99.3731 Y50.4353 
X99.4053 Y50.4031 
X99.4473 Y50.3857 
X100.0053 
X100.0463 Y50.3779 
X100.1497 Y50.3857 
X100.6927 
X100.7347 Y50.4031 
X100.7669 Y50.4353 
X100.7843 Y50.4773 
Y51.1227 
X100.7669 Y51.1647 
X100.7347 Y51.1969 
X100.6927 Y51.2143 
X100.3611 
X100.3551 Y51.2231 
X100.3354 Y51.2573 
X100.3241 Y51.2686 
X100.3152 Y51.2817 
X100.2853 Y51.3074 
X100.2573 Y51.3354 
X100.2436 Y51.3433 
X100.2315 Y51.3537 
X100.1960 Y51.3708 
X100.1618 Y51.3905 
X100.1464 Y51.3946 
X100.1321 Y51.4015 
X100.0933 Y51.4089 
X100.0552 Y51.4191 
X100.0393 
X100.0237 Y51.4220 
X99.9843 Y51.4191 
X94.1736 
X92.3741 Y53.2186 
X92.3798 Y53.2474 
Y53.4326 
X92.3437 Y53.6141 
X92.2728 Y53.7852 
X92.1700 Y53.9391 
X92.0391 Y54.0700 
X91.8852 Y54.1728 
X91.7141 Y54.2437 
X91.5326 Y54.2798 
X91.3474 
X91.1659 Y54.2437 
X90.9948 Y54.1728 
X90.8409 Y54.0700 
X90.7100 Y53.9391 
X90.6072 Y53.7852 
X90.5363 Y53.6141 
X90.5002 Y53.4326 
Y53.2474 
X90.5363 Y53.0659 
X90.6072 Y52.8948 
X90.7100 Y52.7409 
X90.8409 Y52.6100 
X90.9948 Y52.5072 
X91.1659 Y52.4363 
X91.3474 Y52.4002 
X91.5326 
X91.7141 Y52.4363 
X91.8852 Y52.5072 
X91.8941 Y52.5132 
X93.4073 Y51.0000 
X91.6646 Y49.2573 
X91.6095 Y49.1618 
X91.5809 Y49.0552 
Y47.9202 
X91.5326 Y47.9298 
X91.3474 
X91.1659 Y47.8937 
X90.9948 Y47.8228 
X90.8409 Y47.7200 
G00 Z2.5400  
G00 X93.3809 Y47.7200 
G01 Z-0.1778 F254   
G01 X93.2500 Y47.5891 F508   
G01 X93.1472 Y47.4352 
X93.0763 Y47.2641 
X93.0402 Y47.0826 
Y46.8974 
X93.0763 Y46.7159 
X93.1472 Y46.5448 
X93.2500 Y46.3909 
X93.3809 Y46.2600 
X93.5348 Y46.1572 
X93.7059 Y46.0863 
X93.8874 Y46.0502 
X94.0726 
X94.2541 Y46.0863 
X94.4252 Y46.1572 
X94.5791 Y46.2600 
X94.7100 Y46.3909 
X94.8128 Y46.5448 
X94.8837 Y46.7159 
X94.8998 Y46.7968 
X99.3557 
Y46.6673 
X99.3731 Y46.6253 
X99.4053 Y46.5931 
X99.4473 Y46.5757 
X100.6927 
X100.7347 Y46.5931 
X100.7669 Y46.6253 
X100.7843 Y46.6673 
Y47.3127 
X100.7669 Y47.3547 
X100.7347 Y47.3869 
X100.6927 Y47.4043 
X99.4473 
X99.4053 Y47.3869 
X99.3731 Y47.3547 
X99.3557 Y47.3127 
Y47.2032 
X94.8958 
X94.8837 Y47.2641 
X94.8128 Y47.4352 
X94.7100 Y47.5891 
X94.5791 Y47.7200 
X94.4252 Y47.8228 
X94.2541 Y47.8937 
X94.0726 Y47.9298 
X93.8874 
X93.7059 Y47.8937 
X93.5348 Y47.8228 
X93.3809 Y47.7200 
G00 Z2.5400  
G00 X93.3967 Y43.9840 
G01 Z-0.1778 F254   
G01 X93.2625 Y44.0815 F508   
G01 X93.1146 Y44.1569 
X92.9568 Y44.2081 
X92.7930 Y44.2341 
X92.6270 
X92.4632 Y44.2081 
X92.3054 Y44.1569 
X92.1575 Y44.0815 
X92.0233 Y43.9840 
X91.9060 Y43.8667 
X91.8085 Y43.7325 
X91.7331 Y43.5846 
X91.6819 Y43.4268 
X91.6559 Y43.2630 
Y43.0970 
X91.6819 Y42.9332 
X91.7331 Y42.7754 
X91.8085 Y42.6275 
X91.9060 Y42.4933 
X92.0233 Y42.3760 
X92.1575 Y42.2785 
X92.3054 Y42.2031 
X92.4632 Y42.1519 
X92.6270 Y42.1259 
X92.7930 
X92.9568 Y42.1519 
X93.1146 Y42.2031 
X93.2625 Y42.2785 
X93.3967 Y42.3760 
X93.5140 Y42.4933 
X93.6115 Y42.6275 
X93.6869 Y42.7754 
X93.7381 Y42.9332 
X93.7641 Y43.0970 
Y43.2630 
X93.7381 Y43.4268 
X93.6869 Y43.5846 
X93.6115 Y43.7325 
X93.5140 Y43.8667 
X93.3967 Y43.9840 
G00 Z2.5400  
G00 X93.3967 Y41.4440 
G01 Z-0.1778 F254   
G01 X93.2625 Y41.5415 F508   
G01 X93.1146 Y41.6169 
X92.9568 Y41.6681 
X92.7930 Y41.6941 
X92.6270 
X92.4632 Y41.6681 
X92.3054 Y41.6169 
X92.1575 Y41.5415 
X92.0233 Y41.4440 
X91.9060 Y41.3267 
X91.8085 Y41.1925 
X91.7331 Y41.0446 
X91.6819 Y40.8868 
X91.6559 Y40.7230 
Y40.5570 
X91.6819 Y40.3932 
X91.7331 Y40.2354 
X91.8085 Y40.0875 
X91.9060 Y39.9533 
X92.0233 Y39.8360 
X92.1575 Y39.7385 
X92.3054 Y39.6631 
X92.4632 Y39.6119 
X92.6270 Y39.5859 
X92.7930 
X92.9568 Y39.6119 
X93.1146 Y39.6631 
X93.2625 Y39.7385 
X93.3967 Y39.8360 
X93.5140 Y39.9533 
X93.6115 Y40.0875 
X93.6869 Y40.2354 
X93.7381 Y40.3932 
X93.7641 Y40.5570 
Y40.7230 
X93.7381 Y40.8868 
X93.6869 Y41.0446 
X93.6115 Y41.1925 
X93.5140 Y41.3267 
X93.3967 Y41.4440 
G00 Z2.5400  
G00 X93.3967 Y38.9040 
G01 Z-0.1778 F254   
G01 X93.2625 Y39.0015 F508   
G01 X93.1146 Y39.0769 
X92.9568 Y39.1281 
X92.7930 Y39.1541 
X92.6270 
X92.4632 Y39.1281 
X92.3054 Y39.0769 
X92.1575 Y39.0015 
X92.0233 Y38.9040 
X91.9060 Y38.7867 
X91.8085 Y38.6525 
X91.7331 Y38.5046 
X91.6819 Y38.3468 
X91.6559 Y38.1830 
Y38.0170 
X91.6819 Y37.8532 
X91.7331 Y37.6954 
X91.8085 Y37.5475 
X91.9060 Y37.4133 
X92.0233 Y37.2960 
X92.1575 Y37.1985 
X92.3054 Y37.1231 
X92.4632 Y37.0719 
X92.6270 Y37.0459 
X92.7930 
X92.9568 Y37.0719 
X93.1146 Y37.1231 
X93.2625 Y37.1985 
X93.3967 Y37.2960 
X93.5140 Y37.4133 
X93.6115 Y37.5475 
X93.6869 Y37.6954 
X93.7381 Y37.8532 
X93.7641 Y38.0170 
Y38.1830 
X93.7381 Y38.3468 
X93.6869 Y38.5046 
X93.6115 Y38.6525 
X93.5140 Y38.7867 
X93.3967 Y38.9040 
G00 Z2.5400  
G00 X99.3731 Y41.5453 
G01 Z-0.1778 F254   
G01 X99.4053 Y41.5131 F508   
G01 X99.4473 Y41.4957 
X100.6927 
X100.7347 Y41.5131 
X100.7669 Y41.5453 
X100.7843 Y41.5873 
Y42.2327 
X100.7669 Y42.2747 
X100.7347 Y42.3069 
X100.6927 Y42.3243 
X99.4473 
X99.4053 Y42.3069 
X99.3731 Y42.2747 
X99.3557 Y42.2327 
Y41.5873 
X99.3731 Y41.5453 
G00 Z2.5400  
G00 X99.3731 Y42.8153 
G01 Z-0.1778 F254   
G01 X99.4053 Y42.7831 F508   
G01 X99.4473 Y42.7657 
X100.6927 
X100.7347 Y42.7831 
X100.7669 Y42.8153 
X100.7843 Y42.8573 
Y43.5027 
X100.7669 Y43.5447 
X100.7347 Y43.5769 
X100.6927 Y43.5943 
X99.4473 
X99.4053 Y43.5769 
X99.3731 Y43.5447 
X99.3557 Y43.5027 
Y42.8573 
X99.3731 Y42.8153 
G00 Z2.5400  
G00 X99.3731 Y44.0853 
G01 Z-0.1778 F254   
G01 X99.4053 Y44.0531 F508   
G01 X99.4473 Y44.0357 
X100.6927 
X100.7347 Y44.0531 
X100.7669 Y44.0853 
X100.7843 Y44.1273 
Y44.7727 
X100.7669 Y44.8147 
X100.7347 Y44.8469 
X100.6927 Y44.8643 
X99.4473 
X99.4053 Y44.8469 
X99.3731 Y44.8147 
X99.3557 Y44.7727 
Y44.1273 
X99.3731 Y44.0853 
G00 Z2.5400  
G00 X99.3731 Y45.3553 
G01 Z-0.1778 F254   
G01 X99.4053 Y45.3231 F508   
G01 X99.4473 Y45.3057 
X100.6927 
X100.7347 Y45.3231 
X100.7669 Y45.3553 
X100.7843 Y45.3973 
Y46.0427 
X100.7669 Y46.0847 
X100.7347 Y46.1169 
X100.6927 Y46.1343 
X99.4473 
X99.4053 Y46.1169 
X99.3731 Y46.0847 
X99.3557 Y46.0427 
Y45.3973 
X99.3731 Y45.3553 
G00 Z2.5400  
G00 X99.3731 Y47.8953 
G01 Z-0.1778 F254   
G01 X99.4053 Y47.8631 F508   
G01 X99.4473 Y47.8457 
X100.6927 
X100.7347 Y47.8631 
X100.7669 Y47.8953 
X100.7843 Y47.9373 
Y48.5827 
X100.7669 Y48.6247 
X100.7347 Y48.6569 
X100.6927 Y48.6743 
X99.4473 
X99.4053 Y48.6569 
X99.3731 Y48.6247 
X99.3557 Y48.5827 
Y47.9373 
X99.3731 Y47.8953 
G00 Z2.5400  
G00 X99.3731 Y49.1653 
G01 Z-0.1778 F254   
G01 X99.4053 Y49.1331 F508   
G01 X99.4473 Y49.1157 
X100.6927 
X100.7347 Y49.1331 
X100.7669 Y49.1653 
X100.7843 Y49.2073 
Y49.8527 
X100.7669 Y49.8947 
X100.7347 Y49.9269 
X100.6927 Y49.9443 
X99.4473 
X99.4053 Y49.9269 
X99.3731 Y49.8947 
X99.3557 Y49.8527 
Y49.2073 
X99.3731 Y49.1653 
G00 Z2.5400  
G00 X104.9731 Y49.1653 
G01 Z-0.1778 F254   
G01 X105.0053 Y49.1331 F508   
G01 X105.0473 Y49.1157 
X106.2927 
X106.3347 Y49.1331 
X106.3669 Y49.1653 
X106.3843 Y49.2073 
Y49.8527 
X106.3669 Y49.8947 
X106.3347 Y49.9269 
X106.2927 Y49.9443 
X105.0473 
X105.0053 Y49.9269 
X104.9731 Y49.8947 
X104.9557 Y49.8527 
Y49.2073 
X104.9731 Y49.1653 
G00 Z2.5400  
G00 X105.0053 Y48.6569 
G01 Z-0.1778 F254   
G01 X104.9731 Y48.6247 F508   
G01 X104.9557 Y48.5827 
Y47.9373 
X104.9731 Y47.8953 
X105.0053 Y47.8631 
X105.0473 Y47.8457 
X106.2927 
X106.3347 Y47.8631 
X106.3669 Y47.8953 
X106.3843 Y47.9373 
Y48.5827 
X106.3669 Y48.6247 
X106.3347 Y48.6569 
X106.2927 Y48.6743 
X105.0473 
X105.0053 Y48.6569 
G00 Z2.5400  
G00 X105.0053 Y47.3869 
G01 Z-0.1778 F254   
G01 X104.9731 Y47.3547 F508   
G01 X104.9557 Y47.3127 
Y46.6673 
X104.9731 Y46.6253 
X105.0053 Y46.5931 
X105.0473 Y46.5757 
X106.2927 
X106.3347 Y46.5931 
X106.3669 Y46.6253 
X106.3843 Y46.6673 
Y47.3127 
X106.3669 Y47.3547 
X106.3347 Y47.3869 
X106.2927 Y47.4043 
X105.0473 
X105.0053 Y47.3869 
G00 Z2.5400  
G00 X105.0053 Y46.1169 
G01 Z-0.1778 F254   
G01 X104.9731 Y46.0847 F508   
G01 X104.9557 Y46.0427 
Y45.3973 
X104.9731 Y45.3553 
X105.0053 Y45.3231 
X105.0473 Y45.3057 
X106.2927 
X106.3347 Y45.3231 
X106.3669 Y45.3553 
X106.3843 Y45.3973 
Y46.0427 
X106.3669 Y46.0847 
X106.3347 Y46.1169 
X106.2927 Y46.1343 
X105.0473 
X105.0053 Y46.1169 
G00 Z2.5400  
G00 X105.0053 Y44.8469 
G01 Z-0.1778 F254   
G01 X104.9731 Y44.8147 F508   
G01 X104.9557 Y44.7727 
Y44.1273 
X104.9731 Y44.0853 
X105.0053 Y44.0531 
X105.0473 Y44.0357 
X106.2927 
X106.3347 Y44.0531 
X106.3669 Y44.0853 
X106.3843 Y44.1273 
Y44.7727 
X106.3669 Y44.8147 
X106.3347 Y44.8469 
X106.2927 Y44.8643 
X105.0473 
X105.0053 Y44.8469 
G00 Z2.5400  
G00 X105.0053 Y43.5769 
G01 Z-0.1778 F254   
G01 X104.9731 Y43.5447 F508   
G01 X104.9557 Y43.5027 
Y42.8573 
X104.9731 Y42.8153 
X105.0053 Y42.7831 
X105.0473 Y42.7657 
X106.2927 
X106.3347 Y42.7831 
X106.3669 Y42.8153 
X106.3843 Y42.8573 
Y43.5027 
X106.3669 Y43.5447 
X106.3347 Y43.5769 
X106.2927 Y43.5943 
X105.0473 
X105.0053 Y43.5769 
G00 Z2.5400  
G00 X105.0053 Y42.3069 
G01 Z-0.1778 F254   
G01 X104.9731 Y42.2747 F508   
G01 X104.9557 Y42.2327 
Y41.5873 
X104.9731 Y41.5453 
X105.0053 Y41.5131 
X105.0473 Y41.4957 
X106.2927 
X106.3347 Y41.5131 
X106.3669 Y41.5453 
X106.3843 Y41.5873 
Y42.2327 
X106.3669 Y42.2747 
X106.3347 Y42.3069 
X106.2927 Y42.3243 
X105.0473 
X105.0053 Y42.3069 
G00 Z2.5400  
G00 X105.0053 Y50.4031 
G01 Z-0.1778 F254   
G01 X105.0473 Y50.3857 F508   
G01 X105.5998 Y50.3857 
X105.6237 Y50.3798 
X105.7341 
X105.7462 Y50.3857 
X106.2927 
X106.3347 Y50.4031 
X106.3669 Y50.4353 
X106.3843 Y50.4773 
Y50.5809 
X106.8264 
X107.6646 Y49.7427 
X107.7427 Y49.6646 
X107.8382 Y49.6095 
X107.9448 Y49.5809 
X108.0552 
X108.1618 Y49.6095 
X108.2573 Y49.6646 
X108.3354 Y49.7427 
X108.3905 Y49.8382 
X108.4191 Y49.9448 
Y50.0552 
X108.3905 Y50.1618 
X108.3354 Y50.2573 
X108.2573 Y50.3354 
X107.2573 Y51.3354 
X107.1618 Y51.3905 
X107.0552 Y51.4191 
X106.0506 
X106.0463 
X105.9956 
X105.9448 
X105.9404 
X105.9359 
X105.8872 Y51.4037 
X105.8382 Y51.3905 
X105.8343 
X105.8300 
X105.7866 Y51.3607 
X105.7427 Y51.3354 
X105.7395 Y51.3322 
X105.5450 Y51.2143 
X105.0473 
X105.0053 Y51.1969 
X104.9731 Y51.1647 
X104.9557 Y51.1227 
Y50.4773 
X104.9731 Y50.4353 
X105.0053 Y50.4031 
G00 Z2.5400  
G00 X109.6663 Y50.3745 
G01 Z-0.1778 F254   
G01 X109.6387 Y50.2357 F508   
G01 X109.6387 Y50.0943 
X109.6663 Y49.9555 
X109.7204 Y49.8248 
X109.7991 Y49.7071 
X109.8991 Y49.6071 
X110.0168 Y49.5284 
X110.1475 Y49.4743 
X110.2862 Y49.4467 
X111.6357 
X111.7745 Y49.4743 
X111.9052 Y49.5284 
X112.0229 Y49.6071 
X112.1229 Y49.7071 
X112.2015 Y49.8248 
X112.2557 Y49.9555 
X112.2833 Y50.0943 
Y50.2357 
X112.2557 Y50.3745 
X112.2015 Y50.5052 
X112.1229 Y50.6229 
X112.0229 Y50.7229 
X111.9052 Y50.8015 
X111.7745 Y50.8557 
X111.6357 Y50.8833 
X110.2862 
X110.1475 Y50.8557 
X110.0168 Y50.8015 
X109.8991 Y50.7229 
X109.7991 Y50.6229 
X109.7204 Y50.5052 
X109.6663 Y50.3745 
G00 Z2.5400  
G00 X109.7991 Y51.3071 
G01 Z-0.1778 F254   
G01 X109.8991 Y51.2071 F508   
G01 X110.0168 Y51.1285 
X110.1475 Y51.0743 
X110.2862 Y51.0467 
X111.6357 
X111.7745 Y51.0743 
X111.9052 Y51.1285 
X112.0229 Y51.2071 
X112.1229 Y51.3071 
X112.2015 Y51.4248 
X112.2557 Y51.5555 
X112.2833 Y51.6942 
Y51.8357 
X112.2557 Y51.9745 
X112.2015 Y52.1052 
X112.1229 Y52.2229 
X112.0229 Y52.3229 
X111.9052 Y52.4015 
X111.7745 Y52.4557 
X111.6357 Y52.4833 
X110.2862 
X110.1475 Y52.4557 
X110.0168 Y52.4015 
X109.8991 Y52.3229 
X109.7991 Y52.2229 
X109.7204 Y52.1052 
X109.6663 Y51.9745 
X109.6387 Y51.8357 
Y51.6942 
X109.6663 Y51.5555 
X109.7204 Y51.4248 
X109.7991 Y51.3071 
G00 Z2.5400  
G00 X109.8991 Y49.1229 
G01 Z-0.1778 F254   
G01 X109.7991 Y49.0229 F508   
G01 X109.7204 Y48.9052 
X109.6663 Y48.7745 
X109.6387 Y48.6357 
Y48.4943 
X109.6663 Y48.3555 
X109.7204 Y48.2248 
X109.7991 Y48.1071 
X109.8991 Y48.0071 
X110.0168 Y47.9284 
X110.1475 Y47.8743 
X110.2862 Y47.8467 
X111.6357 
X111.7745 Y47.8743 
X111.9052 Y47.9284 
X112.0229 Y48.0071 
X112.1229 Y48.1071 
X112.2015 Y48.2248 
X112.2557 Y48.3555 
X112.2833 Y48.4943 
Y48.6357 
X112.2557 Y48.7745 
X112.2015 Y48.9052 
X112.1229 Y49.0229 
X112.0229 Y49.1229 
X111.9052 Y49.2015 
X111.7745 Y49.2557 
X111.6357 Y49.2833 
X110.2862 
X110.1475 Y49.2557 
X110.0168 Y49.2015 
X109.8991 Y49.1229 
G00 Z2.5400  
G00 X112.1743 Y49.1555 
G01 Z-0.1778 F254   
G01 X112.2284 Y49.0248 F508   
G01 X112.3071 Y48.9071 
X112.4071 Y48.8071 
X112.5248 Y48.7285 
X112.6555 Y48.6743 
X112.7943 Y48.6467 
X114.1437 
X114.2825 Y48.6743 
X114.4132 Y48.7285 
X114.5309 Y48.8071 
X114.6309 Y48.9071 
X114.7095 Y49.0248 
X114.7637 Y49.1555 
X114.7913 Y49.2942 
Y49.4357 
X114.7637 Y49.5745 
X114.7095 Y49.7052 
X114.6309 Y49.8229 
X114.5309 Y49.9229 
X114.4132 Y50.0015 
X114.2825 Y50.0557 
X114.1437 Y50.0833 
X112.7943 
X112.6555 Y50.0557 
X112.5248 Y50.0015 
X112.4071 Y49.9229 
X112.3071 Y49.8229 
X112.2284 Y49.7052 
X112.1743 Y49.5745 
X112.1467 Y49.4357 
Y49.2942 
X112.1743 Y49.1555 
G00 Z2.5400  
G00 X112.3071 Y50.5071 
G01 Z-0.1778 F254   
G01 X112.4071 Y50.4071 F508   
G01 X112.5248 Y50.3284 
X112.6555 Y50.2743 
X112.7943 Y50.2467 
X114.1437 
X114.2825 Y50.2743 
X114.4132 Y50.3284 
X114.5309 Y50.4071 
X114.6309 Y50.5071 
X114.7095 Y50.6248 
X114.7637 Y50.7555 
X114.7913 Y50.8942 
Y51.0357 
X114.7637 Y51.1745 
X114.7095 Y51.3052 
X114.6309 Y51.4229 
X114.5309 Y51.5229 
X114.4132 Y51.6015 
X114.2825 Y51.6557 
X114.1437 Y51.6833 
X112.7943 
X112.6555 Y51.6557 
X112.5248 Y51.6015 
X112.4071 Y51.5229 
X112.3071 Y51.4229 
X112.2284 Y51.3052 
X112.1743 Y51.1745 
X112.1467 Y51.0357 
Y50.8942 
X112.1743 Y50.7555 
X112.2284 Y50.6248 
X112.3071 Y50.5071 
G00 Z2.5400  
G00 X115.1936 Y52.4807 
G01 Z-0.1778 F254   
G01 X115.3807 Y52.2936 F508   
G01 X115.5907 Y52.1324 
X115.8200 Y52.0001 
X116.0645 Y51.8988 
X116.3202 Y51.8302 
X116.5826 Y51.7957 
X116.8474 
X117.1098 Y51.8302 
X117.3655 Y51.8988 
X117.6100 Y52.0001 
X117.8393 Y52.1324 
X118.0493 Y52.2936 
X118.2364 Y52.4807 
X118.3976 Y52.6907 
X118.5299 Y52.9200 
X118.6312 Y53.1645 
X118.6997 Y53.4202 
X118.7343 Y53.6826 
Y53.9474 
X118.6997 Y54.2098 
X118.6312 Y54.4655 
X118.5299 Y54.7100 
X118.3976 Y54.9393 
X118.2364 Y55.1493 
X118.0493 Y55.3364 
X117.8393 Y55.4976 
X117.6100 Y55.6299 
X117.3655 Y55.7312 
X117.1098 Y55.7997 
X116.8474 Y55.8343 
X116.5826 
X116.3202 Y55.7997 
X116.0645 Y55.7312 
X115.8200 Y55.6299 
X115.5907 Y55.4976 
X115.3807 Y55.3364 
X115.1936 Y55.1493 
X115.0324 Y54.9393 
X114.9001 Y54.7100 
X114.7988 Y54.4655 
X114.7302 Y54.2098 
X114.6957 Y53.9474 
Y53.6826 
X114.7302 Y53.4202 
X114.7988 Y53.1645 
X114.9001 Y52.9200 
X115.0324 Y52.6907 
X115.1936 Y52.4807 
G00 Z2.5400  
G00 X115.3807 Y48.0364 
G01 Z-0.1778 F254   
G01 X115.1936 Y47.8493 F508   
G01 X115.0324 Y47.6393 
X114.9001 Y47.4100 
X114.7988 Y47.1655 
X114.7302 Y46.9098 
X114.6957 Y46.6474 
Y46.3826 
X114.7302 Y46.1202 
X114.7988 Y45.8645 
X114.9001 Y45.6200 
X115.0324 Y45.3907 
X115.1936 Y45.1807 
X115.3807 Y44.9936 
X115.5907 Y44.8324 
X115.8200 Y44.7001 
X116.0645 Y44.5988 
X116.3202 Y44.5303 
X116.5826 Y44.4957 
X116.8474 
X117.1098 Y44.5303 
X117.3655 Y44.5988 
X117.6100 Y44.7001 
X117.8393 Y44.8324 
X118.0493 Y44.9936 
X118.2364 Y45.1807 
X118.3976 Y45.3907 
X118.5299 Y45.6200 
X118.6312 Y45.8645 
X118.6997 Y46.1202 
X118.7343 Y46.3826 
Y46.6474 
X118.6997 Y46.9098 
X118.6312 Y47.1655 
X118.5299 Y47.4100 
X118.3976 Y47.6393 
X118.2364 Y47.8493 
X118.0493 Y48.0364 
X117.8393 Y48.1976 
X117.6100 Y48.3299 
X117.3655 Y48.4312 
X117.1098 Y48.4997 
X116.8474 Y48.5343 
X116.5826 
X116.3202 Y48.4997 
X116.0645 Y48.4312 
X115.8200 Y48.3299 
X115.5907 Y48.1976 
X115.3807 Y48.0364 
G00 Z2.5400  
G00 X116.9591 Y69.1404 
G01 Z-0.1778 F254   
G01 X117.0804 Y69.0191 F508   
G01 X117.2191 Y68.9183 
X117.3719 Y68.8405 
X117.5349 Y68.7875 
X117.7043 Y68.7607 
X117.8757 
X118.0451 Y68.7875 
X118.2081 Y68.8405 
X118.3609 Y68.9183 
X118.4996 Y69.0191 
X118.6209 Y69.1404 
X118.7216 Y69.2791 
X118.7995 Y69.4319 
X118.8525 Y69.5949 
X118.8793 Y69.7643 
Y69.9357 
X118.8525 Y70.1051 
X118.7995 Y70.2681 
X118.7216 Y70.4209 
X118.6209 Y70.5596 
X118.4996 Y70.6809 
X118.3609 Y70.7816 
X118.2081 Y70.8595 
X118.0451 Y70.9125 
X117.8757 Y70.9393 
X117.7043 
X117.5349 Y70.9125 
X117.3719 Y70.8595 
X117.2191 Y70.7816 
X117.0804 Y70.6809 
X116.9591 Y70.5596 
X116.8583 Y70.4209 
X116.7805 Y70.2681 
X116.7275 Y70.1051 
X116.7007 Y69.9357 
Y69.7643 
X116.7275 Y69.5949 
X116.7805 Y69.4319 
X116.8583 Y69.2791 
X116.9591 Y69.1404 
G00 Z2.5400  
G00 X116.9757 Y81.5702 
G01 Z-0.1778 F254   
G01 X117.1192 Y81.6661 F508   
G01 X117.2413 Y81.7882 
X117.3372 Y81.9317 
X117.4032 Y82.0912 
X117.4369 Y82.2605 
Y83.9571 
X117.4191 Y84.0466 
Y88.6734 
X117.4369 Y88.7629 
Y90.4595 
X117.4032 Y90.6288 
X117.3372 Y90.7883 
X117.2413 Y90.9318 
X117.1192 Y91.0539 
X116.9757 Y91.1498 
X116.8162 Y91.2158 
X116.6469 Y91.2495 
X116.4743 
X116.3050 Y91.2158 
X116.1455 Y91.1498 
X116.0020 Y91.0539 
X115.8799 Y90.9318 
X115.7840 Y90.7883 
X115.7180 Y90.6288 
X115.6843 Y90.4595 
Y88.7629 
X115.7180 Y88.5936 
X115.7840 Y88.4341 
X115.8799 Y88.2906 
X116.0020 Y88.1685 
X116.1455 Y88.0726 
X116.3050 Y88.0066 
X116.4743 Y87.9729 
X116.5809 
Y84.7471 
X116.4743 
X116.3050 Y84.7134 
X116.1455 Y84.6474 
X116.0020 Y84.5515 
X115.8799 Y84.4294 
X115.7840 Y84.2859 
X115.7180 Y84.1264 
X115.6843 Y83.9571 
Y82.2605 
X115.7180 Y82.0912 
X115.7840 Y81.9317 
X115.8799 Y81.7882 
X116.0020 Y81.6661 
X116.1455 Y81.5702 
X116.3050 Y81.5042 
X116.4743 Y81.4705 
X116.6469 
X116.8162 Y81.5042 
X116.9757 Y81.5702 
G00 Z2.5400  
G00 X112.5980 Y81.6661 
G01 Z-0.1778 F254   
G01 X112.7201 Y81.7882 F508   
G01 X112.8160 Y81.9317 
X112.8820 Y82.0912 
X112.9157 Y82.2605 
Y83.9571 
X112.8820 Y84.1264 
X112.8160 Y84.2859 
X112.7201 Y84.4294 
X112.5980 Y84.5515 
X112.4545 Y84.6474 
X112.2950 Y84.7134 
X112.2032 Y84.7317 
Y87.9883 
X112.2950 Y88.0066 
X112.4545 Y88.0726 
X112.5980 Y88.1685 
X112.7201 Y88.2906 
X112.8160 Y88.4341 
X112.8820 Y88.5936 
X112.9157 Y88.7629 
Y90.4595 
X112.8820 Y90.6288 
X112.8160 Y90.7883 
X112.7201 Y90.9318 
X112.5980 Y91.0539 
X112.4545 Y91.1498 
X112.2950 Y91.2158 
X112.1257 Y91.2495 
X111.9531 
X111.7838 Y91.2158 
X111.6243 Y91.1498 
X111.4808 Y91.0539 
X111.3587 Y90.9318 
X111.2628 Y90.7883 
X111.1968 Y90.6288 
X111.1631 Y90.4595 
Y88.7629 
X111.1968 Y88.5936 
X111.2628 Y88.4341 
X111.3587 Y88.2906 
X111.4808 Y88.1685 
X111.6243 Y88.0726 
X111.7838 Y88.0066 
X111.7968 Y88.0040 
Y84.7160 
X111.7838 Y84.7134 
X111.6243 Y84.6474 
X111.4808 Y84.5515 
X111.3587 Y84.4294 
X111.2628 Y84.2859 
X111.1968 Y84.1264 
X111.1631 Y83.9571 
Y82.4505 
X108.9158 Y80.2032 
X95.0842 
X93.1723 Y82.1151 
X93.1151 Y82.1723 
X93.0404 Y82.2032 
X90.9596 
X90.8849 Y82.1723 
X90.6291 Y81.9165 
X90.4909 Y82.0547 
X89.8491 
X89.3953 Y81.6009 
Y80.9591 
X89.8491 Y80.5053 
X90.4909 
X90.9447 Y80.9591 
Y81.6009 
X90.9165 Y81.6291 
X91.0842 Y81.7968 
X92.9158 
X94.8849 Y79.8277 
X94.9596 Y79.7968 
X109.0404 
X109.1151 Y79.8277 
X109.1723 Y79.8849 
X111.2500 Y81.9627 
X111.2628 Y81.9317 
X111.3587 Y81.7882 
X111.4808 Y81.6661 
X111.6243 Y81.5702 
X111.7838 Y81.5042 
X111.9531 Y81.4705 
X112.1257 
X112.2950 Y81.5042 
X112.4545 Y81.5702 
X112.5980 Y81.6661 
G00 Z2.5400  
G00 X109.4992 Y81.6661 
G01 Z-0.1778 F254   
G01 X109.6213 Y81.7882 F508   
G01 X109.7172 Y81.9317 
X109.7832 Y82.0912 
X109.8169 Y82.2605 
Y83.9571 
X109.7832 Y84.1264 
X109.7172 Y84.2859 
X109.6213 Y84.4294 
X109.4992 Y84.5515 
X109.3557 Y84.6474 
X109.2032 Y84.7105 
Y88.0095 
X109.3557 Y88.0726 
X109.4992 Y88.1685 
X109.6213 Y88.2906 
X109.7172 Y88.4341 
X109.7832 Y88.5936 
X109.8169 Y88.7629 
Y90.4595 
X109.7832 Y90.6288 
X109.7172 Y90.7883 
X109.6213 Y90.9318 
X109.4992 Y91.0539 
X109.3557 Y91.1498 
X109.1962 Y91.2158 
X109.0406 Y91.2468 
X106.1847 Y94.1027 
Y94.3009 
X105.7309 Y94.7547 
X105.0891 
X104.6353 Y94.3009 
Y93.6591 
X105.0891 Y93.2053 
X105.7309 
X106.1191 Y93.5935 
X108.5519 Y91.1607 
X108.5255 Y91.1498 
X108.3820 Y91.0539 
X108.2599 Y90.9318 
X108.1640 Y90.7883 
X108.0980 Y90.6288 
X108.0643 Y90.4595 
Y88.7629 
X108.0980 Y88.5936 
X108.1640 Y88.4341 
X108.2599 Y88.2906 
X108.3820 Y88.1685 
X108.5255 Y88.0726 
X108.6850 Y88.0066 
X108.7968 Y87.9843 
Y84.7357 
X108.6850 Y84.7134 
X108.5255 Y84.6474 
X108.3820 Y84.5515 
X108.2599 Y84.4294 
X108.1640 Y84.2859 
X108.0980 Y84.1264 
X108.0643 Y83.9571 
Y82.2605 
X108.0980 Y82.0912 
X108.1640 Y81.9317 
X108.2599 Y81.7882 
X108.3820 Y81.6661 
X108.5255 Y81.5702 
X108.6850 Y81.5042 
X108.8543 Y81.4705 
X109.0269 
X109.1962 Y81.5042 
X109.3557 Y81.5702 
X109.4992 Y81.6661 
G00 Z2.5400  
G00 X104.9780 Y81.6661 
G01 Z-0.1778 F254   
G01 X105.1001 Y81.7882 F508   
G01 X105.1960 Y81.9317 
X105.2620 Y82.0912 
X105.2957 Y82.2605 
Y83.9571 
X105.2620 Y84.1264 
X105.1960 Y84.2859 
X105.1001 Y84.4294 
X104.9780 Y84.5515 
X104.8345 Y84.6474 
X104.6750 Y84.7134 
X104.5057 Y84.7471 
X104.3331 
X104.1638 Y84.7134 
X104.0043 Y84.6474 
X103.8608 Y84.5515 
X103.7387 Y84.4294 
X103.6428 Y84.2859 
X103.5768 Y84.1264 
X103.5431 Y83.9571 
Y83.4191 
X102.1969 
Y83.5670 
X102.3162 Y83.7235 
X102.3354 Y83.7427 
X102.3495 Y83.7672 
X102.3667 Y83.7898 
X102.3770 Y83.8148 
X102.3905 Y83.8382 
X102.3979 Y83.8656 
X102.4087 Y83.8919 
X102.4121 Y83.9187 
X102.4191 Y83.9448 
Y83.9732 
X102.4227 Y84.0013 
X102.4191 Y84.0281 
Y88.9560 
Y88.9670 
Y89.0111 
Y89.0552 
X102.4162 Y89.0660 
Y89.0772 
X102.4020 Y89.1191 
X102.3905 Y89.1618 
X102.3849 Y89.1715 
X102.3815 Y89.1821 
X102.3574 Y89.2191 
X102.3354 Y89.2573 
X102.3274 Y89.2653 
X102.3213 Y89.2747 
X102.2885 Y89.3042 
X102.2573 Y89.3354 
X102.2476 Y89.3410 
X102.1969 Y89.3866 
Y89.5809 
X103.5431 
Y88.7629 
X103.5768 Y88.5936 
X103.6428 Y88.4341 
X103.7387 Y88.2906 
X103.8608 Y88.1685 
X104.0043 Y88.0726 
X104.1638 Y88.0066 
X104.3331 Y87.9729 
X104.5057 
X104.6750 Y88.0066 
X104.8345 Y88.0726 
X104.9780 Y88.1685 
X105.1001 Y88.2906 
X105.1960 Y88.4341 
X105.2620 Y88.5936 
X105.2957 Y88.7629 
Y90.4595 
X105.2620 Y90.6288 
X105.1960 Y90.7883 
X105.1001 Y90.9318 
X104.9780 Y91.0539 
X104.8345 Y91.1498 
X104.6750 Y91.2158 
X104.5057 Y91.2495 
X104.3331 
X104.1638 Y91.2158 
X104.0043 Y91.1498 
X103.8608 Y91.0539 
X103.7387 Y90.9318 
X103.6428 Y90.7883 
X103.5768 Y90.6288 
X103.5431 Y90.4595 
Y90.4191 
X102.1969 
Y90.4595 
X102.1632 Y90.6288 
X102.0972 Y90.7883 
X102.0013 Y90.9318 
X101.8792 Y91.0539 
X101.7357 Y91.1498 
X101.5762 Y91.2158 
X101.4069 Y91.2495 
X101.2343 
X101.0650 Y91.2158 
X100.9055 Y91.1498 
X100.7620 Y91.0539 
X100.6399 Y90.9318 
X100.5440 Y90.7883 
X100.4780 Y90.6288 
X100.4443 Y90.4595 
Y88.7629 
X100.4780 Y88.5936 
X100.5440 Y88.4341 
X100.6399 Y88.2906 
X100.7620 Y88.1685 
X100.9055 Y88.0726 
X101.0650 Y88.0066 
X101.2343 Y87.9729 
X101.4069 
X101.5762 Y88.0066 
X101.5809 
Y84.7115 
X101.5762 
X101.4069 Y84.7471 
X101.2343 
X101.0650 Y84.7134 
X100.9055 Y84.6474 
X100.7620 Y84.5515 
X100.6399 Y84.4294 
X100.5440 Y84.2859 
X100.4780 Y84.1264 
X100.4443 Y83.9571 
Y82.2605 
X100.4780 Y82.0912 
X100.5440 Y81.9317 
X100.6399 Y81.7882 
X100.7620 Y81.6661 
X100.9055 Y81.5702 
X101.0650 Y81.5042 
X101.2343 Y81.4705 
X101.4069 
X101.5762 Y81.5042 
X101.7357 Y81.5702 
X101.8792 Y81.6661 
X102.0013 Y81.7882 
X102.0972 Y81.9317 
X102.1632 Y82.0912 
X102.1969 Y82.2605 
Y82.5809 
X103.5431 
Y82.2605 
X103.5768 Y82.0912 
X103.6428 Y81.9317 
X103.7387 Y81.7882 
X103.8608 Y81.6661 
X104.0043 Y81.5702 
X104.1638 Y81.5042 
X104.3331 Y81.4705 
X104.5057 
X104.6750 Y81.5042 
X104.8345 Y81.5702 
X104.9780 Y81.6661 
G00 Z2.5400  
G00 X97.3580 Y81.6661 
G01 Z-0.1778 F254   
G01 X97.4801 Y81.7882 F508   
G01 X97.5760 Y81.9317 
X97.6420 Y82.0912 
X97.6757 Y82.2605 
Y83.9571 
X97.6420 Y84.1264 
X97.5760 Y84.2859 
X97.4801 Y84.4294 
X97.3580 Y84.5515 
X97.2145 Y84.6474 
X97.2032 Y84.6520 
Y88.0680 
X97.2145 Y88.0726 
X97.3580 Y88.1685 
X97.4801 Y88.2906 
X97.5760 Y88.4341 
X97.6420 Y88.5936 
X97.6757 Y88.7629 
Y90.4595 
X97.6420 Y90.6288 
X97.5760 Y90.7883 
X97.4801 Y90.9318 
X97.3580 Y91.0539 
X97.2145 Y91.1498 
X97.0550 Y91.2158 
X96.8857 Y91.2495 
X96.7131 
X96.5438 Y91.2158 
X96.3843 Y91.1498 
X96.2408 Y91.0539 
X96.2371 Y91.0502 
X94.2874 Y93.0000 
X94.7109 Y93.4235 
X94.9291 Y93.2053 
X95.5709 
X96.0247 Y93.6591 
Y94.3009 
X95.5709 Y94.7547 
X94.9291 
X94.4753 Y94.3009 
Y93.7627 
X93.8849 Y93.1723 
X93.8277 Y93.1151 
X92.9158 Y92.2032 
X90.5024 
X90.4909 Y92.2147 
X89.8491 
X89.3953 Y91.7609 
Y91.1191 
X89.8491 Y90.6653 
X90.4909 
X90.9447 Y91.1191 
Y91.7609 
X90.9088 Y91.7968 
X93.0404 
X93.1151 Y91.8277 
X94.0000 Y92.7126 
X95.9940 Y90.7186 
X95.9568 Y90.6288 
X95.9231 Y90.4595 
Y88.7629 
X95.9568 Y88.5936 
X96.0228 Y88.4341 
X96.1187 Y88.2906 
X96.2408 Y88.1685 
X96.3843 Y88.0726 
X96.5438 Y88.0066 
X96.7131 Y87.9729 
X96.7968 
Y84.7471 
X96.7131 
X96.5438 Y84.7134 
X96.3843 Y84.6474 
X96.2408 Y84.5515 
X96.1187 Y84.4294 
X96.0228 Y84.2859 
X95.9568 Y84.1264 
X95.9231 Y83.9571 
Y82.2605 
X95.9568 Y82.0912 
X96.0228 Y81.9317 
X96.1187 Y81.7882 
X96.2408 Y81.6661 
X96.3843 Y81.5702 
X96.5438 Y81.5042 
X96.7131 Y81.4705 
X96.8857 
X97.0550 Y81.5042 
X97.2145 Y81.5702 
X97.3580 Y81.6661 
G00 Z2.5400  
G00 X94.5046 Y78.8679 
G01 Z-0.1778 F254   
G01 X94.3873 Y78.9852 F508   
G01 X94.2531 Y79.0827 
X94.1052 Y79.1581 
X93.9474 Y79.2093 
X93.7836 Y79.2353 
X93.6176 
X93.4538 Y79.2093 
X93.2960 Y79.1581 
X93.1481 Y79.0827 
X93.0139 Y78.9852 
X92.8966 Y78.8679 
X92.7991 Y78.7337 
X92.7237 Y78.5858 
X92.6725 Y78.4280 
X92.6465 Y78.2642 
Y78.0982 
X92.6725 Y77.9344 
X92.7237 Y77.7766 
X92.7991 Y77.6287 
X92.8966 Y77.4945 
X93.0139 Y77.3772 
X93.1481 Y77.2797 
X93.2960 Y77.2043 
X93.4538 Y77.1531 
X93.6176 Y77.1271 
X93.7836 
X93.9474 Y77.1531 
X94.1052 Y77.2043 
X94.2531 Y77.2797 
X94.3873 Y77.3772 
X94.5046 Y77.4945 
X94.6021 Y77.6287 
X94.6775 Y77.7766 
X94.7287 Y77.9344 
X94.7547 Y78.0982 
Y78.2642 
X94.7287 Y78.4280 
X94.6775 Y78.5858 
X94.6021 Y78.7337 
X94.5046 Y78.8679 
G00 Z2.5400  
G00 X94.5046 Y72.3655 
G01 Z-0.1778 F254   
G01 X94.3873 Y72.4828 F508   
G01 X94.2531 Y72.5803 
X94.1052 Y72.6557 
X93.9474 Y72.7069 
X93.7836 Y72.7329 
X93.6176 
X93.4538 Y72.7069 
X93.2960 Y72.6557 
X93.1481 Y72.5803 
X93.0139 Y72.4828 
X92.8966 Y72.3655 
X92.7991 Y72.2313 
X92.7237 Y72.0834 
X92.6725 Y71.9256 
X92.6465 Y71.7618 
Y71.5958 
X92.6725 Y71.4320 
X92.7237 Y71.2742 
X92.7991 Y71.1263 
X92.8966 Y70.9921 
X93.0139 Y70.8748 
X93.1481 Y70.7773 
X93.2960 Y70.7019 
X93.4538 Y70.6507 
X93.6176 Y70.6247 
X93.7836 
X93.9474 Y70.6507 
X94.1052 Y70.7019 
X94.2531 Y70.7773 
X94.3873 Y70.8748 
X94.5046 Y70.9921 
X94.6021 Y71.1263 
X94.6775 Y71.2742 
X94.7287 Y71.4320 
X94.7547 Y71.5958 
Y71.7618 
X94.7287 Y71.9256 
X94.6775 Y72.0834 
X94.6021 Y72.2313 
X94.5046 Y72.3655 
G00 Z2.5400  
G00 X97.0804 Y70.6809 
G01 Z-0.1778 F254   
G01 X96.9591 Y70.5596 F508   
G01 X96.8583 Y70.4209 
X96.7805 Y70.2681 
X96.7275 Y70.1051 
X96.7007 Y69.9357 
Y69.7643 
X96.7275 Y69.5949 
X96.7805 Y69.4319 
X96.8583 Y69.2791 
X96.9591 Y69.1404 
X97.0804 Y69.0191 
X97.2191 Y68.9183 
X97.3719 Y68.8405 
X97.5349 Y68.7875 
X97.7043 Y68.7607 
X97.8757 
X98.0451 Y68.7875 
X98.2081 Y68.8405 
X98.3609 Y68.9183 
X98.4996 Y69.0191 
X98.6209 Y69.1404 
X98.7216 Y69.2791 
X98.7995 Y69.4319 
X98.8525 Y69.5949 
X98.8793 Y69.7643 
Y69.9357 
X98.8525 Y70.1051 
X98.7995 Y70.2681 
X98.7216 Y70.4209 
X98.6209 Y70.5596 
X98.4996 Y70.6809 
X98.3609 Y70.7816 
X98.2081 Y70.8595 
X98.0451 Y70.9125 
X97.8757 Y70.9393 
X97.7043 
X97.5349 Y70.9125 
X97.3719 Y70.8595 
X97.2191 Y70.7816 
X97.0804 Y70.6809 
G00 Z2.5400  
G00 X95.2421 Y66.5338 
G01 Z-0.1778 F254   
G01 X95.1342 Y66.6417 F508   
G01 X95.0074 Y66.7265 
X94.8664 Y66.7849 
X94.7167 Y66.8147 
X93.2433 
X93.0936 Y66.7849 
X92.9526 Y66.7265 
X92.8258 Y66.6417 
X92.7178 Y66.5338 
X92.6331 Y66.4070 
X92.5747 Y66.2660 
X92.5449 Y66.1163 
Y65.9637 
X92.5747 Y65.8140 
X92.6331 Y65.6730 
X92.7178 Y65.5462 
X92.8258 Y65.4382 
X92.9526 Y65.3535 
X93.0936 Y65.2951 
X93.2433 Y65.2653 
X94.7167 
X94.8664 Y65.2951 
X95.0074 Y65.3535 
X95.1342 Y65.4382 
X95.2421 Y65.5462 
X95.3269 Y65.6730 
X95.3853 Y65.8140 
X95.4151 Y65.9637 
Y66.1163 
X95.3853 Y66.2660 
X95.3269 Y66.4070 
X95.2421 Y66.5338 
G00 Z2.5400  
G00 X95.2421 Y63.9938 
G01 Z-0.1778 F254   
G01 X95.1342 Y64.1017 F508   
G01 X95.0074 Y64.1865 
X94.8664 Y64.2449 
X94.7167 Y64.2747 
X93.2433 
X93.0936 Y64.2449 
X92.9526 Y64.1865 
X92.8258 Y64.1017 
X92.7178 Y63.9938 
X92.6331 Y63.8670 
X92.5747 Y63.7260 
X92.5449 Y63.5763 
Y63.4237 
X92.5747 Y63.2740 
X92.6331 Y63.1330 
X92.7178 Y63.0062 
X92.8258 Y62.8982 
X92.9526 Y62.8135 
X93.0936 Y62.7551 
X93.2433 Y62.7253 
X94.7167 
X94.8664 Y62.7551 
X95.0074 Y62.8135 
X95.1342 Y62.8982 
X95.2421 Y63.0062 
X95.3269 Y63.1330 
X95.3853 Y63.2740 
X95.4151 Y63.4237 
Y63.5763 
X95.3853 Y63.7260 
X95.3269 Y63.8670 
X95.2421 Y63.9938 
G00 Z2.5400  
G00 X95.2421 Y61.4538 
G01 Z-0.1778 F254   
G01 X95.1342 Y61.5617 F508   
G01 X95.0074 Y61.6465 
X94.8664 Y61.7049 
X94.7167 Y61.7347 
X93.2433 
X93.0936 Y61.7049 
X92.9526 Y61.6465 
X92.8258 Y61.5617 
X92.7178 Y61.4538 
X92.6331 Y61.3270 
X92.5747 Y61.1860 
X92.5449 Y61.0363 
Y60.8837 
X92.5747 Y60.7340 
X92.6331 Y60.5930 
X92.7178 Y60.4662 
X92.8258 Y60.3582 
X92.9526 Y60.2735 
X93.0936 Y60.2151 
X93.2433 Y60.1853 
X94.7167 
X94.8664 Y60.2151 
X95.0074 Y60.2735 
X95.1342 Y60.3582 
X95.2421 Y60.4662 
X95.3269 Y60.5930 
X95.3853 Y60.7340 
X95.4151 Y60.8837 
Y61.0363 
X95.3853 Y61.1860 
X95.3269 Y61.3270 
X95.2421 Y61.4538 
G00 Z2.5400  
G00 X97.1882 Y61.4538 
G01 Z-0.1778 F254   
G01 X97.1035 Y61.3270 F508   
G01 X97.0451 Y61.1860 
X97.0153 Y61.0363 
Y60.8837 
X97.0451 Y60.7340 
X97.1035 Y60.5930 
X97.1882 Y60.4662 
X97.2962 Y60.3582 
X97.4230 Y60.2735 
X97.5640 Y60.2151 
X97.7137 Y60.1853 
X97.8663 
X98.0160 Y60.2151 
X98.1570 Y60.2735 
X98.2838 Y60.3582 
X98.3917 Y60.4662 
X98.4765 Y60.5930 
X98.5349 Y60.7340 
X98.5647 Y60.8837 
Y61.0363 
X98.5349 Y61.1860 
X98.4765 Y61.3270 
X98.3917 Y61.4538 
X98.2838 Y61.5617 
X98.1570 Y61.6465 
X98.0160 Y61.7049 
X97.8663 Y61.7347 
X97.7137 
X97.5640 Y61.7049 
X97.4230 Y61.6465 
X97.2962 Y61.5617 
X97.1882 Y61.4538 
G00 Z2.5400  
G00 X97.2962 Y59.0217 
G01 Z-0.1778 F254   
G01 X97.1882 Y58.9138 F508   
G01 X97.1035 Y58.7870 
X97.0451 Y58.6460 
X97.0153 Y58.4963 
Y58.3437 
X97.0451 Y58.1940 
X97.1035 Y58.0530 
X97.1882 Y57.9262 
X97.2962 Y57.8182 
X97.4230 Y57.7335 
X97.5640 Y57.6751 
X97.7137 Y57.6453 
X97.8663 
X98.0160 Y57.6751 
X98.1570 Y57.7335 
X98.2838 Y57.8182 
X98.3917 Y57.9262 
X98.4765 Y58.0530 
X98.5349 Y58.1940 
X98.5647 Y58.3437 
Y58.4963 
X98.5349 Y58.6460 
X98.4765 Y58.7870 
X98.3917 Y58.9138 
X98.2838 Y59.0217 
X98.1570 Y59.1065 
X98.0160 Y59.1649 
X97.8663 Y59.1947 
X97.7137 
X97.5640 Y59.1649 
X97.4230 Y59.1065 
X97.2962 Y59.0217 
G00 Z2.5400  
G00 X95.2421 Y58.9138 
G01 Z-0.1778 F254   
G01 X95.1342 Y59.0217 F508   
G01 X95.0074 Y59.1065 
X94.8664 Y59.1649 
X94.7167 Y59.1947 
X93.2433 
X93.0936 Y59.1649 
X92.9526 Y59.1065 
X92.8258 Y59.0217 
X92.7178 Y58.9138 
X92.6331 Y58.7870 
X92.5747 Y58.6460 
X92.5449 Y58.4963 
Y58.3437 
X92.5747 Y58.1940 
X92.6331 Y58.0530 
X92.7178 Y57.9262 
X92.8258 Y57.8182 
X92.9526 Y57.7335 
X93.0936 Y57.6751 
X93.2433 Y57.6453 
X94.7167 
X94.8664 Y57.6751 
X95.0074 Y57.7335 
X95.1342 Y57.8182 
X95.2421 Y57.9262 
X95.3269 Y58.0530 
X95.3853 Y58.1940 
X95.4151 Y58.3437 
Y58.4963 
X95.3853 Y58.6460 
X95.3269 Y58.7870 
X95.2421 Y58.9138 
G00 Z2.5400  
G00 X87.6221 Y58.9138 
G01 Z-0.1778 F254   
G01 X87.5142 Y59.0217 F508   
G01 X87.3874 Y59.1065 
X87.2464 Y59.1649 
X87.0967 Y59.1947 
X85.6233 
X85.4736 Y59.1649 
X85.3326 Y59.1065 
X85.2058 Y59.0217 
X85.0978 Y58.9138 
X85.0131 Y58.7870 
X84.9547 Y58.6460 
X84.9249 Y58.4963 
Y58.3437 
X84.9547 Y58.1940 
X85.0131 Y58.0530 
X85.0978 Y57.9262 
X85.2058 Y57.8182 
X85.3326 Y57.7335 
X85.4736 Y57.6751 
X85.6233 Y57.6453 
X87.0967 
X87.2464 Y57.6751 
X87.3874 Y57.7335 
X87.5142 Y57.8182 
X87.6221 Y57.9262 
X87.7069 Y58.0530 
X87.7653 Y58.1940 
X87.7951 Y58.3437 
Y58.4963 
X87.7653 Y58.6460 
X87.7069 Y58.7870 
X87.6221 Y58.9138 
G00 Z2.5400  
G00 X87.5142 Y60.3582 
G01 Z-0.1778 F254   
G01 X87.6221 Y60.4662 F508   
G01 X87.7069 Y60.5930 
X87.7653 Y60.7340 
X87.7951 Y60.8837 
Y61.0363 
X87.7653 Y61.1860 
X87.7069 Y61.3270 
X87.6221 Y61.4538 
X87.5142 Y61.5617 
X87.3874 Y61.6465 
X87.2464 Y61.7049 
X87.0967 Y61.7347 
X85.6233 
X85.4736 Y61.7049 
X85.3326 Y61.6465 
X85.2058 Y61.5617 
X85.0978 Y61.4538 
X85.0131 Y61.3270 
X84.9547 Y61.1860 
X84.9249 Y61.0363 
Y60.8837 
X84.9547 Y60.7340 
X85.0131 Y60.5930 
X85.0978 Y60.4662 
X85.2058 Y60.3582 
X85.3326 Y60.2735 
X85.4736 Y60.2151 
X85.6233 Y60.1853 
X87.0967 
X87.2464 Y60.2151 
X87.3874 Y60.2735 
X87.5142 Y60.3582 
G00 Z2.5400  
G00 X87.5142 Y62.8982 
G01 Z-0.1778 F254   
G01 X87.6221 Y63.0062 F508   
G01 X87.7069 Y63.1330 
X87.7653 Y63.2740 
X87.7951 Y63.4237 
Y63.5763 
X87.7653 Y63.7260 
X87.7069 Y63.8670 
X87.6221 Y63.9938 
X87.5142 Y64.1017 
X87.3874 Y64.1865 
X87.2464 Y64.2449 
X87.0967 Y64.2747 
X85.6233 
X85.4736 Y64.2449 
X85.3326 Y64.1865 
X85.2058 Y64.1017 
X85.0978 Y63.9938 
X85.0131 Y63.8670 
X84.9547 Y63.7260 
X84.9249 Y63.5763 
Y63.4237 
X84.9547 Y63.2740 
X84.9840 Y63.2032 
X80.9596 
X80.8849 Y63.1723 
X80.8277 Y63.1151 
X78.8342 Y61.1215 
X78.8163 Y61.1251 
X78.6637 
X78.5140 Y61.0953 
X78.3730 Y61.0369 
X78.2462 Y60.9521 
X78.1382 Y60.8442 
X78.0535 Y60.7174 
X77.9951 Y60.5764 
X77.9653 Y60.4267 
Y58.9533 
X77.9951 Y58.8036 
X78.0535 Y58.6626 
X78.1382 Y58.5358 
X78.1933 Y58.4807 
X68.9158 Y49.2032 
X57.0842 
X54.1151 Y52.1723 
X54.0404 Y52.2032 
X53.9596 
X53.8849 Y52.1723 
X53.8277 Y52.1151 
X52.9158 Y51.2032 
X52.3666 
X52.3354 Y51.2573 
X52.2573 Y51.3354 
X52.1618 Y51.3905 
X52.0552 Y51.4191 
X51.9448 
X51.8382 Y51.3905 
X51.7427 Y51.3354 
X51.6646 Y51.2573 
X51.6095 Y51.1618 
X51.5809 Y51.0552 
Y50.9448 
X51.6095 Y50.8382 
X51.6646 Y50.7427 
X51.7427 Y50.6646 
X51.8382 Y50.6095 
X51.9448 Y50.5809 
X52.0552 
X52.1618 Y50.6095 
X52.2573 Y50.6646 
X52.3354 Y50.7427 
X52.3666 Y50.7968 
X53.0404 
X53.1151 Y50.8277 
X54.0000 Y51.7126 
X56.8277 Y48.8849 
X56.8849 Y48.8277 
X56.9596 Y48.7968 
X69.0404 
X69.1151 Y48.8277 
X69.1723 Y48.8849 
X78.5624 Y58.2750 
X78.6637 Y58.2549 
X78.8163 
X78.9660 Y58.2847 
X79.1070 Y58.3431 
X79.2338 Y58.4278 
X79.3417 Y58.5358 
X79.4265 Y58.6626 
X79.4849 Y58.8036 
X79.5147 Y58.9533 
Y60.4267 
X79.4849 Y60.5764 
X79.4265 Y60.7174 
X79.3417 Y60.8442 
X79.2367 Y60.9493 
X81.0842 Y62.7968 
X85.3729 
X85.4736 Y62.7551 
X85.6233 Y62.7253 
X87.0967 
X87.2464 Y62.7551 
X87.3874 Y62.8135 
X87.5142 Y62.8982 
G00 Z2.5400  
G00 X87.5142 Y65.4382 
G01 Z-0.1778 F254   
G01 X87.6221 Y65.5462 F508   
G01 X87.7069 Y65.6730 
X87.7653 Y65.8140 
X87.7951 Y65.9637 
Y66.1163 
X87.7653 Y66.2660 
X87.7069 Y66.4070 
X87.6221 Y66.5338 
X87.5142 Y66.6417 
X87.3874 Y66.7265 
X87.2464 Y66.7849 
X87.0967 Y66.8147 
X85.6233 
X85.4736 Y66.7849 
X85.3326 Y66.7265 
X85.2058 Y66.6417 
X85.0978 Y66.5338 
X85.0131 Y66.4070 
X84.9547 Y66.2660 
X84.9249 Y66.1163 
Y65.9637 
X84.9547 Y65.8140 
X85.0131 Y65.6730 
X85.0978 Y65.5462 
X85.1783 Y65.4657 
X83.9158 Y64.2032 
X79.3666 
X79.3354 Y64.2573 
X79.2573 Y64.3354 
X79.1618 Y64.3905 
X79.0552 Y64.4191 
X78.9448 
X78.8382 Y64.3905 
X78.7427 Y64.3354 
X78.6646 Y64.2573 
X78.6095 Y64.1618 
X78.5809 Y64.0552 
Y63.9448 
X78.6095 Y63.8382 
X78.6646 Y63.7427 
X78.7427 Y63.6646 
X78.8382 Y63.6095 
X78.9448 Y63.5809 
X79.0552 
X79.1618 Y63.6095 
X79.2573 Y63.6646 
X79.3354 Y63.7427 
X79.3666 Y63.7968 
X79.5094 
X76.6764 Y60.9638 
X76.5670 Y61.0369 
X76.4260 Y61.0953 
X76.2763 Y61.1251 
X76.1237 
X75.9740 Y61.0953 
X75.8330 Y61.0369 
X75.7062 Y60.9521 
X75.5982 Y60.8442 
X75.5135 Y60.7174 
X75.4551 Y60.5764 
X75.4253 Y60.4267 
Y58.9533 
X75.4551 Y58.8036 
X75.5135 Y58.6626 
X75.5982 Y58.5358 
X75.7062 Y58.4278 
X75.8330 Y58.3431 
X75.9740 Y58.2847 
X76.1237 Y58.2549 
X76.2763 
X76.4260 Y58.2847 
X76.5670 Y58.3431 
X76.6938 Y58.4278 
X76.8017 Y58.5358 
X76.8865 Y58.6626 
X76.9449 Y58.8036 
X76.9747 Y58.9533 
Y60.4267 
X76.9449 Y60.5764 
X76.9211 Y60.6338 
X80.0842 Y63.7968 
X84.0404 
X84.1151 Y63.8277 
X85.5644 Y65.2770 
X85.6233 Y65.2653 
X87.0967 
X87.2464 Y65.2951 
X87.3874 Y65.3535 
X87.5142 Y65.4382 
G00 Z2.5400  
G00 X81.8817 Y60.8442 
G01 Z-0.1778 F254   
G01 X81.7738 Y60.9521 F508   
G01 X81.6470 Y61.0369 
X81.5060 Y61.0953 
X81.3563 Y61.1251 
X81.2037 
X81.0540 Y61.0953 
X80.9130 Y61.0369 
X80.7862 Y60.9521 
X80.6783 Y60.8442 
X80.5935 Y60.7174 
X80.5351 Y60.5764 
X80.5053 Y60.4267 
Y58.9533 
X80.5351 Y58.8036 
X80.5935 Y58.6626 
X80.6783 Y58.5358 
X80.7862 Y58.4278 
X80.9130 Y58.3431 
X81.0540 Y58.2847 
X81.2037 Y58.2549 
X81.3563 
X81.5060 Y58.2847 
X81.6470 Y58.3431 
X81.7738 Y58.4278 
X81.8817 Y58.5358 
X81.9665 Y58.6626 
X82.0249 Y58.8036 
X82.0547 Y58.9533 
Y60.4267 
X82.0249 Y60.5764 
X81.9665 Y60.7174 
X81.8817 Y60.8442 
G00 Z2.5400  
G00 X74.2617 Y60.8442 
G01 Z-0.1778 F254   
G01 X74.1538 Y60.9521 F508   
G01 X74.0270 Y61.0369 
X73.8860 Y61.0953 
X73.7363 Y61.1251 
X73.5837 
X73.4340 Y61.0953 
X73.2930 Y61.0369 
X73.1662 Y60.9521 
X73.0583 Y60.8442 
X72.9735 Y60.7174 
X72.9151 Y60.5764 
X72.8853 Y60.4267 
Y58.9533 
X72.9151 Y58.8036 
X72.9735 Y58.6626 
X73.0583 Y58.5358 
X73.1662 Y58.4278 
X73.2930 Y58.3431 
X73.4340 Y58.2847 
X73.5837 Y58.2549 
X73.7363 
X73.8860 Y58.2847 
X74.0270 Y58.3431 
X74.1538 Y58.4278 
X74.2617 Y58.5358 
X74.3465 Y58.6626 
X74.4049 Y58.8036 
X74.4347 Y58.9533 
Y60.4267 
X74.4049 Y60.5764 
X74.3465 Y60.7174 
X74.2617 Y60.8442 
G00 Z2.5400  
G00 X71.7217 Y60.8442 
G01 Z-0.1778 F254   
G01 X71.6138 Y60.9521 F508   
G01 X71.4870 Y61.0369 
X71.3460 Y61.0953 
X71.1963 Y61.1251 
X71.0437 
X70.8940 Y61.0953 
X70.7530 Y61.0369 
X70.6262 Y60.9521 
X70.5182 Y60.8442 
X70.4335 Y60.7174 
X70.3751 Y60.5764 
X70.3453 Y60.4267 
Y58.9533 
X70.3751 Y58.8036 
X70.4335 Y58.6626 
X70.5182 Y58.5358 
X70.6262 Y58.4278 
X70.7530 Y58.3431 
X70.8940 Y58.2847 
X71.0437 Y58.2549 
X71.1963 
X71.3460 Y58.2847 
X71.4870 Y58.3431 
X71.6138 Y58.4278 
X71.7217 Y58.5358 
X71.8065 Y58.6626 
X71.8649 Y58.8036 
X71.8947 Y58.9533 
Y60.4267 
X71.8649 Y60.5764 
X71.8065 Y60.7174 
X71.7217 Y60.8442 
G00 Z2.5400  
G00 X69.1817 Y60.8442 
G01 Z-0.1778 F254   
G01 X69.0738 Y60.9521 F508   
G01 X68.9470 Y61.0369 
X68.8060 Y61.0953 
X68.6563 Y61.1251 
X68.5037 
X68.3540 Y61.0953 
X68.2130 Y61.0369 
X68.0862 Y60.9521 
X67.9783 Y60.8442 
X67.8935 Y60.7174 
X67.8351 Y60.5764 
X67.8053 Y60.4267 
Y58.9533 
X67.8351 Y58.8036 
X67.8935 Y58.6626 
X67.9783 Y58.5358 
X68.0862 Y58.4278 
X68.2130 Y58.3431 
X68.3540 Y58.2847 
X68.5037 Y58.2549 
X68.6563 
X68.8060 Y58.2847 
X68.9470 Y58.3431 
X69.0738 Y58.4278 
X69.1817 Y58.5358 
X69.2665 Y58.6626 
X69.3249 Y58.8036 
X69.3547 Y58.9533 
Y60.4267 
X69.3249 Y60.5764 
X69.2665 Y60.7174 
X69.1817 Y60.8442 
G00 Z2.5400  
G00 X66.6417 Y60.8442 
G01 Z-0.1778 F254   
G01 X66.5338 Y60.9521 F508   
G01 X66.4070 Y61.0369 
X66.2660 Y61.0953 
X66.1163 Y61.1251 
X65.9637 
X65.8140 Y61.0953 
X65.6730 Y61.0369 
X65.5462 Y60.9521 
X65.4382 Y60.8442 
X65.3535 Y60.7174 
X65.2951 Y60.5764 
X65.2653 Y60.4267 
Y58.9533 
X65.2951 Y58.8036 
X65.3535 Y58.6626 
X65.4382 Y58.5358 
X65.5462 Y58.4278 
X65.6730 Y58.3431 
X65.8140 Y58.2847 
X65.9637 Y58.2549 
X66.1163 
X66.2660 Y58.2847 
X66.4070 Y58.3431 
X66.5338 Y58.4278 
X66.6417 Y58.5358 
X66.7265 Y58.6626 
X66.7849 Y58.8036 
X66.8147 Y58.9533 
Y60.4267 
X66.7849 Y60.5764 
X66.7265 Y60.7174 
X66.6417 Y60.8442 
G00 Z2.5400  
G00 X64.1017 Y60.8442 
G01 Z-0.1778 F254   
G01 X63.9938 Y60.9521 F508   
G01 X63.8670 Y61.0369 
X63.7260 Y61.0953 
X63.5763 Y61.1251 
X63.4237 
X63.2740 Y61.0953 
X63.1330 Y61.0369 
X63.0062 Y60.9521 
X62.8982 Y60.8442 
X62.8135 Y60.7174 
X62.7551 Y60.5764 
X62.7253 Y60.4267 
Y58.9533 
X62.7551 Y58.8036 
X62.8135 Y58.6626 
X62.8982 Y58.5358 
X63.0062 Y58.4278 
X63.1330 Y58.3431 
X63.2740 Y58.2847 
X63.4237 Y58.2549 
X63.5763 
X63.7260 Y58.2847 
X63.8670 Y58.3431 
X63.9938 Y58.4278 
X64.1017 Y58.5358 
X64.1865 Y58.6626 
X64.2449 Y58.8036 
X64.2747 Y58.9533 
Y60.4267 
X64.2449 Y60.5764 
X64.1865 Y60.7174 
X64.1017 Y60.8442 
G00 Z2.5400  
G00 X61.5617 Y60.8442 
G01 Z-0.1778 F254   
G01 X61.4538 Y60.9521 F508   
G01 X61.3270 Y61.0369 
X61.1860 Y61.0953 
X61.0363 Y61.1251 
X60.8837 
X60.7340 Y61.0953 
X60.5930 Y61.0369 
X60.4662 Y60.9521 
X60.3582 Y60.8442 
X60.2735 Y60.7174 
X60.2151 Y60.5764 
X60.1853 Y60.4267 
Y58.9533 
X60.2151 Y58.8036 
X60.2735 Y58.6626 
X60.3582 Y58.5358 
X60.4662 Y58.4278 
X60.5930 Y58.3431 
X60.7340 Y58.2847 
X60.8837 Y58.2549 
X61.0363 
X61.1860 Y58.2847 
X61.3270 Y58.3431 
X61.4538 Y58.4278 
X61.5617 Y58.5358 
X61.6465 Y58.6626 
X61.7049 Y58.8036 
X61.7347 Y58.9533 
Y60.4267 
X61.7049 Y60.5764 
X61.6465 Y60.7174 
X61.5617 Y60.8442 
G00 Z2.5400  
G00 X59.0217 Y60.8442 
G01 Z-0.1778 F254   
G01 X58.9138 Y60.9521 F508   
G01 X58.7870 Y61.0369 
X58.6460 Y61.0953 
X58.4963 Y61.1251 
X58.3437 
X58.1940 Y61.0953 
X58.0530 Y61.0369 
X57.9262 Y60.9521 
X57.8182 Y60.8442 
X57.7335 Y60.7174 
X57.6751 Y60.5764 
X57.6453 Y60.4267 
Y58.9533 
X57.6751 Y58.8036 
X57.7335 Y58.6626 
X57.8182 Y58.5358 
X57.9262 Y58.4278 
X58.0530 Y58.3431 
X58.1940 Y58.2847 
X58.3437 Y58.2549 
X58.4963 
X58.6460 Y58.2847 
X58.7870 Y58.3431 
X58.9138 Y58.4278 
X59.0217 Y58.5358 
X59.1065 Y58.6626 
X59.1649 Y58.8036 
X59.1947 Y58.9533 
Y60.4267 
X59.1649 Y60.5764 
X59.1065 Y60.7174 
X59.0217 Y60.8442 
G00 Z2.5400  
G00 X56.4817 Y60.8442 
G01 Z-0.1778 F254   
G01 X56.3738 Y60.9521 F508   
G01 X56.2470 Y61.0369 
X56.1060 Y61.0953 
X55.9563 Y61.1251 
X55.8037 
X55.6540 Y61.0953 
X55.5130 Y61.0369 
X55.3862 Y60.9521 
X55.2782 Y60.8442 
X55.1935 Y60.7174 
X55.1351 Y60.5764 
X55.1053 Y60.4267 
Y58.9533 
X55.1351 Y58.8036 
X55.1935 Y58.6626 
X55.2782 Y58.5358 
X55.3862 Y58.4278 
X55.5130 Y58.3431 
X55.6540 Y58.2847 
X55.8037 Y58.2549 
X55.9563 
X56.1060 Y58.2847 
X56.2470 Y58.3431 
X56.3738 Y58.4278 
X56.4817 Y58.5358 
X56.5665 Y58.6626 
X56.6249 Y58.8036 
X56.6547 Y58.9533 
Y60.4267 
X56.6249 Y60.5764 
X56.5665 Y60.7174 
X56.4817 Y60.8442 
G00 Z2.5400  
G00 X53.9417 Y60.8442 
G01 Z-0.1778 F254   
G01 X53.8338 Y60.9521 F508   
G01 X53.7070 Y61.0369 
X53.5660 Y61.0953 
X53.4163 Y61.1251 
X53.2637 
X53.1140 Y61.0953 
X52.9730 Y61.0369 
X52.8462 Y60.9521 
X52.7383 Y60.8442 
X52.6535 Y60.7174 
X52.5951 Y60.5764 
X52.5653 Y60.4267 
Y58.9533 
X52.5951 Y58.8036 
X52.6535 Y58.6626 
X52.7383 Y58.5358 
X52.8462 Y58.4278 
X52.9730 Y58.3431 
X53.1140 Y58.2847 
X53.2637 Y58.2549 
X53.4163 
X53.5660 Y58.2847 
X53.7070 Y58.3431 
X53.8338 Y58.4278 
X53.9417 Y58.5358 
X54.0265 Y58.6626 
X54.0849 Y58.8036 
X54.1147 Y58.9533 
Y60.4267 
X54.0849 Y60.5764 
X54.0265 Y60.7174 
X53.9417 Y60.8442 
G00 Z2.5400  
G00 X51.4017 Y60.8442 
G01 Z-0.1778 F254   
G01 X51.2938 Y60.9521 F508   
G01 X51.1670 Y61.0369 
X51.0260 Y61.0953 
X50.8763 Y61.1251 
X50.7237 
X50.5740 Y61.0953 
X50.4330 Y61.0369 
X50.3062 Y60.9521 
X50.1983 Y60.8442 
X50.1135 Y60.7174 
X50.0551 Y60.5764 
X50.0253 Y60.4267 
Y58.9533 
X50.0551 Y58.8036 
X50.1135 Y58.6626 
X50.1983 Y58.5358 
X50.3062 Y58.4278 
X50.4330 Y58.3431 
X50.5740 Y58.2847 
X50.7237 Y58.2549 
X50.8763 
X51.0260 Y58.2847 
X51.1670 Y58.3431 
X51.2938 Y58.4278 
X51.4017 Y58.5358 
X51.4865 Y58.6626 
X51.5449 Y58.8036 
X51.5747 Y58.9533 
Y60.4267 
X51.5449 Y60.5764 
X51.4865 Y60.7174 
X51.4017 Y60.8442 
G00 Z2.5400  
G00 X48.8617 Y60.8442 
G01 Z-0.1778 F254   
G01 X48.7538 Y60.9521 F508   
G01 X48.6270 Y61.0369 
X48.4860 Y61.0953 
X48.3363 Y61.1251 
X48.1837 
X48.0340 Y61.0953 
X47.8930 Y61.0369 
X47.7662 Y60.9521 
X47.6583 Y60.8442 
X47.5735 Y60.7174 
X47.5151 Y60.5764 
X47.4853 Y60.4267 
Y58.9533 
X47.5151 Y58.8036 
X47.5735 Y58.6626 
X47.6583 Y58.5358 
X47.7662 Y58.4278 
X47.8930 Y58.3431 
X48.0340 Y58.2847 
X48.1837 Y58.2549 
X48.3363 
X48.4860 Y58.2847 
X48.6270 Y58.3431 
X48.7538 Y58.4278 
X48.8617 Y58.5358 
X48.9465 Y58.6626 
X49.0049 Y58.8036 
X49.0347 Y58.9533 
Y60.4267 
X49.0049 Y60.5764 
X48.9465 Y60.7174 
X48.8617 Y60.8442 
G00 Z2.5400  
G00 X46.3217 Y60.8442 
G01 Z-0.1778 F254   
G01 X46.2138 Y60.9521 F508   
G01 X46.0870 Y61.0369 
X45.9460 Y61.0953 
X45.7963 Y61.1251 
X45.6437 
X45.4940 Y61.0953 
X45.3530 Y61.0369 
X45.2262 Y60.9521 
X45.1183 Y60.8442 
X45.0335 Y60.7174 
X44.9751 Y60.5764 
X44.9453 Y60.4267 
Y58.9533 
X44.9751 Y58.8036 
X45.0335 Y58.6626 
X45.1183 Y58.5358 
X45.2262 Y58.4278 
X45.3530 Y58.3431 
X45.4940 Y58.2847 
X45.6437 Y58.2549 
X45.7963 
X45.9460 Y58.2847 
X46.0870 Y58.3431 
X46.2138 Y58.4278 
X46.3217 Y58.5358 
X46.4065 Y58.6626 
X46.4649 Y58.8036 
X46.4947 Y58.9533 
Y60.4267 
X46.4649 Y60.5764 
X46.4065 Y60.7174 
X46.3217 Y60.8442 
G00 Z2.5400  
G00 X43.7817 Y60.8442 
G01 Z-0.1778 F254   
G01 X43.6738 Y60.9521 F508   
G01 X43.5470 Y61.0369 
X43.4060 Y61.0953 
X43.2563 Y61.1251 
X43.1037 
X42.9540 Y61.0953 
X42.8130 Y61.0369 
X42.6862 Y60.9521 
X42.5782 Y60.8442 
X42.4935 Y60.7174 
X42.4351 Y60.5764 
X42.4053 Y60.4267 
Y58.9533 
X42.4351 Y58.8036 
X42.4935 Y58.6626 
X42.5782 Y58.5358 
X42.6862 Y58.4278 
X42.8130 Y58.3431 
X42.9540 Y58.2847 
X43.1037 Y58.2549 
X43.2563 
X43.4060 Y58.2847 
X43.5470 Y58.3431 
X43.6738 Y58.4278 
X43.7817 Y58.5358 
X43.8665 Y58.6626 
X43.9249 Y58.8036 
X43.9547 Y58.9533 
Y60.4267 
X43.9249 Y60.5764 
X43.8665 Y60.7174 
X43.7817 Y60.8442 
G00 Z2.5400  
G00 X41.2417 Y60.8442 
G01 Z-0.1778 F254   
G01 X41.1338 Y60.9521 F508   
G01 X41.0070 Y61.0369 
X40.8660 Y61.0953 
X40.7163 Y61.1251 
X40.5637 
X40.4140 Y61.0953 
X40.2730 Y61.0369 
X40.1462 Y60.9521 
X40.0382 Y60.8442 
X39.9535 Y60.7174 
X39.8951 Y60.5764 
X39.8653 Y60.4267 
Y58.9533 
X39.8951 Y58.8036 
X39.9535 Y58.6626 
X40.0382 Y58.5358 
X40.1462 Y58.4278 
X40.2730 Y58.3431 
X40.4140 Y58.2847 
X40.5637 Y58.2549 
X40.7163 
X40.8660 Y58.2847 
X41.0070 Y58.3431 
X41.1338 Y58.4278 
X41.2417 Y58.5358 
X41.3265 Y58.6626 
X41.3849 Y58.8036 
X41.4147 Y58.9533 
Y60.4267 
X41.3849 Y60.5764 
X41.3265 Y60.7174 
X41.2417 Y60.8442 
G00 Z2.5400  
G00 X38.7017 Y60.8442 
G01 Z-0.1778 F254   
G01 X38.5938 Y60.9521 F508   
G01 X38.4670 Y61.0369 
X38.3260 Y61.0953 
X38.1763 Y61.1251 
X38.0237 
X37.8740 Y61.0953 
X37.7330 Y61.0369 
X37.6062 Y60.9521 
X37.4982 Y60.8442 
X37.4135 Y60.7174 
X37.3551 Y60.5764 
X37.3253 Y60.4267 
Y58.9533 
X37.3551 Y58.8036 
X37.4135 Y58.6626 
X37.4982 Y58.5358 
X37.6062 Y58.4278 
X37.7330 Y58.3431 
X37.8740 Y58.2847 
X38.0237 Y58.2549 
X38.1763 
X38.3260 Y58.2847 
X38.4670 Y58.3431 
X38.5938 Y58.4278 
X38.7017 Y58.5358 
X38.7865 Y58.6626 
X38.8449 Y58.8036 
X38.8747 Y58.9533 
Y60.4267 
X38.8449 Y60.5764 
X38.7865 Y60.7174 
X38.7017 Y60.8442 
G00 Z2.5400  
G00 X36.1617 Y60.8442 
G01 Z-0.1778 F254   
G01 X36.0538 Y60.9521 F508   
G01 X35.9270 Y61.0369 
X35.7860 Y61.0953 
X35.6363 Y61.1251 
X35.4837 
X35.3340 Y61.0953 
X35.1930 Y61.0369 
X35.0662 Y60.9521 
X34.9582 Y60.8442 
X34.8735 Y60.7174 
X34.8151 Y60.5764 
X34.7853 Y60.4267 
Y58.9533 
X34.8151 Y58.8036 
X34.8735 Y58.6626 
X34.9582 Y58.5358 
X35.0662 Y58.4278 
X35.1930 Y58.3431 
X35.3340 Y58.2847 
X35.4837 Y58.2549 
X35.6363 
X35.7860 Y58.2847 
X35.9270 Y58.3431 
X36.0538 Y58.4278 
X36.1617 Y58.5358 
X36.2465 Y58.6626 
X36.3049 Y58.8036 
X36.3347 Y58.9533 
Y60.4267 
X36.3049 Y60.5764 
X36.2465 Y60.7174 
X36.1617 Y60.8442 
G00 Z2.5400  
G00 X33.6217 Y60.8442 
G01 Z-0.1778 F254   
G01 X33.5138 Y60.9521 F508   
G01 X33.3870 Y61.0369 
X33.2460 Y61.0953 
X33.0963 Y61.1251 
X32.9437 
X32.7940 Y61.0953 
X32.6530 Y61.0369 
X32.5262 Y60.9521 
X32.4183 Y60.8442 
X32.3335 Y60.7174 
X32.2751 Y60.5764 
X32.2453 Y60.4267 
Y58.9533 
X32.2751 Y58.8036 
X32.3335 Y58.6626 
X32.4183 Y58.5358 
X32.5262 Y58.4278 
X32.6530 Y58.3431 
X32.7940 Y58.2847 
X32.9437 Y58.2549 
X33.0963 
X33.2460 Y58.2847 
X33.3870 Y58.3431 
X33.5138 Y58.4278 
X33.6217 Y58.5358 
X33.7065 Y58.6626 
X33.7649 Y58.8036 
X33.7947 Y58.9533 
Y60.4267 
X33.7649 Y60.5764 
X33.7065 Y60.7174 
X33.6217 Y60.8442 
G00 Z2.5400  
G00 X29.3905 Y60.8382 
G01 Z-0.1778 F254   
G01 X29.4191 Y60.9448 F508   
G01 X29.4191 Y61.0552 
X29.3905 Y61.1618 
X29.3354 Y61.2573 
X29.2573 Y61.3354 
X29.1618 Y61.3905 
X29.0552 Y61.4191 
X28.9448 
X28.8382 Y61.3905 
X28.7427 Y61.3354 
X28.6646 Y61.2573 
X28.6095 Y61.1618 
X28.5809 Y61.0552 
Y60.9448 
X28.5971 Y60.8844 
X27.9158 Y60.2032 
X24.9638 
X24.5245 Y60.6425 
X23.7355 
X23.1775 Y60.0845 
Y59.2955 
X23.7355 Y58.7375 
X24.5245 
X25.0825 Y59.2955 
Y59.7968 
X28.0404 
X28.1151 Y59.8277 
X28.8844 Y60.5971 
X28.9448 Y60.5809 
X29.0552 
X29.1618 Y60.6095 
X29.2573 Y60.6646 
X29.3354 Y60.7427 
X29.3905 Y60.8382 
G00 Z2.5400  
G00 X25.0825 Y63.1055 
G01 Z-0.1778 F254   
G01 X25.0825 Y63.7968 F508   
G01 X49.0404 Y63.7968 
X49.1151 Y63.8277 
X52.0000 Y66.7126 
X52.8277 Y65.8849 
X52.8849 Y65.8277 
X52.9596 Y65.7968 
X75.0404 
X75.1151 Y65.8277 
X75.8844 Y66.5971 
X75.9448 Y66.5809 
X76.0552 
X76.1618 Y66.6095 
X76.2573 Y66.6646 
X76.3354 Y66.7427 
X76.3905 Y66.8382 
X76.4191 Y66.9448 
Y67.0552 
X76.3905 Y67.1618 
X76.3354 Y67.2573 
X76.2573 Y67.3354 
X76.1618 Y67.3905 
X76.0552 Y67.4191 
X75.9448 
X75.8382 Y67.3905 
X75.7427 Y67.3354 
X75.6646 Y67.2573 
X75.6095 Y67.1618 
X75.5809 Y67.0552 
Y66.9448 
X75.5971 Y66.8844 
X74.9158 Y66.2032 
X53.0842 
X52.1151 Y67.1723 
X52.0404 Y67.2032 
X51.9596 
X51.8849 Y67.1723 
X51.8277 Y67.1151 
X48.9158 Y64.2032 
X24.7738 
X24.5245 Y64.4525 
X23.7355 
X23.1775 Y63.8945 
Y63.1055 
X23.7355 Y62.5475 
X24.5245 
X25.0825 Y63.1055 
G00 Z2.5400  
G00 X24.8167 Y66.5060 
G01 Z-0.1778 F254   
G01 X24.9340 Y66.6233 F508   
G01 X25.0315 Y66.7575 
X25.1069 Y66.9054 
X25.1581 Y67.0632 
X25.1841 Y67.2270 
Y67.3930 
X25.1581 Y67.5568 
X25.1069 Y67.7146 
X25.0315 Y67.8625 
X24.9340 Y67.9967 
X24.8167 Y68.1140 
X24.6825 Y68.2115 
X24.5346 Y68.2869 
X24.3768 Y68.3381 
X24.2130 Y68.3641 
X24.0470 
X23.8832 Y68.3381 
X23.7254 Y68.2869 
X23.5775 Y68.2115 
X23.4433 Y68.1140 
X23.3260 Y67.9967 
X23.2285 Y67.8625 
X23.1531 Y67.7146 
X23.1019 Y67.5568 
X23.0759 Y67.3930 
Y67.2270 
X23.1019 Y67.0632 
X23.1531 Y66.9054 
X23.2285 Y66.7575 
X23.3260 Y66.6233 
X23.4433 Y66.5060 
X23.5775 Y66.4085 
X23.7254 Y66.3331 
X23.8832 Y66.2819 
X24.0470 Y66.2559 
X24.2130 
X24.3768 Y66.2819 
X24.5346 Y66.3331 
X24.6825 Y66.4085 
X24.8167 Y66.5060 
G00 Z2.5400  
G00 X14.6567 Y66.5060 
G01 Z-0.1778 F254   
G01 X14.7740 Y66.6233 F508   
G01 X14.8715 Y66.7575 
X14.9469 Y66.9054 
X14.9981 Y67.0632 
X15.0241 Y67.2270 
Y67.3930 
X14.9981 Y67.5568 
X14.9469 Y67.7146 
X14.8715 Y67.8625 
X14.7740 Y67.9967 
X14.6567 Y68.1140 
X14.5225 Y68.2115 
X14.3746 Y68.2869 
X14.2168 Y68.3381 
X14.0530 Y68.3641 
X13.8870 
X13.7232 Y68.3381 
X13.5654 Y68.2869 
X13.4175 Y68.2115 
X13.2833 Y68.1140 
X13.1660 Y67.9967 
X13.0685 Y67.8625 
X12.9931 Y67.7146 
X12.9419 Y67.5568 
X12.9159 Y67.3930 
Y67.2270 
X12.9419 Y67.0632 
X12.9931 Y66.9054 
X13.0685 Y66.7575 
X13.1660 Y66.6233 
X13.2833 Y66.5060 
X13.4175 Y66.4085 
X13.5654 Y66.3331 
X13.5809 Y66.3281 
Y64.4525 
X13.5755 
X13.0175 Y63.8945 
Y63.1055 
X13.5755 Y62.5475 
X13.5809 
Y60.6425 
X13.5755 
X13.0175 Y60.0845 
Y59.2955 
X13.5755 Y58.7375 
X14.3645 
X14.9225 Y59.2955 
Y60.0845 
X14.4191 Y60.5879 
Y62.6021 
X14.9225 Y63.1055 
Y63.8945 
X14.4191 Y64.3979 
Y66.3558 
X14.5225 Y66.4085 
X14.6567 Y66.5060 
G00 Z2.5400  
G00 X18.6507 Y77.3704 
G01 Z-0.1778 F254   
G01 X18.7904 Y77.2307 F508   
G01 X18.9548 Y77.1209 
X19.1373 Y77.0453 
X19.3312 Y77.0067 
X19.5288 
X19.7227 Y77.0453 
X19.9052 Y77.1209 
X20.0696 Y77.2307 
X20.2093 Y77.3704 
X20.3191 Y77.5348 
X20.3947 Y77.7173 
X20.4333 Y77.9112 
Y78.1088 
X20.3947 Y78.3026 
X20.3191 Y78.4852 
X20.2093 Y78.6496 
X20.0696 Y78.7893 
X19.9052 Y78.8991 
X19.7227 Y78.9747 
X19.5288 Y79.0133 
X19.3312 
X19.1373 Y78.9747 
X18.9548 Y78.8991 
X18.7904 Y78.7893 
X18.6507 Y78.6496 
X18.5409 Y78.4852 
X18.4653 Y78.3026 
X18.4267 Y78.1088 
Y77.9112 
X18.4653 Y77.7173 
X18.5409 Y77.5348 
X18.6507 Y77.3704 
G00 Z2.5400  
G00 X18.6507 Y79.9004 
G01 Z-0.1778 F254   
G01 X18.7904 Y79.7607 F508   
G01 X18.9548 Y79.6509 
X19.1373 Y79.5753 
X19.3312 Y79.5367 
X19.5288 
X19.7227 Y79.5753 
X19.9052 Y79.6509 
X20.0696 Y79.7607 
X20.2093 Y79.9004 
X20.3191 Y80.0648 
X20.3947 Y80.2473 
X20.4333 Y80.4412 
Y80.6388 
X20.3947 Y80.8327 
X20.3191 Y81.0152 
X20.2093 Y81.1796 
X20.0696 Y81.3193 
X19.9052 Y81.4291 
X19.7227 Y81.5047 
X19.5288 Y81.5433 
X19.3312 
X19.1373 Y81.5047 
X18.9548 Y81.4291 
X18.7904 Y81.3193 
X18.6507 Y81.1796 
X18.5409 Y81.0152 
X18.4653 Y80.8327 
X18.4267 Y80.6388 
Y80.4412 
X18.4653 Y80.2473 
X18.5409 Y80.0648 
X18.6507 Y79.9004 
G00 Z2.5400  
G00 X18.6507 Y82.4404 
G01 Z-0.1778 F254   
G01 X18.7904 Y82.3007 F508   
G01 X18.9548 Y82.1909 
X19.1373 Y82.1153 
X19.3312 Y82.0767 
X19.5288 
X19.7227 Y82.1153 
X19.9052 Y82.1909 
X20.0696 Y82.3007 
X20.2093 Y82.4404 
X20.3191 Y82.6048 
X20.3947 Y82.7873 
X20.4333 Y82.9812 
Y83.1788 
X20.3947 Y83.3726 
X20.3191 Y83.5552 
X20.2093 Y83.7196 
X20.0696 Y83.8593 
X19.9052 Y83.9691 
X19.7227 Y84.0447 
X19.5288 Y84.0833 
X19.3312 
X19.1373 Y84.0447 
X18.9548 Y83.9691 
X18.7904 Y83.8593 
X18.6507 Y83.7196 
X18.5409 Y83.5552 
X18.4653 Y83.3726 
X18.4267 Y83.1788 
Y82.9812 
X18.4653 Y82.7873 
X18.5409 Y82.6048 
X18.6507 Y82.4404 
G00 Z2.5400  
G00 X18.6507 Y84.9804 
G01 Z-0.1778 F254   
G01 X18.7904 Y84.8407 F508   
G01 X18.9548 Y84.7309 
X19.1373 Y84.6553 
X19.3312 Y84.6167 
X19.5288 
X19.7227 Y84.6553 
X19.9052 Y84.7309 
X20.0696 Y84.8407 
X20.2093 Y84.9804 
X20.3191 Y85.1448 
X20.3947 Y85.3273 
X20.4333 Y85.5212 
Y85.7188 
X20.3947 Y85.9126 
X20.3191 Y86.0952 
X20.2093 Y86.2596 
X20.0696 Y86.3993 
X19.9052 Y86.5091 
X19.7227 Y86.5847 
X19.5288 Y86.6233 
X19.3312 
X19.1373 Y86.5847 
X18.9548 Y86.5091 
X18.7904 Y86.3993 
X18.6507 Y86.2596 
X18.5409 Y86.0952 
X18.4653 Y85.9126 
X18.4267 Y85.7188 
Y85.5212 
X18.4653 Y85.3273 
X18.5409 Y85.1448 
X18.6507 Y84.9804 
G00 Z2.5400  
G00 X26.8849 Y50.1723 
G01 Z-0.1778 F254   
G01 X24.8849 Y48.1723 F508   
G01 X24.8277 Y48.1151 
X24.7968 Y48.0404 
Y35.0842 
X22.2896 Y32.5770 
X22.0371 Y32.8295 
X21.1429 
X20.5105 Y32.1971 
Y31.3029 
X21.1429 Y30.6705 
X22.0371 
X22.6695 Y31.3029 
Y32.1971 
X22.5770 Y32.2896 
X25.1723 Y34.8849 
X25.2032 Y34.9596 
Y47.9158 
X27.0842 Y49.7968 
X27.9158 
X32.3047 Y45.4079 
X32.2751 Y45.3364 
X32.2453 Y45.1867 
Y43.7133 
X32.2751 Y43.5636 
X32.3335 Y43.4226 
X32.4183 Y43.2958 
X32.5262 Y43.1878 
X32.6530 Y43.1031 
X32.7940 Y43.0447 
X32.9437 Y43.0149 
X33.0963 
X33.2460 Y43.0447 
X33.3870 Y43.1031 
X33.5138 Y43.1878 
X33.6217 Y43.2958 
X33.7065 Y43.4226 
X33.7649 Y43.5636 
X33.7947 Y43.7133 
Y45.1867 
X33.7649 Y45.3364 
X33.7065 Y45.4774 
X33.6217 Y45.6042 
X33.5138 Y45.7121 
X33.3870 Y45.7969 
X33.2460 Y45.8553 
X33.0963 Y45.8851 
X32.9437 
X32.7940 Y45.8553 
X32.6530 Y45.7969 
X32.5556 Y45.7318 
X28.1723 Y50.1151 
X28.1151 Y50.1723 
X28.0404 Y50.2032 
X26.9596 
X26.8849 Y50.1723 
G00 Z2.5400  
G00 X28.6109 Y41.3700 
G01 Z-0.1778 F254   
G01 X28.4800 Y41.2391 F508   
G01 X28.3772 Y41.0852 
X28.3063 Y40.9141 
X28.2702 Y40.7326 
Y40.5474 
X28.3063 Y40.3659 
X28.3772 Y40.1948 
X28.4800 Y40.0409 
X28.6109 Y39.9100 
X28.7648 Y39.8072 
X28.9359 Y39.7363 
X29.1174 Y39.7002 
X29.3026 
X29.4841 Y39.7363 
X29.6552 Y39.8072 
X29.8091 Y39.9100 
X29.9400 Y40.0409 
X30.0428 Y40.1948 
X30.1137 Y40.3659 
X30.1498 Y40.5474 
Y40.7326 
X30.1137 Y40.9141 
X30.0428 Y41.0852 
X29.9400 Y41.2391 
X29.8091 Y41.3700 
X29.6552 Y41.4728 
X29.4841 Y41.5437 
X29.3026 Y41.5798 
X29.1174 
X28.9359 Y41.5437 
X28.7648 Y41.4728 
X28.6109 Y41.3700 
G00 Z2.5400  
G00 X31.1509 Y41.3700 
G01 Z-0.1778 F254   
G01 X31.0200 Y41.2391 F508   
G01 X30.9172 Y41.0852 
X30.8463 Y40.9141 
X30.8102 Y40.7326 
Y40.5474 
X30.8463 Y40.3659 
X30.9172 Y40.1948 
X31.0200 Y40.0409 
X31.1509 Y39.9100 
X31.3048 Y39.8072 
X31.4759 Y39.7363 
X31.6574 Y39.7002 
X31.8426 
X32.0241 Y39.7363 
X32.1952 Y39.8072 
X32.3491 Y39.9100 
X32.4800 Y40.0409 
X32.5828 Y40.1948 
X32.6537 Y40.3659 
X32.6898 Y40.5474 
Y40.7326 
X32.6537 Y40.9141 
X32.5828 Y41.0852 
X32.4800 Y41.2391 
X32.3491 Y41.3700 
X32.1952 Y41.4728 
X32.0241 Y41.5437 
X31.8426 Y41.5798 
X31.6574 
X31.4759 Y41.5437 
X31.3048 Y41.4728 
X31.1509 Y41.3700 
G00 Z2.5400  
G00 X34.9582 Y43.2958 
G01 Z-0.1778 F254   
G01 X35.0662 Y43.1878 F508   
G01 X35.1930 Y43.1031 
X35.3340 Y43.0447 
X35.4837 Y43.0149 
X35.6363 
X35.7860 Y43.0447 
X35.9270 Y43.1031 
X36.0538 Y43.1878 
X36.1617 Y43.2958 
X36.2465 Y43.4226 
X36.3049 Y43.5636 
X36.3347 Y43.7133 
Y45.1867 
X36.3049 Y45.3364 
X36.2465 Y45.4774 
X36.1617 Y45.6042 
X36.0538 Y45.7121 
X35.9270 Y45.7969 
X35.7860 Y45.8553 
X35.6363 Y45.8851 
X35.4837 
X35.3340 Y45.8553 
X35.1930 Y45.7969 
X35.0662 Y45.7121 
X34.9582 Y45.6042 
X34.8735 Y45.4774 
X34.8151 Y45.3364 
X34.7853 Y45.1867 
Y43.7133 
X34.8151 Y43.5636 
X34.8735 Y43.4226 
X34.9582 Y43.2958 
G00 Z2.5400  
G00 X37.4982 Y43.2958 
G01 Z-0.1778 F254   
G01 X37.6062 Y43.1878 F508   
G01 X37.7330 Y43.1031 
X37.8740 Y43.0447 
X38.0237 Y43.0149 
X38.1763 
X38.3260 Y43.0447 
X38.4670 Y43.1031 
X38.5938 Y43.1878 
X38.7017 Y43.2958 
X38.7865 Y43.4226 
X38.8449 Y43.5636 
X38.8747 Y43.7133 
Y45.1867 
X38.8449 Y45.3364 
X38.7865 Y45.4774 
X38.7017 Y45.6042 
X38.5938 Y45.7121 
X38.4670 Y45.7969 
X38.3260 Y45.8553 
X38.1763 Y45.8851 
X38.0237 
X37.8740 Y45.8553 
X37.7330 Y45.7969 
X37.6062 Y45.7121 
X37.4982 Y45.6042 
X37.4135 Y45.4774 
X37.3551 Y45.3364 
X37.3253 Y45.1867 
Y43.7133 
X37.3551 Y43.5636 
X37.4135 Y43.4226 
X37.4982 Y43.2958 
G00 Z2.5400  
G00 X40.0382 Y43.2958 
G01 Z-0.1778 F254   
G01 X40.1462 Y43.1878 F508   
G01 X40.2730 Y43.1031 
X40.4140 Y43.0447 
X40.5637 Y43.0149 
X40.7163 
X40.8660 Y43.0447 
X41.0070 Y43.1031 
X41.1338 Y43.1878 
X41.2417 Y43.2958 
X41.3265 Y43.4226 
X41.3849 Y43.5636 
X41.4147 Y43.7133 
Y45.1867 
X41.3849 Y45.3364 
X41.3265 Y45.4774 
X41.2417 Y45.6042 
X41.1338 Y45.7121 
X41.0070 Y45.7969 
X40.8660 Y45.8553 
X40.7163 Y45.8851 
X40.5637 
X40.4140 Y45.8553 
X40.2730 Y45.7969 
X40.1462 Y45.7121 
X40.0382 Y45.6042 
X39.9535 Y45.4774 
X39.8951 Y45.3364 
X39.8653 Y45.1867 
Y43.7133 
X39.8951 Y43.5636 
X39.9535 Y43.4226 
X40.0382 Y43.2958 
G00 Z2.5400  
G00 X42.5782 Y43.2958 
G01 Z-0.1778 F254   
G01 X42.6862 Y43.1878 F508   
G01 X42.8130 Y43.1031 
X42.9540 Y43.0447 
X43.1037 Y43.0149 
X43.2563 
X43.4060 Y43.0447 
X43.5470 Y43.1031 
X43.6738 Y43.1878 
X43.7817 Y43.2958 
X43.8665 Y43.4226 
X43.9249 Y43.5636 
X43.9547 Y43.7133 
Y45.1867 
X43.9249 Y45.3364 
X43.8665 Y45.4774 
X43.7817 Y45.6042 
X43.6738 Y45.7121 
X43.5470 Y45.7969 
X43.4060 Y45.8553 
X43.2563 Y45.8851 
X43.1037 
X42.9540 Y45.8553 
X42.8130 Y45.7969 
X42.6862 Y45.7121 
X42.5782 Y45.6042 
X42.4935 Y45.4774 
X42.4351 Y45.3364 
X42.4053 Y45.1867 
Y43.7133 
X42.4351 Y43.5636 
X42.4935 Y43.4226 
X42.5782 Y43.2958 
G00 Z2.5400  
G00 X45.1183 Y43.2958 
G01 Z-0.1778 F254   
G01 X45.2262 Y43.1878 F508   
G01 X45.3530 Y43.1031 
X45.4940 Y43.0447 
X45.6437 Y43.0149 
X45.7963 
X45.9460 Y43.0447 
X46.0870 Y43.1031 
X46.2138 Y43.1878 
X46.3217 Y43.2958 
X46.4065 Y43.4226 
X46.4649 Y43.5636 
X46.4947 Y43.7133 
Y45.1867 
X46.4649 Y45.3364 
X46.4065 Y45.4774 
X46.3217 Y45.6042 
X46.2138 Y45.7121 
X46.0870 Y45.7969 
X45.9460 Y45.8553 
X45.7963 Y45.8851 
X45.6437 
X45.4940 Y45.8553 
X45.3530 Y45.7969 
X45.2262 Y45.7121 
X45.1183 Y45.6042 
X45.0335 Y45.4774 
X44.9751 Y45.3364 
X44.9453 Y45.1867 
Y43.7133 
X44.9751 Y43.5636 
X45.0335 Y43.4226 
X45.1183 Y43.2958 
G00 Z2.5400  
G00 X57.9262 Y37.4317 
G01 Z-0.1778 F254   
G01 X57.8182 Y37.3238 F508   
