(.../pcb-gcode-3.6.2.4/pcb-gcode.ulp)
(Copyright 2005 - 2012 by John Johnson)
(See readme.txt for licensing terms.)
(This file generated from the board:)
(.../3K_valdiklis_v1/3K_valdiklis_v1.brd)
(Current profile is .../pcb-gcode-3.6.2.4/profiles/mach.pp  )
(This file generated 2016.10.12 22:36:10)
(Settings from pcb-machine.h)
(spindle on time = 3.0000)
(  Tool Size)
(0.1778  )
(spindle speed = 30000.0000)
(tool change at 0.0000  0.0000  25.4000 )
(feed rate xy = F508   )
(feed rate z  = F254   )
(Z Axis Settings)
(  High     Up        Down     Drill)
(12.7000 	2.5400  	-0.1778 	-0.8128 )
(Settings from pcb-defaults.h)
(isolate min = 0.0254)
(isolate max = 0.5080)
(isolate step = 0.1270)
(Generated top outlines, top drill, bottom outlines, )
(Unit of measure: mm)
(Metric Mode)
G21
(Absolute Coordinates)
G90
S30000
G00 Z12.7000 
G00 X0.0000  Y0.0000  
M03
G04 P3.000000
G00 Z2.5400  
G00 X8.1936  Y4.5038  
G01 Z-0.1778 F254   
G01 X8.3138  Y4.3836  F508   
G01 X8.4512  Y4.2837  
X8.6026  Y4.2066  
X8.7642  Y4.1541  
X8.9320  Y4.1275  
X9.1020  
X9.2698  Y4.1541  
X9.4314  Y4.2066  
X9.5828  Y4.2837  
X9.7202  Y4.3836  
X9.8404  Y4.5038  
X9.9403  Y4.6412  
X10.0174 Y4.7926  
X10.0699 Y4.9542  
X10.0965 Y5.1220  
Y5.2920  
X10.0699 Y5.4598  
X10.0174 Y5.6214  
X9.9403  Y5.7728  
X9.8404  Y5.9102  
X9.7202  Y6.0304  
X9.5828  Y6.1303  
X9.4314  Y6.2074  
X9.2698  Y6.2599  
X9.1020  Y6.2865  
X8.9320  
X8.7642  Y6.2599  
X8.6026  Y6.2074  
X8.4512  Y6.1303  
X8.3138  Y6.0304  
X8.1936  Y5.9102  
X8.0937  Y5.7728  
X8.0166  Y5.6214  
X7.9641  Y5.4598  
X7.9375  Y5.2920  
Y5.1220  
X7.9641  Y4.9542  
X8.0166  Y4.7926  
X8.0937  Y4.6412  
X8.1936  Y4.5038  
G00 Z2.5400  
G00 X8.1936  Y8.3138  
G01 Z-0.1778 F254   
G01 X8.3138  Y8.1936  F508   
G01 X8.4512  Y8.0937  
X8.6026  Y8.0166  
X8.7642  Y7.9641  
X8.9320  Y7.9375  
X9.1020  
X9.2698  Y7.9641  
X9.4314  Y8.0166  
X9.5828  Y8.0937  
X9.7202  Y8.1936  
X9.8404  Y8.3138  
X9.9403  Y8.4512  
X10.0174 Y8.6026  
X10.0699 Y8.7642  
X10.0965 Y8.9320  
Y9.1020  
X10.0699 Y9.2698  
X10.0174 Y9.4314  
X9.9403  Y9.5828  
X9.8404  Y9.7202  
X9.7202  Y9.8404  
X9.5828  Y9.9403  
X9.4314  Y10.0174 
X9.2698  Y10.0699 
X9.1020  Y10.0965 
X8.9320  
X8.7642  Y10.0699 
X8.6026  Y10.0174 
X8.4512  Y9.9403  
X8.3138  Y9.8404  
X8.1936  Y9.7202  
X8.0937  Y9.5828  
X8.0166  Y9.4314  
X7.9641  Y9.2698  
X7.9375  Y9.1020  
Y8.9320  
X7.9641  Y8.7642  
X8.0166  Y8.6026  
X8.0937  Y8.4512  
X8.1936  Y8.3138  
G00 Z2.5400  
G00 X8.2551  Y13.3507 
G01 Z-0.1778 F254   
G01 X8.4549  Y13.3507 F508   
G01 X8.6509  Y13.3897 
X8.8354  Y13.4661 
X9.0016  Y13.5771 
X9.1429  Y13.7184 
X9.2539  Y13.8845 
X9.3303  Y14.0691 
X9.3693  Y14.2651 
Y14.4649 
X9.3303  Y14.6609 
X9.2539  Y14.8454 
X9.1429  Y15.0116 
X9.0016  Y15.1529 
X8.8354  Y15.2639 
X8.6509  Y15.3403 
X8.4549  Y15.3793 
X8.2551  
X8.0591  Y15.3403 
X7.8745  Y15.2639 
X7.7084  Y15.1529 
X7.5671  Y15.0116 
X7.4561  Y14.8454 
X7.3797  Y14.6609 
X7.3407  Y14.4649 
Y14.2651 
X7.3797  Y14.0691 
X7.4561  Y13.8845 
X7.5671  Y13.7184 
X7.7084  Y13.5771 
X7.8745  Y13.4661 
X8.0591  Y13.3897 
X8.2551  Y13.3507 
G00 Z2.5400  
G00 X12.5671 Y13.7184 
G01 Z-0.1778 F254   
G01 X12.7084 Y13.5771 F508   
G01 X12.8745 Y13.4661 
X13.0591 Y13.3897 
X13.2551 Y13.3507 
X13.4549 
X13.6509 Y13.3897 
X13.8354 Y13.4661 
X14.0016 Y13.5771 
X14.1429 Y13.7184 
X14.2539 Y13.8845 
X14.3303 Y14.0691 
X14.3693 Y14.2651 
Y14.4649 
X14.3303 Y14.6609 
X14.2539 Y14.8454 
X14.1429 Y15.0116 
X14.0016 Y15.1529 
X13.8354 Y15.2639 
X13.6509 Y15.3403 
X13.4549 Y15.3793 
X13.2551 
X13.0591 Y15.3403 
X12.8745 Y15.2639 
X12.7084 Y15.1529 
X12.5671 Y15.0116 
X12.4561 Y14.8454 
X12.3797 Y14.6609 
X12.3407 Y14.4649 
Y14.2651 
X12.3797 Y14.0691 
X12.4561 Y13.8845 
X12.5671 Y13.7184 
G00 Z2.5400  
G00 X13.3490 Y8.1023  
G01 Z-0.1778 F254   
G01 X13.2147 Y7.9680  F508   
G01 X13.1031 Y7.8143  
X13.0169 Y7.6451  
X12.9582 Y7.4645  
X12.9285 Y7.2770  
Y7.0870  
X12.9582 Y6.8995  
X13.0169 Y6.7189  
X13.1031 Y6.5497  
X13.2147 Y6.3960  
X13.3490 Y6.2617  
X13.5027 Y6.1501  
X13.6719 Y6.0639  
X13.8525 Y6.0052  
X14.0400 Y5.9755  
X14.2300 
X14.4175 Y6.0052  
X14.5981 Y6.0639  
X14.7673 Y6.1501  
X14.9210 Y6.2617  
X15.0553 Y6.3960  
X15.1669 Y6.5497  
X15.2531 Y6.7189  
X15.3118 Y6.8995  
X15.3415 Y7.0870  
Y7.2770  
X15.3118 Y7.4645  
X15.2531 Y7.6451  
X15.1669 Y7.8143  
X15.0553 Y7.9680  
X14.9210 Y8.1023  
X14.7673 Y8.2139  
X14.5981 Y8.3001  
X14.4175 Y8.3588  
X14.2300 Y8.3885  
X14.0400 
X13.8525 Y8.3588  
X13.6719 Y8.3001  
X13.5027 Y8.2139  
X13.3490 Y8.1023  
G00 Z2.5400  
G00 X16.8490 Y8.1023  
G01 Z-0.1778 F254   
G01 X16.7147 Y7.9680  F508   
G01 X16.6031 Y7.8143  
X16.5169 Y7.6451  
X16.4582 Y7.4645  
X16.4285 Y7.2770  
Y7.0870  
X16.4582 Y6.8995  
X16.5169 Y6.7189  
X16.6031 Y6.5497  
X16.7147 Y6.3960  
X16.8490 Y6.2617  
X17.0027 Y6.1501  
X17.1719 Y6.0639  
X17.3525 Y6.0052  
X17.5400 Y5.9755  
X17.7300 
X17.9175 Y6.0052  
X18.0981 Y6.0639  
X18.2673 Y6.1501  
X18.4210 Y6.2617  
X18.5553 Y6.3960  
X18.6669 Y6.5497  
X18.7531 Y6.7189  
X18.8118 Y6.8995  
X18.8415 Y7.0870  
Y7.2770  
X18.8118 Y7.4645  
X18.7531 Y7.6451  
X18.6669 Y7.8143  
X18.5553 Y7.9680  
X18.4210 Y8.1023  
X18.2673 Y8.2139  
X18.0981 Y8.3001  
X17.9175 Y8.3588  
X17.7300 Y8.3885  
X17.5400 
X17.3525 Y8.3588  
X17.1719 Y8.3001  
X17.0027 Y8.2139  
X16.8490 Y8.1023  
G00 Z2.5400  
G00 X25.8201 Y9.4341  
G01 Z-0.1778 F254   
G01 X25.9441 Y9.3101  F508   
G01 X26.0860 Y9.2070  
X26.2423 Y9.1273  
X26.4091 Y9.0731  
X26.5823 Y9.0457  
X26.7577 
X26.9309 Y9.0731  
X27.0977 Y9.1273  
X27.2540 Y9.2070  
X27.3959 Y9.3101  
X27.5199 Y9.4341  
X27.6230 Y9.5760  
X27.7027 Y9.7323  
X27.7569 Y9.8991  
X27.7843 Y10.0723 
Y10.2477 
X27.7569 Y10.4209 
X27.7027 Y10.5877 
X27.6230 Y10.7440 
X27.5199 Y10.8859 
X27.3959 Y11.0099 
X27.2540 Y11.1130 
X27.0977 Y11.1927 
X26.9309 Y11.2469 
X26.7577 Y11.2743 
X26.5823 
X26.4091 Y11.2469 
X26.2423 Y11.1927 
X26.0860 Y11.1130 
X25.9441 Y11.0099 
X25.8201 Y10.8859 
X25.7170 Y10.7440 
X25.6373 Y10.5877 
X25.5831 Y10.4209 
X25.5557 Y10.2477 
Y10.0723 
X25.5831 Y9.8991  
X25.6373 Y9.7323  
X25.7170 Y9.5760  
X25.8201 Y9.4341  
G00 Z2.5400  
G00 X25.8201 Y14.5141 
G01 Z-0.1778 F254   
G01 X25.9441 Y14.3901 F508   
G01 X26.0860 Y14.2870 
X26.2423 Y14.2073 
X26.4091 Y14.1531 
X26.5823 Y14.1257 
X26.7577 
X26.9309 Y14.1531 
X27.0977 Y14.2073 
X27.2540 Y14.2870 
X27.3959 Y14.3901 
X27.5199 Y14.5141 
X27.6230 Y14.6560 
X27.7027 Y14.8123 
X27.7569 Y14.9791 
X27.7843 Y15.1523 
Y15.3277 
X27.7569 Y15.5009 
X27.7027 Y15.6677 
X27.6230 Y15.8240 
X27.5199 Y15.9659 
X27.3959 Y16.0899 
X27.2540 Y16.1930 
X27.0977 Y16.2727 
X26.9309 Y16.3269 
X26.7577 Y16.3543 
X26.5823 
X26.4091 Y16.3269 
X26.2423 Y16.2727 
X26.0860 Y16.1930 
X25.9441 Y16.0899 
X25.8201 Y15.9659 
X25.7170 Y15.8240 
X25.6373 Y15.6677 
X25.5831 Y15.5009 
X25.5557 Y15.3277 
Y15.1523 
X25.5831 Y14.9791 
X25.6373 Y14.8123 
X25.7170 Y14.6560 
X25.8201 Y14.5141 
G00 Z2.5400  
G00 X33.4401 Y14.5141 
G01 Z-0.1778 F254   
G01 X33.5641 Y14.3901 F508   
G01 X33.7060 Y14.2870 
X33.8623 Y14.2073 
X34.0291 Y14.1531 
X34.2023 Y14.1257 
X34.3777 
X34.5509 Y14.1531 
X34.7177 Y14.2073 
X34.8740 Y14.2870 
X35.0159 Y14.3901 
X35.1399 Y14.5141 
X35.2430 Y14.6560 
X35.3227 Y14.8123 
X35.3769 Y14.9791 
X35.4043 Y15.1523 
Y15.3277 
X35.3769 Y15.5009 
X35.3227 Y15.6677 
X35.2430 Y15.8240 
X35.1399 Y15.9659 
X35.0159 Y16.0899 
X34.8740 Y16.1930 
X34.7177 Y16.2727 
X34.5509 Y16.3269 
X34.3777 Y16.3543 
X34.2023 
X34.0291 Y16.3269 
X33.8623 Y16.2727 
X33.7060 Y16.1930 
X33.5641 Y16.0899 
X33.4401 Y15.9659 
X33.3370 Y15.8240 
X33.2573 Y15.6677 
X33.2031 Y15.5009 
X33.1757 Y15.3277 
Y15.1523 
X33.2031 Y14.9791 
X33.2573 Y14.8123 
X33.3370 Y14.6560 
X33.4401 Y14.5141 
G00 Z2.5400  
G00 X33.5641 Y11.0099 
G01 Z-0.1778 F254   
G01 X33.4401 Y10.8859 F508   
G01 X33.3370 Y10.7440 
X33.2573 Y10.5877 
X33.2031 Y10.4209 
X33.1757 Y10.2477 
Y10.0723 
X33.2031 Y9.8991  
X33.2573 Y9.7323  
X33.3370 Y9.5760  
X33.4401 Y9.4341  
X33.5641 Y9.3101  
X33.7060 Y9.2070  
X33.8623 Y9.1273  
X34.0291 Y9.0731  
X34.2023 Y9.0457  
X34.3777 
X34.5509 Y9.0731  
X34.7177 Y9.1273  
X34.8740 Y9.2070  
X35.0159 Y9.3101  
X35.1399 Y9.4341  
X35.2430 Y9.5760  
X35.3227 Y9.7323  
X35.3769 Y9.8991  
X35.4043 Y10.0723 
Y10.2477 
X35.3769 Y10.4209 
X35.3227 Y10.5877 
X35.2430 Y10.7440 
X35.1399 Y10.8859 
X35.0159 Y11.0099 
X34.8740 Y11.1130 
X34.7177 Y11.1927 
X34.5509 Y11.2469 
X34.3777 Y11.2743 
X34.2023 
X34.0291 Y11.2469 
X33.8623 Y11.1927 
X33.7060 Y11.1130 
X33.5641 Y11.0099 
G00 Z2.5400  
G00 X41.1841 Y11.0099 
G01 Z-0.1778 F254   
G01 X41.0601 Y10.8859 F508   
G01 X40.9570 Y10.7440 
X40.8773 Y10.5877 
X40.8231 Y10.4209 
X40.7957 Y10.2477 
Y10.0723 
X40.8231 Y9.8991  
X40.8773 Y9.7323  
X40.9570 Y9.5760  
X41.0601 Y9.4341  
X41.1841 Y9.3101  
X41.3260 Y9.2070  
X41.4823 Y9.1273  
X41.6491 Y9.0731  
X41.8223 Y9.0457  
X41.9977 
X42.1709 Y9.0731  
X42.3377 Y9.1273  
X42.4940 Y9.2070  
X42.6359 Y9.3101  
X42.7599 Y9.4341  
X42.8630 Y9.5760  
X42.9427 Y9.7323  
X42.9969 Y9.8991  
X43.0243 Y10.0723 
Y10.2477 
X42.9969 Y10.4209 
X42.9427 Y10.5877 
X42.8630 Y10.7440 
X42.7599 Y10.8859 
X42.6359 Y11.0099 
X42.4940 Y11.1130 
X42.3377 Y11.1927 
X42.1709 Y11.2469 
X41.9977 Y11.2743 
X41.8223 
X41.6491 Y11.2469 
X41.4823 Y11.1927 
X41.3260 Y11.1130 
X41.1841 Y11.0099 
G00 Z2.5400  
G00 X41.1841 Y14.3901 
G01 Z-0.1778 F254   
G01 X41.3260 Y14.2870 F508   
G01 X41.4823 Y14.2073 
X41.6491 Y14.1531 
X41.8223 Y14.1257 
X41.9977 
X42.1709 Y14.1531 
X42.3377 Y14.2073 
X42.4940 Y14.2870 
X42.6359 Y14.3901 
X42.7599 Y14.5141 
X42.8630 Y14.6560 
X42.9427 Y14.8123 
X42.9969 Y14.9791 
X43.0243 Y15.1523 
Y15.3277 
X42.9969 Y15.5009 
X42.9427 Y15.6677 
X42.8630 Y15.8240 
X42.7599 Y15.9659 
X42.6359 Y16.0899 
X42.4940 Y16.1930 
X42.3377 Y16.2727 
X42.1709 Y16.3269 
X41.9977 Y16.3543 
X41.8223 
X41.6491 Y16.3269 
X41.4823 Y16.2727 
X41.3260 Y16.1930 
X41.1841 Y16.0899 
X41.0601 Y15.9659 
X40.9570 Y15.8240 
X40.8773 Y15.6677 
X40.8231 Y15.5009 
X40.7957 Y15.3277 
Y15.1523 
X40.8231 Y14.9791 
X40.8773 Y14.8123 
X40.9570 Y14.6560 
X41.0601 Y14.5141 
X41.1841 Y14.3901 
G00 Z2.5400  
G00 X48.6801 Y14.5141 
G01 Z-0.1778 F254   
G01 X48.8041 Y14.3901 F508   
G01 X48.9460 Y14.2870 
X49.1023 Y14.2073 
X49.2691 Y14.1531 
X49.4423 Y14.1257 
X49.6177 
X49.7909 Y14.1531 
X49.9577 Y14.2073 
X50.1140 Y14.2870 
X50.2559 Y14.3901 
X50.3799 Y14.5141 
X50.4830 Y14.6560 
X50.5627 Y14.8123 
X50.6169 Y14.9791 
X50.6443 Y15.1523 
Y15.3277 
X50.6169 Y15.5009 
X50.5627 Y15.6677 
X50.4830 Y15.8240 
X50.3799 Y15.9659 
X50.2559 Y16.0899 
X50.1140 Y16.1930 
X49.9577 Y16.2727 
X49.7909 Y16.3269 
X49.6177 Y16.3543 
X49.4423 
X49.2691 Y16.3269 
X49.1023 Y16.2727 
X48.9460 Y16.1930 
X48.8041 Y16.0899 
X48.6801 Y15.9659 
X48.5770 Y15.8240 
X48.4973 Y15.6677 
X48.4431 Y15.5009 
X48.4157 Y15.3277 
Y15.1523 
X48.4431 Y14.9791 
X48.4973 Y14.8123 
X48.5770 Y14.6560 
X48.6801 Y14.5141 
G00 Z2.5400  
G00 X48.8041 Y11.0099 
G01 Z-0.1778 F254   
G01 X48.6801 Y10.8859 F508   
G01 X48.5770 Y10.7440 
X48.4973 Y10.5877 
X48.4431 Y10.4209 
X48.4157 Y10.2477 
Y10.0723 
X48.4431 Y9.8991  
X48.4973 Y9.7323  
X48.5770 Y9.5760  
X48.6801 Y9.4341  
X48.8041 Y9.3101  
X48.9460 Y9.2070  
X49.1023 Y9.1273  
X49.2691 Y9.0731  
X49.4423 Y9.0457  
X49.6177 
X49.7909 Y9.0731  
X49.9577 Y9.1273  
X50.1140 Y9.2070  
X50.2559 Y9.3101  
X50.3799 Y9.4341  
X50.4830 Y9.5760  
X50.5627 Y9.7323  
X50.6169 Y9.8991  
X50.6443 Y10.0723 
Y10.2477 
X50.6169 Y10.4209 
X50.5627 Y10.5877 
X50.4830 Y10.7440 
X50.3799 Y10.8859 
X50.2559 Y11.0099 
X50.1140 Y11.1130 
X49.9577 Y11.1927 
X49.7909 Y11.2469 
X49.6177 Y11.2743 
X49.4423 
X49.2691 Y11.2469 
X49.1023 Y11.1927 
X48.9460 Y11.1130 
X48.8041 Y11.0099 
G00 Z2.5400  
G00 X56.4241 Y11.0099 
G01 Z-0.1778 F254   
G01 X56.3001 Y10.8859 F508   
G01 X56.1970 Y10.7440 
X56.1173 Y10.5877 
X56.0631 Y10.4209 
X56.0357 Y10.2477 
Y10.0723 
X56.0631 Y9.8991  
X56.1173 Y9.7323  
X56.1970 Y9.5760  
X56.3001 Y9.4341  
X56.4241 Y9.3101  
X56.5660 Y9.2070  
X56.7223 Y9.1273  
X56.8891 Y9.0731  
X57.0623 Y9.0457  
X57.2377 
X57.4109 Y9.0731  
X57.5777 Y9.1273  
X57.7340 Y9.2070  
X57.8759 Y9.3101  
X57.9999 Y9.4341  
X58.1030 Y9.5760  
X58.1827 Y9.7323  
X58.2369 Y9.8991  
X58.2643 Y10.0723 
Y10.2477 
X58.2369 Y10.4209 
X58.1827 Y10.5877 
X58.1030 Y10.7440 
X57.9999 Y10.8859 
X57.8759 Y11.0099 
X57.7340 Y11.1130 
X57.5777 Y11.1927 
X57.4109 Y11.2469 
X57.2377 Y11.2743 
X57.0623 
X56.8891 Y11.2469 
X56.7223 Y11.1927 
X56.5660 Y11.1130 
X56.4241 Y11.0099 
G00 Z2.5400  
G00 X56.4241 Y14.3901 
G01 Z-0.1778 F254   
G01 X56.5660 Y14.2870 F508   
G01 X56.7223 Y14.2073 
X56.8891 Y14.1531 
X57.0623 Y14.1257 
X57.2377 
X57.4109 Y14.1531 
X57.5777 Y14.2073 
X57.7340 Y14.2870 
X57.8759 Y14.3901 
X57.9999 Y14.5141 
X58.1030 Y14.6560 
X58.1827 Y14.8123 
X58.2369 Y14.9791 
X58.2643 Y15.1523 
Y15.3277 
X58.2369 Y15.5009 
X58.1827 Y15.6677 
X58.1030 Y15.8240 
X57.9999 Y15.9659 
X57.8759 Y16.0899 
X57.7340 Y16.1930 
X57.5777 Y16.2727 
X57.4109 Y16.3269 
X57.2377 Y16.3543 
X57.0623 
X56.8891 Y16.3269 
X56.7223 Y16.2727 
X56.5660 Y16.1930 
X56.4241 Y16.0899 
X56.3001 Y15.9659 
X56.1970 Y15.8240 
X56.1173 Y15.6677 
X56.0631 Y15.5009 
X56.0357 Y15.3277 
Y15.1523 
X56.0631 Y14.9791 
X56.1173 Y14.8123 
X56.1970 Y14.6560 
X56.3001 Y14.5141 
X56.4241 Y14.3901 
G00 Z2.5400  
G00 X63.9201 Y14.5141 
G01 Z-0.1778 F254   
G01 X64.0441 Y14.3901 F508   
G01 X64.1860 Y14.2870 
X64.3423 Y14.2073 
X64.5091 Y14.1531 
X64.6823 Y14.1257 
X64.8577 
X65.0309 Y14.1531 
X65.1977 Y14.2073 
X65.3540 Y14.2870 
X65.4959 Y14.3901 
X65.6199 Y14.5141 
X65.7230 Y14.6560 
X65.8027 Y14.8123 
X65.8569 Y14.9791 
X65.8843 Y15.1523 
Y15.3277 
X65.8569 Y15.5009 
X65.8027 Y15.6677 
X65.7230 Y15.8240 
X65.6199 Y15.9659 
X65.4959 Y16.0899 
X65.3540 Y16.1930 
X65.1977 Y16.2727 
X65.0309 Y16.3269 
X64.8577 Y16.3543 
X64.6823 
X64.5091 Y16.3269 
X64.3423 Y16.2727 
X64.1860 Y16.1930 
X64.0441 Y16.0899 
X63.9201 Y15.9659 
X63.8170 Y15.8240 
X63.7373 Y15.6677 
X63.6831 Y15.5009 
X63.6557 Y15.3277 
Y15.1523 
X63.6831 Y14.9791 
X63.7373 Y14.8123 
X63.8170 Y14.6560 
X63.9201 Y14.5141 
G00 Z2.5400  
G00 X64.0441 Y11.0099 
G01 Z-0.1778 F254   
G01 X63.9201 Y10.8859 F508   
G01 X63.8170 Y10.7440 
X63.7373 Y10.5877 
X63.6831 Y10.4209 
X63.6557 Y10.2477 
Y10.0723 
X63.6831 Y9.8991  
X63.7373 Y9.7323  
X63.8170 Y9.5760  
X63.9201 Y9.4341  
X64.0441 Y9.3101  
X64.1860 Y9.2070  
X64.3423 Y9.1273  
X64.5091 Y9.0731  
X64.6823 Y9.0457  
X64.8577 
X65.0309 Y9.0731  
X65.1977 Y9.1273  
X65.3540 Y9.2070  
X65.4959 Y9.3101  
X65.6199 Y9.4341  
X65.7230 Y9.5760  
X65.8027 Y9.7323  
X65.8569 Y9.8991  
X65.8843 Y10.0723 
Y10.2477 
X65.8569 Y10.4209 
X65.8027 Y10.5877 
X65.7230 Y10.7440 
X65.6199 Y10.8859 
X65.4959 Y11.0099 
X65.3540 Y11.1130 
X65.1977 Y11.1927 
X65.0309 Y11.2469 
X64.8577 Y11.2743 
X64.6823 
X64.5091 Y11.2469 
X64.3423 Y11.1927 
X64.1860 Y11.1130 
X64.0441 Y11.0099 
G00 Z2.5400  
G00 X69.4968 Y9.1219  
G01 Z-0.1778 F254   
G01 X69.3641 Y8.9892  F508   
G01 X69.2599 Y8.8332  
X69.1881 Y8.6598  
X69.1515 Y8.4758  
Y8.2882  
X69.1881 Y8.1042  
X69.2599 Y7.9308  
X69.3641 Y7.7748  
X69.4968 Y7.6421  
X69.6528 Y7.5379  
X69.8262 Y7.4661  
X70.0102 Y7.4295  
X70.1978 
X70.3818 Y7.4661  
X70.5552 Y7.5379  
X70.7112 Y7.6421  
X70.8439 Y7.7748  
X70.9481 Y7.9308  
X71.0199 Y8.1042  
X71.0565 Y8.2882  
Y8.4758  
X71.0199 Y8.6598  
X70.9481 Y8.8332  
X70.8439 Y8.9892  
X70.7112 Y9.1219  
X70.5552 Y9.2261  
X70.3818 Y9.2979  
X70.3548 Y9.3033  
Y16.2339 
X70.3334 Y16.3138 
X70.2920 Y16.3855 
X66.9265 Y19.7510 
X66.8680 Y19.8095 
X66.7963 Y19.8509 
X66.7164 Y19.8723 
X60.1377 
X55.3053 Y24.7047 
Y25.5049 
X55.2839 Y25.5848 
X55.2425 Y25.6565 
X55.1840 Y25.7150 
X51.6223 Y29.2767 
Y39.2844 
X51.6009 Y39.3643 
X51.5595 Y39.4360 
X51.5010 Y39.4945 
X48.6378 Y42.3577 
Y43.6099 
X48.6961 Y43.6341 
X48.8469 Y43.7348 
X48.9752 Y43.8631 
X49.0759 Y44.0139 
X49.1453 Y44.1814 
X49.1807 Y44.3593 
Y44.5407 
X49.1453 Y44.7186 
X49.0759 Y44.8861 
X48.9752 Y45.0369 
X48.8469 Y45.1652 
X48.6961 Y45.2659 
X48.5286 Y45.3353 
X48.3507 Y45.3707 
X48.1693 
X47.9914 Y45.3353 
X47.9696 Y45.3263 
X42.7994 Y50.4965 
X42.7049 Y50.5511 
X42.5995 Y50.5793 
X38.4182 
X38.3268 Y50.7160 
X38.2065 Y50.8363 
X38.0649 Y50.9309 
X37.9076 Y50.9961 
X37.7406 Y51.0293 
X37.5704 
X37.4034 Y50.9961 
X37.2461 Y50.9309 
X37.1045 Y50.8363 
X36.9842 Y50.7160 
X36.8896 Y50.5744 
X36.8244 Y50.4171 
X36.7912 Y50.2501 
Y50.0799 
X36.8244 Y49.9129 
X36.8896 Y49.7556 
X36.9842 Y49.6140 
X37.1045 Y49.4937 
X37.2461 Y49.3991 
X37.4034 Y49.3339 
X37.5704 Y49.3007 
X37.7406 
X37.9076 Y49.3339 
X38.0649 Y49.3991 
X38.2065 Y49.4937 
X38.3268 Y49.6140 
X38.4182 Y49.7507 
X42.3734 
X47.3837 Y44.7404 
X47.3747 Y44.7186 
X47.3393 Y44.5407 
Y44.3593 
X47.3747 Y44.1814 
X47.4441 Y44.0139 
X47.5448 Y43.8631 
X47.6731 Y43.7348 
X47.8239 Y43.6341 
X47.9914 Y43.5647 
X48.0092 Y43.5611 
Y42.1861 
X48.0306 Y42.1062 
X48.0720 Y42.0345 
X50.9937 Y39.1128 
Y29.1051 
X51.0151 Y29.0252 
X51.0565 Y28.9535 
X54.6767 Y25.3333 
Y24.5331 
X54.6981 Y24.4532 
X54.7395 Y24.3815 
X59.7560 Y19.3650 
X59.8145 Y19.3065 
X59.8862 Y19.2651 
X59.9661 Y19.2437 
X66.5448 
X69.7262 Y16.0623 
Y9.2565  
X69.6528 Y9.2261  
X69.4968 Y9.1219  
G00 Z2.5400  
G00 X69.5824 Y3.3026  
G01 Z-0.1778 F254   
G01 X69.4684 Y3.1886  F508   
G01 X69.3788 Y3.0546  
X69.3171 Y2.9057  
X69.2857 Y2.7476  
Y2.5864  
X69.3171 Y2.4283  
X69.3788 Y2.2794  
X69.4684 Y2.1454  
X69.5824 Y2.0314  
X69.7164 Y1.9418  
X69.8653 Y1.8801  
X70.0234 Y1.8487  
X70.1846 
X70.3427 Y1.8801  
X70.4916 Y1.9418  
X70.6256 Y2.0314  
X70.7396 Y2.1454  
X70.8292 Y2.2794  
X70.8909 Y2.4283  
X70.9223 Y2.5864  
Y2.7476  
X70.8909 Y2.9057  
X70.8292 Y3.0546  
X70.7396 Y3.1886  
X70.6256 Y3.3026  
X70.4916 Y3.3922  
X70.3427 Y3.4539  
X70.1846 Y3.4853  
X70.0234 
X69.8653 Y3.4539  
X69.7164 Y3.3922  
X69.5824 Y3.3026  
G00 Z2.5400  
G00 X72.3641 Y3.3136  
G01 Z-0.1778 F254   
G01 X72.2531 Y3.1475  F508   
G01 X72.1767 Y2.9629  
X72.1377 Y2.7669  
Y2.5671  
X72.1767 Y2.3711  
X72.2531 Y2.1865  
X72.3641 Y2.0204  
X72.5054 Y1.8791  
X72.6715 Y1.7681  
X72.8561 Y1.6917  
X73.0521 Y1.6527  
X73.2519 
X73.4479 Y1.6917  
X73.6325 Y1.7681  
X73.7986 Y1.8791  
X73.9399 Y2.0204  
X74.0509 Y2.1865  
X74.1273 Y2.3711  
X74.1663 Y2.5671  
Y2.7669  
X74.1273 Y2.9629  
X74.0509 Y3.1475  
X73.9399 Y3.3136  
X73.8728 Y3.3806  
X74.9539 Y4.4617  
X91.5431 
X92.6242 Y3.3806  
X92.5571 Y3.3136  
X92.4461 Y3.1475  
X92.3697 Y2.9629  
X92.3307 Y2.7669  
Y2.5671  
X92.3697 Y2.3711  
X92.4461 Y2.1865  
X92.5571 Y2.0204  
X92.6984 Y1.8791  
X92.8645 Y1.7681  
X93.0491 Y1.6917  
X93.2451 Y1.6527  
X93.4449 
X93.6409 Y1.6917  
X93.8255 Y1.7681  
X93.9916 Y1.8791  
X94.1329 Y2.0204  
X94.2439 Y2.1865  
X94.3203 Y2.3711  
X94.3593 Y2.5671  
Y2.7669  
X94.3203 Y2.9629  
X94.2439 Y3.1475  
X94.1329 Y3.3136  
X93.9916 Y3.4549  
X93.8255 Y3.5659  
X93.6409 Y3.6423  
X93.4449 Y3.6813  
X93.3539 
X91.9177 Y5.1175  
X91.8346 Y5.1655  
X91.7420 Y5.1903  
X74.7550 
X74.6624 Y5.1655  
X74.5793 Y5.1175  
X74.5115 Y5.0497  
X73.1431 Y3.6813  
X73.0521 
X72.8561 Y3.6423  
X72.6715 Y3.5659  
X72.5054 Y3.4549  
X72.3641 Y3.3136  
G00 Z2.5400  
G00 X74.9041 Y3.3136  
G01 Z-0.1778 F254   
G01 X74.7931 Y3.1475  F508   
G01 X74.7167 Y2.9629  
X74.6777 Y2.7669  
Y2.5671  
X74.7167 Y2.3711  
X74.7931 Y2.1865  
X74.9041 Y2.0204  
X75.0454 Y1.8791  
X75.2115 Y1.7681  
X75.3961 Y1.6917  
X75.5921 Y1.6527  
X75.7919 
X75.9879 Y1.6917  
X76.1724 Y1.7681  
X76.3386 Y1.8791  
X76.4799 Y2.0204  
X76.5909 Y2.1865  
X76.6673 Y2.3711  
X76.7063 Y2.5671  
Y2.7669  
X76.6673 Y2.9629  
X76.5909 Y3.1475  
X76.4799 Y3.3136  
X76.3386 Y3.4549  
X76.1724 Y3.5659  
X75.9879 Y3.6423  
X75.7919 Y3.6813  
X75.5921 
X75.3961 Y3.6423  
X75.2115 Y3.5659  
X75.0454 Y3.4549  
X74.9041 Y3.3136  
G00 Z2.5400  
G00 X77.4441 Y3.3136  
G01 Z-0.1778 F254   
G01 X77.3331 Y3.1475  F508   
G01 X77.2567 Y2.9629  
X77.2177 Y2.7669  
Y2.5671  
X77.2567 Y2.3711  
X77.3331 Y2.1865  
X77.4441 Y2.0204  
X77.5854 Y1.8791  
X77.7515 Y1.7681  
X77.9361 Y1.6917  
X78.1321 Y1.6527  
X78.3319 
X78.5279 Y1.6917  
X78.7125 Y1.7681  
X78.8786 Y1.8791  
X79.0199 Y2.0204  
X79.1309 Y2.1865  
X79.2073 Y2.3711  
X79.2463 Y2.5671  
Y2.7669  
X79.2073 Y2.9629  
X79.1309 Y3.1475  
X79.0199 Y3.3136  
X78.8786 Y3.4549  
X78.7125 Y3.5659  
X78.5279 Y3.6423  
X78.3319 Y3.6813  
X78.1321 
X77.9361 Y3.6423  
X77.7515 Y3.5659  
X77.5854 Y3.4549  
X77.4441 Y3.3136  
G00 Z2.5400  
G00 X79.3725 Y5.9715  
G01 Z-0.1778 F254   
G01 X79.4442 Y5.9301  F508   
G01 X79.5241 Y5.9087  
X95.9899 
X96.0698 Y5.9301  
X96.1415 Y5.9715  
X96.2000 Y6.0300  
X99.4385 Y9.2685  
X99.4799 Y9.3402  
X99.5013 Y9.4201  
Y11.1539 
X99.4799 Y11.2338 
X99.4385 Y11.3055 
X99.3800 Y11.3640 
X98.0644 Y12.6796 
X98.0757 Y12.7363 
Y12.9177 
X98.0403 Y13.0956 
X97.9709 Y13.2631 
X97.8702 Y13.4139 
X97.7419 Y13.5422 
X97.5911 Y13.6429 
X97.4236 Y13.7123 
X97.2457 Y13.7477 
X97.0643 
X96.8864 Y13.7123 
X96.7189 Y13.6429 
X96.5681 Y13.5422 
X96.4398 Y13.4139 
X96.3391 Y13.2631 
X96.2697 Y13.0956 
X96.2343 Y12.9177 
Y12.7363 
X96.2697 Y12.5584 
X96.3391 Y12.3909 
X96.4398 Y12.2401 
X96.5681 Y12.1118 
X96.7189 Y12.0111 
X96.8864 Y11.9417 
X97.0643 Y11.9063 
X97.2457 
X97.4236 Y11.9417 
X97.5911 Y12.0111 
X97.7419 Y12.1118 
X98.8727 Y10.9823 
Y9.5917  
X95.8183 Y6.5373  
X79.6957 
X71.5613 Y14.6717 
Y43.6375 
X71.7069 Y43.7348 
X71.8352 Y43.8631 
X71.9359 Y44.0139 
X72.0053 Y44.1814 
X72.0407 Y44.3593 
Y44.5407 
X72.0053 Y44.7186 
X71.9359 Y44.8861 
X71.8352 Y45.0369 
X71.7069 Y45.1652 
X71.5561 Y45.2659 
X71.3886 Y45.3353 
X71.2107 Y45.3707 
X71.0293 
X70.8514 Y45.3353 
X70.6839 Y45.2659 
X70.5331 Y45.1652 
X70.4048 Y45.0369 
X70.3041 Y44.8861 
X70.2347 Y44.7186 
X70.1993 Y44.5407 
Y44.3593 
X70.2347 Y44.1814 
X70.3041 Y44.0139 
X70.4048 Y43.8631 
X70.5331 Y43.7348 
X70.6839 Y43.6341 
X70.8514 Y43.5647 
X70.9327 Y43.5485 
Y14.5001 
X70.9541 Y14.4202 
X70.9955 Y14.3485 
X71.0540 Y14.2900 
X79.3725 Y5.9715  
G00 Z2.5400  
G00 X79.5241 Y7.7748  
G01 Z-0.1778 F254   
G01 X79.6568 Y7.6421  F508   
G01 X79.8128 Y7.5379  
X79.9862 Y7.4661  
X80.1702 Y7.4295  
X80.3578 
X80.5418 Y7.4661  
X80.6755 Y7.5215  
X80.9581 Y7.2389  
X81.0304 Y7.1971  
X81.1112 Y7.1755  
X84.4033 
X84.4414 Y7.1535  
X84.5340 Y7.1287  
X84.6300 
X84.7226 Y7.1535  
X84.7607 Y7.1755  
X94.4028 
X94.4835 Y7.1971  
X94.5559 Y7.2389  
X94.6151 Y7.2980  
X96.7678 Y9.4508  
X96.8864 Y9.4017  
X97.0643 Y9.3663  
X97.2457 
X97.4236 Y9.4017  
X97.5911 Y9.4711  
X97.7419 Y9.5718  
X97.8702 Y9.7001  
X97.9709 Y9.8509  
X98.0403 Y10.0184 
X98.0757 Y10.1963 
Y10.3777 
X98.0403 Y10.5556 
X97.9709 Y10.7231 
X97.8702 Y10.8739 
X97.7419 Y11.0022 
X97.5911 Y11.1029 
X97.4236 Y11.1723 
X97.2457 Y11.2077 
X97.0643 
X96.8864 Y11.1723 
X96.7189 Y11.1029 
X96.5681 Y11.0022 
X96.4398 Y10.8739 
X96.3391 Y10.7231 
X96.2697 Y10.5556 
X96.2343 Y10.3777 
Y10.1963 
X96.2697 Y10.0184 
X96.3188 Y9.8998  
X94.2295 Y7.8105  
X84.9463 
Y23.3441 
X88.9517 Y27.3495 
X89.0989 Y27.2511 
X89.2664 Y27.1817 
X89.4443 Y27.1463 
X89.6257 
X89.8036 Y27.1817 
X89.9711 Y27.2511 
X90.1219 Y27.3518 
X90.2502 Y27.4801 
X90.3509 Y27.6309 
X90.3807 Y27.7027 
X96.3093 
X96.3391 Y27.6309 
X96.4398 Y27.4801 
X96.5681 Y27.3518 
X96.7189 Y27.2511 
X96.8864 Y27.1817 
X97.0643 Y27.1463 
X97.2457 
X97.4236 Y27.1817 
X97.5911 Y27.2511 
X97.7419 Y27.3518 
X97.8702 Y27.4801 
X97.9709 Y27.6309 
X98.0403 Y27.7984 
X98.0757 Y27.9763 
Y28.1577 
X98.0403 Y28.3356 
X97.9709 Y28.5031 
X97.8702 Y28.6539 
X97.7419 Y28.7822 
X97.5911 Y28.8829 
X97.4236 Y28.9523 
X97.2457 Y28.9877 
X97.0643 
X96.8864 Y28.9523 
X96.7189 Y28.8829 
X96.5681 Y28.7822 
X96.4398 Y28.6539 
X96.3391 Y28.5031 
X96.3093 Y28.4313 
X90.3807 
X90.3509 Y28.5031 
X90.2502 Y28.6539 
X90.1219 Y28.7822 
X89.9711 Y28.8829 
X89.8036 Y28.9523 
X89.6257 Y28.9877 
X89.4443 
X89.2664 Y28.9523 
X89.0989 Y28.8829 
X88.9481 Y28.7822 
X88.8198 Y28.6539 
X88.7191 Y28.5031 
X88.6497 Y28.3356 
X88.6143 Y28.1577 
Y28.0425 
X84.2905 Y23.7187 
X84.2425 Y23.6356 
X84.2177 Y23.5430 
Y7.8105  
X81.2845 
X81.1245 Y7.9705  
X81.1799 Y8.1042  
X81.2165 Y8.2882  
Y8.4758  
X81.1799 Y8.6598  
X81.1081 Y8.8332  
X81.0039 Y8.9892  
X80.8712 Y9.1219  
X80.7152 Y9.2261  
X80.5418 Y9.2979  
X80.3578 Y9.3345  
X80.1702 
X79.9862 Y9.2979  
X79.8128 Y9.2261  
X79.6568 Y9.1219  
X79.5241 Y8.9892  
X79.4199 Y8.8332  
X79.3481 Y8.6598  
X79.3115 Y8.4758  
Y8.2882  
X79.3481 Y8.1042  
X79.4199 Y7.9308  
X79.5241 Y7.7748  
G00 Z2.5400  
G00 X85.9285 Y9.5453  
G01 Z-0.1778 F254   
G01 X86.0628 Y9.4110  F508   
G01 X86.2207 Y9.3054  
X86.3962 Y9.2328  
X86.5825 Y9.1957  
X86.7725 
X86.9588 Y9.2328  
X87.1343 Y9.3054  
X87.2922 Y9.4110  
X87.4265 Y9.5453  
X87.5320 Y9.7032  
X87.6047 Y9.8787  
X87.6418 Y10.0650 
Y10.2550 
X87.6047 Y10.4413 
X87.5320 Y10.6168 
X87.4265 Y10.7747 
X87.2922 Y10.9090 
X87.1343 Y11.0145 
X86.9918 Y11.0736 
Y20.3168 
X88.9475 Y22.2725 
X89.0989 Y22.1711 
X89.2664 Y22.1017 
X89.4443 Y22.0663 
X89.6257 
X89.8036 Y22.1017 
X89.9711 Y22.1711 
X90.1219 Y22.2718 
X90.2502 Y22.4001 
X90.3509 Y22.5509 
X90.4203 Y22.7184 
X90.4557 Y22.8963 
Y23.0777 
X90.4203 Y23.2556 
X90.3509 Y23.4231 
X90.2502 Y23.5739 
X90.1219 Y23.7022 
X89.9711 Y23.8029 
X89.8036 Y23.8723 
X89.6257 Y23.9077 
X89.4443 
X89.2664 Y23.8723 
X89.0989 Y23.8029 
X88.9481 Y23.7022 
X88.8198 Y23.5739 
X88.7191 Y23.4231 
X88.6497 Y23.2556 
X88.6143 Y23.0777 
Y22.8963 
X88.6256 Y22.8396 
X86.4845 Y20.6985 
X86.4260 Y20.6400 
X86.3846 Y20.5683 
X86.3632 Y20.4884 
Y11.0736 
X86.2207 Y11.0145 
X86.0628 Y10.9090 
X85.9285 Y10.7747 
X85.8229 Y10.6168 
X85.7503 Y10.4413 
X85.7132 Y10.2550 
Y10.0650 
X85.7503 Y9.8787  
X85.8229 Y9.7032  
X85.9285 Y9.5453  
G00 Z2.5400  
G00 X88.8198 Y9.7001  
G01 Z-0.1778 F254   
G01 X88.9481 Y9.5718  F508   
G01 X89.0989 Y9.4711  
X89.2664 Y9.4017  
X89.4443 Y9.3663  
X89.6257 
X89.8036 Y9.4017  
X89.9711 Y9.4711  
X90.1219 Y9.5718  
X90.2502 Y9.7001  
X90.3509 Y9.8509  
X90.4203 Y10.0184 
X90.4557 Y10.1963 
Y10.3777 
X90.4203 Y10.5556 
X90.3509 Y10.7231 
X90.2502 Y10.8739 
X90.1219 Y11.0022 
X89.9711 Y11.1029 
X89.8036 Y11.1723 
X89.6257 Y11.2077 
X89.4443 
X89.2664 Y11.1723 
X89.0989 Y11.1029 
X88.9481 Y11.0022 
X88.8198 Y10.8739 
X88.7191 Y10.7231 
X88.6497 Y10.5556 
X88.6143 Y10.3777 
Y10.1963 
X88.6497 Y10.0184 
X88.7191 Y9.8509  
X88.8198 Y9.7001  
G00 Z2.5400  
G00 X88.8198 Y12.2401 
G01 Z-0.1778 F254   
G01 X88.9481 Y12.1118 F508   
G01 X89.0989 Y12.0111 
X89.2664 Y11.9417 
X89.4443 Y11.9063 
X89.6257 
X89.8036 Y11.9417 
X89.9711 Y12.0111 
X90.1219 Y12.1118 
X90.2502 Y12.2401 
X90.3509 Y12.3909 
X90.4203 Y12.5584 
X90.4557 Y12.7363 
Y12.9177 
X90.4203 Y13.0956 
X90.3509 Y13.2631 
X90.2502 Y13.4139 
X90.1219 Y13.5422 
X89.9711 Y13.6429 
X89.8036 Y13.7123 
X89.6257 Y13.7477 
X89.4443 
X89.2664 Y13.7123 
X89.0989 Y13.6429 
X88.9481 Y13.5422 
X88.8198 Y13.4139 
X88.7191 Y13.2631 
X88.6497 Y13.0956 
X88.6143 Y12.9177 
Y12.7363 
X88.6497 Y12.5584 
X88.7191 Y12.3909 
X88.8198 Y12.2401 
G00 Z2.5400  
G00 X88.8198 Y14.7801 
G01 Z-0.1778 F254   
G01 X88.9481 Y14.6518 F508   
G01 X89.0989 Y14.5511 
X89.2664 Y14.4817 
X89.4443 Y14.4463 
X89.6257 
X89.8036 Y14.4817 
X89.9711 Y14.5511 
X90.1219 Y14.6518 
X90.2502 Y14.7801 
X90.3509 Y14.9309 
X90.4203 Y15.0984 
X90.4557 Y15.2763 
Y15.4577 
X90.4203 Y15.6356 
X90.3509 Y15.8031 
X90.2502 Y15.9539 
X90.1219 Y16.0822 
X89.9711 Y16.1829 
X89.8036 Y16.2523 
X89.6257 Y16.2877 
X89.4443 
X89.2664 Y16.2523 
X89.0989 Y16.1829 
X88.9481 Y16.0822 
X88.8198 Y15.9539 
X88.7191 Y15.8031 
X88.6497 Y15.6356 
X88.6143 Y15.4577 
Y15.2763 
X88.6497 Y15.0984 
X88.7191 Y14.9309 
X88.8198 Y14.7801 
G00 Z2.5400  
G00 X88.8305 Y17.2986 
G01 Z-0.1778 F254   
G01 X88.8491 Y17.2908 F508   
G01 X88.9481 Y17.1918 
X89.0989 Y17.0911 
X89.2664 Y17.0217 
X89.4443 Y16.9863 
X89.6257 
X89.8036 Y17.0217 
X89.9711 Y17.0911 
X89.9758 Y17.0942 
X96.6524 
X96.7040 Y17.1010 
X96.7189 Y17.0911 
X96.8864 Y17.0217 
X97.0643 Y16.9863 
X97.2457 
X97.4236 Y17.0217 
X97.5911 Y17.0911 
X97.7419 Y17.1918 
X97.8702 Y17.3201 
X97.9709 Y17.4709 
X98.0403 Y17.6384 
X98.0757 Y17.8163 
Y17.8239 
X98.2026 Y17.9892 
X98.3349 Y18.2185 
X98.4362 Y18.4630 
X98.5047 Y18.7187 
X98.5393 Y18.9811 
Y19.2459 
X98.5047 Y19.5083 
X98.4362 Y19.7640 
X98.3349 Y20.0085 
X98.2188 Y20.2097 
X102.9815 
X103.0741 Y20.2345 
X103.1572 Y20.2825 
X103.2250 Y20.3503 
X105.5226 Y22.6480 
X105.6160 Y22.6227 
X105.7120 
X105.8046 Y22.6475 
X105.8877 Y22.6955 
X105.9555 Y22.7633 
X106.0035 Y22.8464 
X106.0283 Y22.9390 
Y23.0350 
X106.0035 Y23.1276 
X107.7396 Y24.8649 
X107.7665 Y24.8279 
X107.8859 Y24.7085 
X108.0226 Y24.6092 
X108.1731 Y24.5325 
X108.3337 Y24.4803 
X108.5005 Y24.4539 
X108.6695 
X108.8363 Y24.4803 
X108.9969 Y24.5325 
X109.1474 Y24.6092 
X109.2841 Y24.7085 
X109.4035 Y24.8279 
X109.5028 Y24.9646 
X109.5795 Y25.1151 
X109.6317 Y25.2757 
X109.6581 Y25.4425 
Y25.6115 
X109.6317 Y25.7783 
X109.5795 Y25.9389 
X109.5028 Y26.0894 
X109.4035 Y26.2261 
X109.2841 Y26.3455 
X109.1474 Y26.4448 
X108.9969 Y26.5215 
X108.8363 Y26.5737 
X108.6695 Y26.6001 
X108.5005 
X108.3337 Y26.5737 
X108.1731 Y26.5215 
X108.0603 Y26.4640 
Y46.4030 
X108.0355 Y46.4956 
X107.9875 Y46.5787 
X107.9197 Y46.6465 
X103.6017 Y50.9645 
X103.5186 Y51.0125 
X103.4260 Y51.0373 
X102.4915 
X102.4853 Y51.0686 
X102.4159 Y51.2361 
X102.3152 Y51.3869 
X102.1869 Y51.5152 
X102.0361 Y51.6159 
X101.9643 Y51.6457 
Y52.9817 
X102.0452 Y53.0152 
X102.1991 Y53.1180 
X102.3300 Y53.2489 
X102.4328 Y53.4028 
X102.5037 Y53.5739 
X102.5398 Y53.7554 
Y53.9406 
X102.5037 Y54.1221 
X102.4888 Y54.1581 
X106.4676 Y58.1369 
X106.4775 Y58.1435 
X106.5014 Y58.1707 
X106.5270 Y58.1963 
X106.5329 Y58.2066 
X106.5408 Y58.2155 
X106.5569 Y58.2480 
X106.5750 Y58.2794 
X106.5780 Y58.2909 
X106.5833 Y58.3015 
X106.5904 Y58.3370 
X106.5998 Y58.3720 
Y58.3839 
Y58.3956 
Y58.4317 
Y58.4680 
X106.5967 Y58.4794 
Y58.4913 
X106.5843 Y58.5256 
X106.5750 Y58.5606 
X106.5690 Y58.5709 
X106.5652 Y58.5822 
X106.5451 Y58.6123 
X106.5270 Y58.6437 
X106.5186 Y58.6521 
X106.4728 Y58.7208 
Y61.5160 
X106.4480 Y61.6086 
X106.4000 Y61.6917 
X101.8831 Y66.2086 
X101.7826 Y66.3593 
X101.7645 Y66.3907 
X101.7561 Y66.3991 
X101.7495 Y66.4090 
X101.7223 Y66.4329 
X98.8295 Y69.3256 
X98.8690 Y69.4031 
X98.9256 Y69.5774 
X98.9543 Y69.7584 
Y69.9416 
X98.9256 Y70.1226 
X98.8690 Y70.2969 
X98.7858 Y70.4602 
X98.6781 Y70.6085 
X98.5485 Y70.7381 
X98.4002 Y70.8458 
X98.2369 Y70.9290 
X98.0626 Y70.9856 
X97.8816 Y71.0143 
X97.6984 
X97.5174 Y70.9856 
X97.3431 Y70.9290 
X97.1798 Y70.8458 
X97.0315 Y70.7381 
X96.9019 Y70.6085 
X96.7942 Y70.4602 
X96.7110 Y70.2969 
X96.6544 Y70.1226 
X96.6257 Y69.9416 
Y69.7584 
X96.6544 Y69.5774 
X96.7110 Y69.4031 
X96.7942 Y69.2398 
X96.9019 Y69.0915 
X97.0315 Y68.9619 
X97.1798 Y68.8542 
X97.3431 Y68.7710 
X97.5174 Y68.7144 
X97.6984 Y68.6857 
X97.8816 
X98.0626 Y68.7144 
X98.2369 Y68.7710 
X98.3144 Y68.8105 
X101.1899 Y65.9349 
X101.2904 Y65.7842 
X101.3085 Y65.7528 
X101.3169 Y65.7444 
X101.3235 Y65.7345 
X101.3507 Y65.7106 
X105.7442 Y61.3171 
Y58.6466 
Y58.6349 
Y58.5988 
Y58.5625 
X105.7473 Y58.5511 
Y58.5392 
X105.7596 Y58.5049 
X105.7690 Y58.4699 
X101.9999 Y54.6996 
X101.8741 Y54.7517 
X101.6926 Y54.7878 
X101.5074 
X101.3259 Y54.7517 
X101.1548 Y54.6808 
X101.0009 Y54.5780 
X100.8700 Y54.4471 
X100.7672 Y54.2932 
X100.6963 Y54.1221 
X100.6602 Y53.9406 
Y53.7554 
X100.6963 Y53.5739 
X100.7672 Y53.4028 
X100.8700 Y53.2489 
X101.0009 Y53.1180 
X101.1548 Y53.0152 
X101.2357 Y52.9817 
Y51.6457 
X101.1639 Y51.6159 
X101.0131 Y51.5152 
X100.8848 Y51.3869 
X100.7841 Y51.2361 
X100.7147 Y51.0686 
X100.6793 Y50.8907 
Y50.7093 
X100.7147 Y50.5314 
X100.7841 Y50.3639 
X100.8848 Y50.2131 
X101.0131 Y50.0848 
X101.1639 Y49.9841 
X101.3314 Y49.9147 
X101.5093 Y49.8793 
X101.6907 
X101.8686 Y49.9147 
X102.0361 Y49.9841 
X102.1869 Y50.0848 
X102.3152 Y50.2131 
X102.3790 Y50.3087 
X103.2271 
X107.3317 Y46.2041 
Y26.0084 
Y25.9975 
Y25.9606 
Y25.9235 
X107.3346 Y25.9128 
Y25.9018 
X107.3469 Y25.8667 
X107.3565 Y25.8309 
X107.3621 Y25.8213 
X107.3656 Y25.8108 
X107.3860 Y25.7799 
X107.3960 Y25.7625 
Y25.7527 
X107.3971 Y25.6568 
X107.4215 Y25.5772 
X105.2816 Y23.4373 
X105.2137 Y23.3694 
X102.7826 Y20.9383 
X97.9340 
X97.8702 Y21.0339 
X97.7419 Y21.1622 
X97.5911 Y21.2629 
X97.4236 Y21.3323 
X97.2457 Y21.3677 
X97.0643 
X96.8864 Y21.3323 
X96.7189 Y21.2629 
X96.5681 Y21.1622 
X96.5387 Y21.1328 
X90.1513 
X90.1219 Y21.1622 
X89.9711 Y21.2629 
X89.8036 Y21.3323 
X89.6257 Y21.3677 
X89.4443 
X89.2664 Y21.3323 
X89.0989 Y21.2629 
X88.9481 Y21.1622 
X88.8198 Y21.0339 
X88.7191 Y20.8831 
X88.7088 Y20.8582 
X88.6012 Y20.7961 
X88.3912 Y20.6349 
X88.2041 Y20.4478 
X88.0429 Y20.2378 
X87.9106 Y20.0085 
X87.8093 Y19.7640 
X87.7408 Y19.5083 
X87.7062 Y19.2459 
Y18.9811 
X87.7408 Y18.7187 
X87.8093 Y18.4630 
X87.9106 Y18.2185 
X88.0429 Y17.9892 
X88.2041 Y17.7792 
X88.3912 Y17.5921 
X88.6012 Y17.4309 
X88.8305 Y17.2986 
G00 Z2.5400  
G00 X88.9481 Y24.8118 
G01 Z-0.1778 F254   
G01 X89.0989 Y24.7111 F508   
G01 X89.2664 Y24.6417 
X89.4443 Y24.6063 
X89.6257 
X89.8036 Y24.6417 
X89.9711 Y24.7111 
X90.1219 Y24.8118 
X90.2502 Y24.9401 
X90.3509 Y25.0909 
X90.4203 Y25.2584 
X90.4557 Y25.4363 
Y25.6177 
X90.4203 Y25.7956 
X90.3509 Y25.9631 
X90.2502 Y26.1139 
X90.1219 Y26.2422 
X89.9711 Y26.3429 
X89.8036 Y26.4123 
X89.6257 Y26.4477 
X89.4443 
X89.2664 Y26.4123 
X89.0989 Y26.3429 
X88.9481 Y26.2422 
X88.8198 Y26.1139 
X88.7191 Y25.9631 
X88.6497 Y25.7956 
X88.6143 Y25.6177 
Y25.4363 
X88.6497 Y25.2584 
X88.7191 Y25.0909 
X88.8198 Y24.9401 
X88.9481 Y24.8118 
G00 Z2.5400  
G00 X96.4398 Y24.9401 
G01 Z-0.1778 F254   
G01 X96.5681 Y24.8118 F508   
G01 X96.7189 Y24.7111 
X96.8864 Y24.6417 
X97.0643 Y24.6063 
X97.2457 
X97.4236 Y24.6417 
X97.5911 Y24.7111 
X97.7419 Y24.8118 
X97.8702 Y24.9401 
X97.9709 Y25.0909 
X98.0403 Y25.2584 
X98.0757 Y25.4363 
Y25.6177 
X98.0403 Y25.7956 
X97.9709 Y25.9631 
X97.8702 Y26.1139 
X97.7419 Y26.2422 
X97.5911 Y26.3429 
X97.4236 Y26.4123 
X97.2457 Y26.4477 
X97.0643 
X96.8864 Y26.4123 
X96.7189 Y26.3429 
X96.5681 Y26.2422 
X96.4398 Y26.1139 
X96.3391 Y25.9631 
X96.2697 Y25.7956 
X96.2343 Y25.6177 
Y25.4363 
X96.2697 Y25.2584 
X96.3391 Y25.0909 
X96.4398 Y24.9401 
G00 Z2.5400  
G00 X96.5681 Y23.7022 
G01 Z-0.1778 F254   
G01 X96.4398 Y23.5739 F508   
G01 X96.3391 Y23.4231 
X96.2697 Y23.2556 
X96.2343 Y23.0777 
Y22.8963 
X96.2697 Y22.7184 
X96.3391 Y22.5509 
X96.4398 Y22.4001 
X96.5681 Y22.2718 
X96.7189 Y22.1711 
X96.8864 Y22.1017 
X97.0643 Y22.0663 
X97.2457 
X97.4236 Y22.1017 
X97.5911 Y22.1711 
X97.7419 Y22.2718 
X97.8702 Y22.4001 
X97.9709 Y22.5509 
X98.0403 Y22.7184 
X98.0757 Y22.8963 
Y23.0777 
X98.0403 Y23.2556 
X97.9709 Y23.4231 
X97.8702 Y23.5739 
X97.7419 Y23.7022 
X97.5911 Y23.8029 
X97.4236 Y23.8723 
X97.2457 Y23.9077 
X97.0643 
X96.8864 Y23.8723 
X96.7189 Y23.8029 
X96.5681 Y23.7022 
G00 Z2.5400  
G00 X96.5681 Y16.0822 
G01 Z-0.1778 F254   
G01 X96.4398 Y15.9539 F508   
G01 X96.3391 Y15.8031 
X96.2697 Y15.6356 
X96.2343 Y15.4577 
Y15.2763 
X96.2697 Y15.0984 
X96.3391 Y14.9309 
X96.4398 Y14.7801 
X96.5681 Y14.6518 
X96.7189 Y14.5511 
X96.8864 Y14.4817 
X97.0643 Y14.4463 
X97.2457 
X97.4236 Y14.4817 
X97.5911 Y14.5511 
X97.7419 Y14.6518 
X97.8702 Y14.7801 
X97.9709 Y14.9309 
X98.0403 Y15.0984 
X98.0757 Y15.2763 
Y15.4577 
X98.0403 Y15.6356 
X97.9709 Y15.8031 
X97.8702 Y15.9539 
X97.7419 Y16.0822 
X97.5911 Y16.1829 
X97.4236 Y16.2523 
X97.2457 Y16.2877 
X97.0643 
X96.8864 Y16.2523 
X96.7189 Y16.1829 
X96.5681 Y16.0822 
G00 Z2.5400  
G00 X104.1868 Y16.0809 
G01 Z-0.1778 F254   
G01 X104.0861 Y15.9301 F508   
G01 X104.0167 Y15.7626 
X103.9813 Y15.5847 
Y15.4033 
X104.0167 Y15.2254 
X104.0861 Y15.0579 
X104.1868 Y14.9071 
X104.3151 Y14.7788 
X104.4659 Y14.6781 
X104.6334 Y14.6087 
X104.8113 Y14.5733 
X104.9927 
X105.1706 Y14.6087 
X105.3381 Y14.6781 
X105.4889 Y14.7788 
X105.6172 Y14.9071 
X105.7179 Y15.0579 
X105.7873 Y15.2254 
X105.8227 Y15.4033 
Y15.5847 
X105.7873 Y15.7626 
X105.7179 Y15.9301 
X105.6172 Y16.0809 
X105.4889 Y16.2092 
X105.3381 Y16.3099 
X105.1706 Y16.3793 
X104.9927 Y16.4147 
X104.8113 
X104.6334 Y16.3793 
X104.4659 Y16.3099 
X104.3151 Y16.2092 
X104.1868 Y16.0809 
G00 Z2.5400  
G00 X107.7665 Y16.0661 
G01 Z-0.1778 F254   
G01 X107.6672 Y15.9294 F508   
G01 X107.5905 Y15.7789 
X107.5383 Y15.6183 
X107.5119 Y15.4515 
Y15.2825 
X107.5383 Y15.1157 
X107.5905 Y14.9551 
X107.6672 Y14.8046 
X107.7665 Y14.6679 
X107.8859 Y14.5485 
X108.0226 Y14.4492 
X108.1731 Y14.3725 
X108.3337 Y14.3203 
X108.5005 Y14.2939 
X108.6695 
X108.8363 Y14.3203 
X108.9969 Y14.3725 
X109.1474 Y14.4492 
X109.2841 Y14.5485 
X109.4035 Y14.6679 
X109.5028 Y14.8046 
X109.5795 Y14.9551 
X109.6317 Y15.1157 
X109.6581 Y15.2825 
Y15.4515 
X109.6317 Y15.6183 
X109.5795 Y15.7789 
X109.5028 Y15.9294 
X109.4035 Y16.0661 
X109.2841 Y16.1855 
X109.1474 Y16.2848 
X108.9969 Y16.3615 
X108.8363 Y16.4137 
X108.6695 Y16.4401 
X108.5005 
X108.3337 Y16.4137 
X108.1731 Y16.3615 
X108.0226 Y16.2848 
X107.8859 Y16.1855 
X107.7665 Y16.0661 
G00 Z2.5400  
G00 X107.9333 Y12.3511 
G01 Z-0.1778 F254   
G01 X107.7909 Y12.2087 F508   
G01 X107.6791 Y12.0412 
X107.6020 Y11.8552 
X107.5627 Y11.6577 
Y11.4563 
X107.6020 Y11.2588 
X107.6791 Y11.0728 
X107.7909 Y10.9053 
X107.9333 Y10.7629 
X108.1008 Y10.6510 
X108.2868 Y10.5740 
X108.4843 Y10.5347 
X108.6857 
X108.8832 Y10.5740 
X109.0692 Y10.6510 
X109.2367 Y10.7629 
X109.3791 Y10.9053 
X109.4909 Y11.0728 
X109.5680 Y11.2588 
X109.6073 Y11.4563 
Y11.6577 
X109.5680 Y11.8552 
X109.4909 Y12.0412 
X109.3791 Y12.2087 
X109.2367 Y12.3511 
X109.0692 Y12.4629 
X108.8832 Y12.5400 
X108.6857 Y12.5793 
X108.4843 
X108.2868 Y12.5400 
X108.1008 Y12.4629 
X107.9333 Y12.3511 
G00 Z2.5400  
G00 X106.8391 Y12.2087 
G01 Z-0.1778 F254   
G01 X106.6967 Y12.3511 F508   
G01 X106.5292 Y12.4629 
X106.3432 Y12.5400 
X106.1457 Y12.5793 
X105.9443 
X105.7468 Y12.5400 
X105.5608 Y12.4629 
X105.3933 Y12.3511 
X105.2509 Y12.2087 
X105.1390 Y12.0412 
X105.0620 Y11.8552 
X105.0227 Y11.6577 
Y11.4563 
X105.0620 Y11.2588 
X105.1390 Y11.0728 
X105.2509 Y10.9053 
X105.3933 Y10.7629 
X105.5608 Y10.6510 
X105.7468 Y10.5740 
X105.9443 Y10.5347 
X106.1457 
X106.3432 Y10.5740 
X106.5292 Y10.6510 
X106.6967 Y10.7629 
X106.8391 Y10.9053 
X106.9509 Y11.0728 
X107.0280 Y11.2588 
X107.0673 Y11.4563 
Y11.6577 
X107.0280 Y11.8552 
X106.9509 Y12.0412 
X106.8391 Y12.2087 
G00 Z2.5400  
G00 X110.3309 Y12.2087 
G01 Z-0.1778 F254   
G01 X110.2190 Y12.0412 F508   
G01 X110.1420 Y11.8552 
X110.1027 Y11.6577 
Y11.4563 
X110.1420 Y11.2588 
X110.2190 Y11.0728 
X110.3309 Y10.9053 
X110.4733 Y10.7629 
X110.6408 Y10.6510 
X110.8268 Y10.5740 
X111.0243 Y10.5347 
X111.2257 
X111.4232 Y10.5740 
X111.6092 Y10.6510 
X111.7767 Y10.7629 
X111.9191 Y10.9053 
X112.0309 Y11.0728 
X112.1080 Y11.2588 
X112.1473 Y11.4563 
Y11.6577 
X112.1080 Y11.8552 
X112.0309 Y12.0412 
X111.9191 Y12.2087 
X111.7767 Y12.3511 
X111.6092 Y12.4629 
X111.4232 Y12.5400 
X111.2257 Y12.5793 
X111.0243 
X110.8268 Y12.5400 
X110.6408 Y12.4629 
X110.4733 Y12.3511 
X110.3309 Y12.2087 
G00 Z2.5400  
G00 X110.3354 Y3.5659  
G01 Z-0.1778 F254   
G01 X110.1509 Y3.6423  F508   
G01 X109.9549 Y3.6813  
X109.7551 
X109.5591 Y3.6423  
X109.3745 Y3.5659  
X109.2084 Y3.4549  
X109.0671 Y3.3136  
X108.9561 Y3.1475  
X108.8797 Y2.9629  
X108.8407 Y2.7669  
Y2.5671  
X108.8797 Y2.3711  
X108.9561 Y2.1865  
X109.0671 Y2.0204  
X109.2084 Y1.8791  
X109.3745 Y1.7681  
X109.5591 Y1.6917  
X109.7551 Y1.6527  
X109.9549 
X110.1509 Y1.6917  
X110.3354 Y1.7681  
X110.5016 Y1.8791  
X110.6429 Y2.0204  
X110.7539 Y2.1865  
X110.8303 Y2.3711  
X110.8693 Y2.5671  
Y2.7669  
X110.8303 Y2.9629  
X110.7539 Y3.1475  
X110.6429 Y3.3136  
X110.5016 Y3.4549  
X110.3354 Y3.5659  
G00 Z2.5400  
G00 X111.7484 Y3.4549  
G01 Z-0.1778 F254   
G01 X111.6071 Y3.3136  F508   
G01 X111.4961 Y3.1475  
X111.4197 Y2.9629  
X111.3807 Y2.7669  
Y2.5671  
X111.4197 Y2.3711  
X111.4961 Y2.1865  
X111.6071 Y2.0204  
X111.7484 Y1.8791  
X111.9145 Y1.7681  
X112.0991 Y1.6917  
X112.2951 Y1.6527  
X112.4949 
X112.6909 Y1.6917  
X112.8755 Y1.7681  
X113.0416 Y1.8791  
X113.1829 Y2.0204  
X113.2939 Y2.1865  
X113.3703 Y2.3711  
X113.4093 Y2.5671  
Y2.7669  
X113.3703 Y2.9629  
X113.2939 Y3.1475  
X113.1829 Y3.3136  
X113.0416 Y3.4549  
X112.8755 Y3.5659  
X112.6909 Y3.6423  
X112.4949 Y3.6813  
X112.2951 
X112.0991 Y3.6423  
X111.9145 Y3.5659  
X111.7484 Y3.4549  
G00 Z2.5400  
G00 X108.1029 Y3.3136  
G01 Z-0.1778 F254   
G01 X107.9616 Y3.4549  F508   
G01 X107.7955 Y3.5659  
X107.6109 Y3.6423  
X107.4149 Y3.6813  
X107.2151 
X107.0191 Y3.6423  
X106.8345 Y3.5659  
X106.6684 Y3.4549  
X106.5271 Y3.3136  
X106.4161 Y3.1475  
X106.3397 Y2.9629  
X106.3007 Y2.7669  
Y2.5671  
X106.3397 Y2.3711  
X106.4161 Y2.1865  
X106.5271 Y2.0204  
X106.6684 Y1.8791  
X106.8345 Y1.7681  
X107.0191 Y1.6917  
X107.2151 Y1.6527  
X107.4149 
X107.6109 Y1.6917  
X107.7955 Y1.7681  
X107.9616 Y1.8791  
X108.1029 Y2.0204  
X108.2139 Y2.1865  
X108.2903 Y2.3711  
X108.3293 Y2.5671  
Y2.7669  
X108.2903 Y2.9629  
X108.2139 Y3.1475  
X108.1029 Y3.3136  
G00 Z2.5400  
G00 X105.5629 Y3.3136  
G01 Z-0.1778 F254   
G01 X105.4216 Y3.4549  F508   
G01 X105.2554 Y3.5659  
X105.0709 Y3.6423  
X104.8749 Y3.6813  
X104.6751 
X104.4791 Y3.6423  
X104.2945 Y3.5659  
X104.1284 Y3.4549  
X103.9871 Y3.3136  
X103.8761 Y3.1475  
X103.7997 Y2.9629  
X103.7607 Y2.7669  
Y2.5671  
X103.7997 Y2.3711  
X103.8761 Y2.1865  
X103.9871 Y2.0204  
X104.1284 Y1.8791  
X104.2945 Y1.7681  
X104.4791 Y1.6917  
X104.6751 Y1.6527  
X104.8749 
X105.0709 Y1.6917  
X105.2554 Y1.7681  
X105.4216 Y1.8791  
X105.5629 Y2.0204  
X105.6739 Y2.1865  
X105.7503 Y2.3711  
X105.7893 Y2.5671  
Y2.7669  
X105.7503 Y2.9629  
X105.6739 Y3.1475  
X105.5629 Y3.3136  
G00 Z2.5400  
G00 X100.4829 Y3.3136  
G01 Z-0.1778 F254   
G01 X100.3416 Y3.4549  F508   
G01 X100.1754 Y3.5659  
X99.9909 Y3.6423  
X99.7949 Y3.6813  
X99.5951 
X99.3991 Y3.6423  
X99.2145 Y3.5659  
X99.0484 Y3.4549  
X98.9071 Y3.3136  
X98.7961 Y3.1475  
X98.7197 Y2.9629  
X98.6807 Y2.7669  
Y2.5671  
X98.7197 Y2.3711  
X98.7961 Y2.1865  
X98.9071 Y2.0204  
X99.0484 Y1.8791  
X99.2145 Y1.7681  
X99.3991 Y1.6917  
X99.5951 Y1.6527  
X99.7949 
X99.9909 Y1.6917  
X100.1754 Y1.7681  
X100.3416 Y1.8791  
X100.4829 Y2.0204  
X100.5939 Y2.1865  
X100.6703 Y2.3711  
X100.7093 Y2.5671  
Y2.7669  
X100.6703 Y2.9629  
X100.5939 Y3.1475  
X100.4829 Y3.3136  
G00 Z2.5400  
G00 X97.9429 Y3.3136  
G01 Z-0.1778 F254   
G01 X97.8016 Y3.4549  F508   
G01 X97.6355 Y3.5659  
X97.4509 Y3.6423  
X97.2549 Y3.6813  
X97.0551 
X96.8591 Y3.6423  
X96.6745 Y3.5659  
X96.5084 Y3.4549  
X96.3671 Y3.3136  
X96.2561 Y3.1475  
X96.1797 Y2.9629  
X96.1407 Y2.7669  
Y2.5671  
X96.1797 Y2.3711  
X96.2561 Y2.1865  
X96.3671 Y2.0204  
X96.5084 Y1.8791  
X96.6745 Y1.7681  
X96.8591 Y1.6917  
X97.0551 Y1.6527  
X97.2549 
X97.4509 Y1.6917  
X97.6355 Y1.7681  
X97.8016 Y1.8791  
X97.9429 Y2.0204  
X98.0539 Y2.1865  
X98.1303 Y2.3711  
X98.1693 Y2.5671  
Y2.7669  
X98.1303 Y2.9629  
X98.0539 Y3.1475  
X97.9429 Y3.3136  
G00 Z2.5400  
G00 X91.5929 Y3.3136  
G01 Z-0.1778 F254   
G01 X91.4516 Y3.4549  F508   
G01 X91.2854 Y3.5659  
X91.1009 Y3.6423  
X90.9049 Y3.6813  
X90.7051 
X90.5091 Y3.6423  
X90.3245 Y3.5659  
X90.1584 Y3.4549  
X90.0171 Y3.3136  
X89.9061 Y3.1475  
X89.8297 Y2.9629  
X89.7907 Y2.7669  
Y2.5671  
X89.8297 Y2.3711  
X89.9061 Y2.1865  
X90.0171 Y2.0204  
X90.1584 Y1.8791  
X90.3245 Y1.7681  
X90.5091 Y1.6917  
X90.7051 Y1.6527  
X90.9049 
X91.1009 Y1.6917  
X91.2854 Y1.7681  
X91.4516 Y1.8791  
X91.5929 Y2.0204  
X91.7039 Y2.1865  
X91.7803 Y2.3711  
X91.8193 Y2.5671  
Y2.7669  
X91.7803 Y2.9629  
X91.7039 Y3.1475  
X91.5929 Y3.3136  
G00 Z2.5400  
G00 X87.7829 Y3.3136  
G01 Z-0.1778 F254   
G01 X87.6416 Y3.4549  F508   
G01 X87.4754 Y3.5659  
X87.2909 Y3.6423  
X87.0949 Y3.6813  
X86.8951 
X86.6991 Y3.6423  
X86.5145 Y3.5659  
X86.3484 Y3.4549  
X86.2071 Y3.3136  
X86.0961 Y3.1475  
X86.0197 Y2.9629  
X85.9807 Y2.7669  
Y2.5671  
X86.0197 Y2.3711  
X86.0961 Y2.1865  
X86.2071 Y2.0204  
X86.3484 Y1.8791  
X86.5145 Y1.7681  
X86.6991 Y1.6917  
X86.8951 Y1.6527  
X87.0949 
X87.2909 Y1.6917  
X87.4754 Y1.7681  
X87.6416 Y1.8791  
X87.7829 Y2.0204  
X87.8939 Y2.1865  
X87.9703 Y2.3711  
X88.0093 Y2.5671  
Y2.7669  
X87.9703 Y2.9629  
X87.8939 Y3.1475  
X87.7829 Y3.3136  
G00 Z2.5400  
G00 X85.2429 Y3.3136  
G01 Z-0.1778 F254   
G01 X85.1016 Y3.4549  F508   
G01 X84.9355 Y3.5659  
X84.7509 Y3.6423  
X84.5549 Y3.6813  
X84.3551 
X84.1591 Y3.6423  
X83.9745 Y3.5659  
X83.8084 Y3.4549  
X83.6671 Y3.3136  
X83.5561 Y3.1475  
X83.4797 Y2.9629  
X83.4407 Y2.7669  
Y2.5671  
X83.4797 Y2.3711  
X83.5561 Y2.1865  
X83.6671 Y2.0204  
X83.8084 Y1.8791  
X83.9745 Y1.7681  
X84.1591 Y1.6917  
X84.3551 Y1.6527  
X84.5549 
X84.7509 Y1.6917  
X84.9355 Y1.7681  
X85.1016 Y1.8791  
X85.2429 Y2.0204  
X85.3539 Y2.1865  
X85.4303 Y2.3711  
X85.4693 Y2.5671  
Y2.7669  
X85.4303 Y2.9629  
X85.3539 Y3.1475  
X85.2429 Y3.3136  
G00 Z2.5400  
G00 X66.8279 Y3.1866  
G01 Z-0.1778 F254   
G01 X66.6866 Y3.3279  F508   
G01 X66.5204 Y3.4389  
X66.3359 Y3.5153  
X66.1399 Y3.5543  
X65.9401 
X65.7441 Y3.5153  
X65.5595 Y3.4389  
X65.3934 Y3.3279  
X65.2521 Y3.1866  
X65.1411 Y3.0204  
X65.0647 Y2.8359  
X65.0257 Y2.6399  
Y2.4401  
X65.0647 Y2.2441  
X65.1411 Y2.0595  
X65.2521 Y1.8934  
X65.3934 Y1.7521  
X65.5595 Y1.6411  
X65.7441 Y1.5647  
X65.9401 Y1.5257  
X66.1399 
X66.3359 Y1.5647  
X66.5204 Y1.6411  
X66.6866 Y1.7521  
X66.8279 Y1.8934  
X66.9389 Y2.0595  
X67.0153 Y2.2441  
X67.0543 Y2.4401  
Y2.6399  
X67.0153 Y2.8359  
X66.9389 Y3.0204  
X66.8279 Y3.1866  
G00 Z2.5400  
G00 X64.2879 Y3.1866  
G01 Z-0.1778 F254   
G01 X64.1466 Y3.3279  F508   
G01 X63.9804 Y3.4389  
X63.7959 Y3.5153  
X63.5999 Y3.5543  
X63.4001 
X63.2041 Y3.5153  
X63.0195 Y3.4389  
X62.8534 Y3.3279  
X62.7121 Y3.1866  
X62.6011 Y3.0204  
X62.5247 Y2.8359  
X62.4857 Y2.6399  
Y2.4401  
X62.5247 Y2.2441  
X62.6011 Y2.0595  
X62.7121 Y1.8934  
X62.8534 Y1.7521  
X63.0195 Y1.6411  
X63.2041 Y1.5647  
X63.4001 Y1.5257  
X63.5999 
X63.7959 Y1.5647  
X63.9804 Y1.6411  
X64.1466 Y1.7521  
X64.2879 Y1.8934  
X64.3989 Y2.0595  
X64.4753 Y2.2441  
X64.5143 Y2.4401  
Y2.6399  
X64.4753 Y2.8359  
X64.3989 Y3.0204  
X64.2879 Y3.1866  
G00 Z2.5400  
G00 X59.2079 Y3.1866  
G01 Z-0.1778 F254   
G01 X59.0666 Y3.3279  F508   
G01 X58.9004 Y3.4389  
X58.7159 Y3.5153  
X58.5199 Y3.5543  
X58.3201 
X58.1241 Y3.5153  
X57.9395 Y3.4389  
X57.7734 Y3.3279  
X57.6321 Y3.1866  
X57.5211 Y3.0204  
X57.4447 Y2.8359  
X57.4057 Y2.6399  
Y2.4401  
X57.4447 Y2.2441  
X57.5211 Y2.0595  
X57.6321 Y1.8934  
X57.7734 Y1.7521  
X57.9395 Y1.6411  
X58.1241 Y1.5647  
X58.3201 Y1.5257  
X58.5199 
X58.7159 Y1.5647  
X58.9004 Y1.6411  
X59.0666 Y1.7521  
X59.2079 Y1.8934  
X59.3189 Y2.0595  
X59.3953 Y2.2441  
X59.4343 Y2.4401  
Y2.6399  
X59.3953 Y2.8359  
X59.3189 Y3.0204  
X59.2079 Y3.1866  
G00 Z2.5400  
G00 X56.6679 Y3.1866  
G01 Z-0.1778 F254   
G01 X56.5266 Y3.3279  F508   
G01 X56.3605 Y3.4389  
X56.1759 Y3.5153  
X55.9799 Y3.5543  
X55.7801 
X55.5841 Y3.5153  
X55.3995 Y3.4389  
X55.2334 Y3.3279  
X55.0921 Y3.1866  
X54.9811 Y3.0204  
X54.9047 Y2.8359  
X54.8657 Y2.6399  
Y2.4401  
X54.9047 Y2.2441  
X54.9811 Y2.0595  
X55.0921 Y1.8934  
X55.2334 Y1.7521  
X55.3995 Y1.6411  
X55.5841 Y1.5647  
X55.7801 Y1.5257  
X55.9799 
X56.1759 Y1.5647  
X56.3605 Y1.6411  
X56.5266 Y1.7521  
X56.6679 Y1.8934  
X56.7789 Y2.0595  
X56.8553 Y2.2441  
X56.8943 Y2.4401  
Y2.6399  
X56.8553 Y2.8359  
X56.7789 Y3.0204  
X56.6679 Y3.1866  
G00 Z2.5400  
G00 X51.5879 Y3.1866  
G01 Z-0.1778 F254   
G01 X51.4466 Y3.3279  F508   
G01 X51.2805 Y3.4389  
X51.0959 Y3.5153  
X50.8999 Y3.5543  
X50.7001 
X50.5041 Y3.5153  
X50.3195 Y3.4389  
X50.1534 Y3.3279  
X50.0121 Y3.1866  
X49.9011 Y3.0204  
X49.8247 Y2.8359  
X49.7857 Y2.6399  
Y2.4401  
X49.8247 Y2.2441  
X49.9011 Y2.0595  
X50.0121 Y1.8934  
X50.1534 Y1.7521  
X50.3195 Y1.6411  
X50.5041 Y1.5647  
X50.7001 Y1.5257  
X50.8999 
X51.0959 Y1.5647  
X51.2805 Y1.6411  
X51.4466 Y1.7521  
X51.5879 Y1.8934  
X51.6989 Y2.0595  
X51.7753 Y2.2441  
X51.8143 Y2.4401  
Y2.6399  
X51.7753 Y2.8359  
X51.6989 Y3.0204  
X51.5879 Y3.1866  
G00 Z2.5400  
G00 X49.0479 Y3.1866  
G01 Z-0.1778 F254   
G01 X48.9066 Y3.3279  F508   
G01 X48.7405 Y3.4389  
X48.5559 Y3.5153  
X48.3599 Y3.5543  
X48.1601 
X47.9641 Y3.5153  
X47.7795 Y3.4389  
X47.6134 Y3.3279  
X47.4721 Y3.1866  
X47.3611 Y3.0204  
X47.2847 Y2.8359  
X47.2457 Y2.6399  
Y2.4401  
X47.2847 Y2.2441  
X47.3611 Y2.0595  
X47.4721 Y1.8934  
X47.6134 Y1.7521  
X47.7795 Y1.6411  
X47.9641 Y1.5647  
X48.1601 Y1.5257  
X48.3599 
X48.5559 Y1.5647  
X48.7405 Y1.6411  
X48.9066 Y1.7521  
X49.0479 Y1.8934  
X49.1589 Y2.0595  
X49.2353 Y2.2441  
X49.2743 Y2.4401  
Y2.6399  
X49.2353 Y2.8359  
X49.1589 Y3.0204  
X49.0479 Y3.1866  
G00 Z2.5400  
G00 X43.9679 Y3.1866  
G01 Z-0.1778 F254   
G01 X43.8266 Y3.3279  F508   
G01 X43.6604 Y3.4389  
X43.4759 Y3.5153  
X43.2799 Y3.5543  
X43.0801 
X42.8841 Y3.5153  
X42.6995 Y3.4389  
X42.5334 Y3.3279  
X42.3921 Y3.1866  
X42.2811 Y3.0204  
X42.2047 Y2.8359  
X42.1657 Y2.6399  
Y2.4401  
X42.2047 Y2.2441  
X42.2811 Y2.0595  
X42.3921 Y1.8934  
X42.5334 Y1.7521  
X42.6995 Y1.6411  
X42.8841 Y1.5647  
X43.0801 Y1.5257  
X43.2799 
X43.4759 Y1.5647  
X43.6604 Y1.6411  
X43.8266 Y1.7521  
X43.9679 Y1.8934  
X44.0789 Y2.0595  
X44.1553 Y2.2441  
X44.1943 Y2.4401  
Y2.6399  
X44.1553 Y2.8359  
X44.0789 Y3.0204  
X43.9679 Y3.1866  
G00 Z2.5400  
G00 X41.4279 Y3.1866  
G01 Z-0.1778 F254   
G01 X41.2866 Y3.3279  F508   
G01 X41.1204 Y3.4389  
X40.9359 Y3.5153  
X40.7399 Y3.5543  
X40.5401 
X40.3441 Y3.5153  
X40.1595 Y3.4389  
X39.9934 Y3.3279  
X39.8521 Y3.1866  
X39.7411 Y3.0204  
X39.6647 Y2.8359  
X39.6257 Y2.6399  
Y2.4401  
X39.6647 Y2.2441  
X39.7411 Y2.0595  
X39.8521 Y1.8934  
X39.9934 Y1.7521  
X40.1595 Y1.6411  
X40.3441 Y1.5647  
X40.5401 Y1.5257  
X40.7399 
X40.9359 Y1.5647  
X41.1204 Y1.6411  
X41.2866 Y1.7521  
X41.4279 Y1.8934  
X41.5389 Y2.0595  
X41.6153 Y2.2441  
X41.6543 Y2.4401  
Y2.6399  
X41.6153 Y2.8359  
X41.5389 Y3.0204  
X41.4279 Y3.1866  
G00 Z2.5400  
G00 X36.3479 Y3.1866  
G01 Z-0.1778 F254   
G01 X36.2066 Y3.3279  F508   
G01 X36.0404 Y3.4389  
X35.8559 Y3.5153  
X35.6599 Y3.5543  
X35.4601 
X35.2641 Y3.5153  
X35.0795 Y3.4389  
X34.9134 Y3.3279  
X34.7721 Y3.1866  
X34.6611 Y3.0204  
X34.5847 Y2.8359  
X34.5457 Y2.6399  
Y2.4401  
X34.5847 Y2.2441  
X34.6611 Y2.0595  
X34.7721 Y1.8934  
X34.9134 Y1.7521  
X35.0795 Y1.6411  
X35.2641 Y1.5647  
X35.4601 Y1.5257  
X35.6599 
X35.8559 Y1.5647  
X36.0404 Y1.6411  
X36.2066 Y1.7521  
X36.3479 Y1.8934  
X36.4589 Y2.0595  
X36.5353 Y2.2441  
X36.5743 Y2.4401  
Y2.6399  
X36.5353 Y2.8359  
X36.4589 Y3.0204  
X36.3479 Y3.1866  
G00 Z2.5400  
G00 X33.8079 Y3.1866  
G01 Z-0.1778 F254   
G01 X33.6666 Y3.3279  F508   
G01 X33.5005 Y3.4389  
X33.3159 Y3.5153  
X33.1199 Y3.5543  
X32.9201 
X32.7241 Y3.5153  
X32.5395 Y3.4389  
X32.3734 Y3.3279  
X32.2321 Y3.1866  
X32.1211 Y3.0204  
X32.0447 Y2.8359  
X32.0057 Y2.6399  
Y2.4401  
X32.0447 Y2.2441  
X32.1211 Y2.0595  
X32.2321 Y1.8934  
X32.3734 Y1.7521  
X32.5395 Y1.6411  
X32.7241 Y1.5647  
X32.9201 Y1.5257  
X33.1199 
X33.3159 Y1.5647  
X33.5005 Y1.6411  
X33.6666 Y1.7521  
X33.8079 Y1.8934  
X33.9189 Y2.0595  
X33.9953 Y2.2441  
X34.0343 Y2.4401  
Y2.6399  
X33.9953 Y2.8359  
X33.9189 Y3.0204  
X33.8079 Y3.1866  
G00 Z2.5400  
G00 X28.7279 Y3.1866  
G01 Z-0.1778 F254   
G01 X28.5866 Y3.3279  F508   
G01 X28.4204 Y3.4389  
X28.2359 Y3.5153  
X28.0399 Y3.5543  
X27.8401 
X27.6441 Y3.5153  
X27.4595 Y3.4389  
X27.2934 Y3.3279  
X27.1521 Y3.1866  
X27.0411 Y3.0204  
X26.9647 Y2.8359  
X26.9257 Y2.6399  
Y2.4401  
X26.9647 Y2.2441  
X27.0411 Y2.0595  
X27.1521 Y1.8934  
X27.2934 Y1.7521  
X27.4595 Y1.6411  
X27.6441 Y1.5647  
X27.8401 Y1.5257  
X28.0399 
X28.2359 Y1.5647  
X28.4204 Y1.6411  
X28.5866 Y1.7521  
X28.7279 Y1.8934  
X28.8389 Y2.0595  
X28.9153 Y2.2441  
X28.9543 Y2.4401  
Y2.6399  
X28.9153 Y2.8359  
X28.8389 Y3.0204  
X28.7279 Y3.1866  
G00 Z2.5400  
G00 X26.1879 Y3.1866  
G01 Z-0.1778 F254   
G01 X26.0466 Y3.3279  F508   
G01 X25.8804 Y3.4389  
X25.6959 Y3.5153  
X25.4999 Y3.5543  
X25.3001 
X25.1041 Y3.5153  
X24.9195 Y3.4389  
X24.7534 Y3.3279  
X24.6121 Y3.1866  
X24.5011 Y3.0204  
X24.4247 Y2.8359  
X24.3857 Y2.6399  
Y2.4401  
X24.4247 Y2.2441  
X24.5011 Y2.0595  
X24.6121 Y1.8934  
X24.7534 Y1.7521  
X24.9195 Y1.6411  
X25.1041 Y1.5647  
X25.3001 Y1.5257  
X25.4999 
X25.6959 Y1.5647  
X25.8804 Y1.6411  
X26.0466 Y1.7521  
X26.1879 Y1.8934  
X26.2989 Y2.0595  
X26.3753 Y2.2441  
X26.4143 Y2.4401  
Y2.6399  
X26.3753 Y2.8359  
X26.2989 Y3.0204  
X26.1879 Y3.1866  
G00 Z2.5400  
G00 X29.6566 Y20.8868 
G01 Z-0.1778 F254   
G01 X29.7768 Y20.7666 F508   
G01 X29.9142 Y20.6667 
X30.0656 Y20.5896 
X30.2272 Y20.5371 
X30.3950 Y20.5105 
X30.5650 
X30.7328 Y20.5371 
X30.8944 Y20.5896 
X31.0458 Y20.6667 
X31.1832 Y20.7666 
X31.3034 Y20.8868 
X31.4033 Y21.0242 
X31.4804 Y21.1756 
X31.5329 Y21.3372 
X31.5595 Y21.5050 
Y21.6750 
X31.5329 Y21.8428 
X31.4804 Y22.0044 
X31.4033 Y22.1558 
X31.3034 Y22.2932 
X31.1832 Y22.4134 
X31.0458 Y22.5133 
X30.8944 Y22.5904 
X30.7328 Y22.6429 
X30.5650 Y22.6695 
X30.3950 
X30.2272 Y22.6429 
X30.0656 Y22.5904 
X29.9142 Y22.5133 
X29.7768 Y22.4134 
X29.6566 Y22.2932 
X29.5567 Y22.1558 
X29.4796 Y22.0044 
X29.4271 Y21.8428 
X29.4005 Y21.6750 
Y21.5050 
X29.4271 Y21.3372 
X29.4796 Y21.1756 
X29.5567 Y21.0242 
X29.6566 Y20.8868 
G00 Z2.5400  
G00 X27.3959 Y24.5501 
G01 Z-0.1778 F254   
G01 X27.5199 Y24.6741 F508   
G01 X27.6230 Y24.8160 
X27.7027 Y24.9723 
X27.7569 Y25.1391 
X27.7843 Y25.3123 
Y25.4877 
X27.7569 Y25.6609 
X27.7027 Y25.8277 
X27.6230 Y25.9840 
X27.5199 Y26.1259 
X27.3959 Y26.2499 
X27.2540 Y26.3530 
X27.0977 Y26.4327 
X26.9309 Y26.4869 
X26.7577 Y26.5143 
X26.5823 
X26.4091 Y26.4869 
X26.2423 Y26.4327 
X26.0860 Y26.3530 
X25.9441 Y26.2499 
X25.8201 Y26.1259 
X25.7170 Y25.9840 
X25.6373 Y25.8277 
X25.5831 Y25.6609 
X25.5557 Y25.4877 
Y25.3123 
X25.5831 Y25.1391 
X25.6373 Y24.9723 
X25.7170 Y24.8160 
X25.8201 Y24.6741 
X25.9441 Y24.5501 
X26.0860 Y24.4470 
X26.2423 Y24.3673 
X26.4091 Y24.3131 
X26.5823 Y24.2857 
X26.7577 
X26.9309 Y24.3131 
X27.0977 Y24.3673 
X27.2540 Y24.4470 
X27.3959 Y24.5501 
G00 Z2.5400  
G00 X27.3959 Y27.0901 
G01 Z-0.1778 F254   
G01 X27.5199 Y27.2141 F508   
G01 X27.6230 Y27.3560 
X27.7027 Y27.5123 
X27.7569 Y27.6791 
X27.7843 Y27.8523 
Y28.0277 
X27.7569 Y28.2009 
X27.7027 Y28.3677 
X27.6230 Y28.5240 
X27.5199 Y28.6659 
X27.3959 Y28.7899 
X27.2540 Y28.8930 
X27.0977 Y28.9727 
X26.9309 Y29.0269 
X26.7577 Y29.0543 
X26.5823 
X26.4091 Y29.0269 
X26.2423 Y28.9727 
X26.0860 Y28.8930 
X25.9441 Y28.7899 
X25.8201 Y28.6659 
X25.7170 Y28.5240 
X25.6373 Y28.3677 
X25.5831 Y28.2009 
X25.5557 Y28.0277 
Y27.8523 
X25.5831 Y27.6791 
X25.6373 Y27.5123 
X25.7170 Y27.3560 
X25.8201 Y27.2141 
X25.9441 Y27.0901 
X26.0860 Y26.9870 
X26.2423 Y26.9073 
X26.4091 Y26.8531 
X26.5823 Y26.8257 
X26.7577 
X26.9309 Y26.8531 
X27.0977 Y26.9073 
X27.2540 Y26.9870 
X27.3959 Y27.0901 
G00 Z2.5400  
G00 X33.4401 Y27.2141 
G01 Z-0.1778 F254   
G01 X33.5641 Y27.0901 F508   
G01 X33.7060 Y26.9870 
X33.8623 Y26.9073 
X34.0291 Y26.8531 
X34.2023 Y26.8257 
X34.3777 
X34.5509 Y26.8531 
X34.7177 Y26.9073 
X34.8740 Y26.9870 
X35.0159 Y27.0901 
X35.1399 Y27.2141 
X35.2430 Y27.3560 
X35.3227 Y27.5123 
X35.3769 Y27.6791 
X35.4043 Y27.8523 
Y28.0277 
X35.3769 Y28.2009 
X35.3227 Y28.3677 
X35.2430 Y28.5240 
X35.1399 Y28.6659 
X35.0159 Y28.7899 
X34.8740 Y28.8930 
X34.7177 Y28.9727 
X34.5509 Y29.0269 
X34.3777 Y29.0543 
X34.2023 
X34.0291 Y29.0269 
X33.8623 Y28.9727 
X33.7060 Y28.8930 
X33.5641 Y28.7899 
X33.4401 Y28.6659 
X33.3370 Y28.5240 
X33.2573 Y28.3677 
X33.2031 Y28.2009 
X33.1757 Y28.0277 
Y27.8523 
X33.2031 Y27.6791 
X33.2573 Y27.5123 
X33.3370 Y27.3560 
X33.4401 Y27.2141 
G00 Z2.5400  
G00 X33.5641 Y26.2499 
G01 Z-0.1778 F254   
G01 X33.4401 Y26.1259 F508   
G01 X33.3370 Y25.9840 
X33.2573 Y25.8277 
X33.2031 Y25.6609 
X33.1757 Y25.4877 
Y25.3123 
X33.2031 Y25.1391 
X33.2573 Y24.9723 
X33.3370 Y24.8160 
X33.4401 Y24.6741 
X33.5641 Y24.5501 
X33.7060 Y24.4470 
X33.8623 Y24.3673 
X34.0291 Y24.3131 
X34.2023 Y24.2857 
X34.3777 
X34.5509 Y24.3131 
X34.7177 Y24.3673 
X34.8740 Y24.4470 
X35.0159 Y24.5501 
X35.1399 Y24.6741 
X35.2430 Y24.8160 
X35.3227 Y24.9723 
X35.3769 Y25.1391 
X35.4043 Y25.3123 
Y25.4877 
X35.3769 Y25.6609 
X35.3227 Y25.8277 
X35.2430 Y25.9840 
X35.1399 Y26.1259 
X35.0159 Y26.2499 
X34.8740 Y26.3530 
X34.7177 Y26.4327 
X34.5509 Y26.4869 
X34.3777 Y26.5143 
X34.2023 
X34.0291 Y26.4869 
X33.8623 Y26.4327 
X33.7060 Y26.3530 
X33.5641 Y26.2499 
G00 Z2.5400  
G00 X35.1015 Y29.5906 
G01 Z-0.1778 F254   
G01 X35.1786 Y29.5135 F508   
G01 X35.2731 Y29.4589 
X35.3785 Y29.4307 
X47.3068 
X47.3982 Y29.2940 
X47.5185 Y29.1737 
X47.6601 Y29.0791 
X47.8174 Y29.0139 
X47.9844 Y28.9807 
X48.1546 
X48.3216 Y29.0139 
X48.4789 Y29.0791 
X48.6205 Y29.1737 
X48.7408 Y29.2940 
X48.8354 Y29.4356 
X48.9006 Y29.5929 
X48.9338 Y29.7599 
Y29.9301 
X48.9006 Y30.0971 
X48.8354 Y30.2544 
X48.7408 Y30.3960 
X48.6205 Y30.5163 
X48.4789 Y30.6109 
X48.3216 Y30.6761 
X48.1546 Y30.7093 
X47.9844 
X47.8174 Y30.6761 
X47.6601 Y30.6109 
X47.5185 Y30.5163 
X47.3982 Y30.3960 
X47.3068 Y30.2593 
X35.6046 
X19.8895 Y45.9744 
X19.8124 Y46.0515 
X19.7179 Y46.1061 
X19.6125 Y46.1343 
X17.2531 
X10.6378 Y52.7496 
Y55.2995 
X10.6096 Y55.4049 
X10.5550 Y55.4994 
X10.4779 Y55.5765 
X4.8899  Y61.1645 
X4.7954  Y61.2191 
X4.6900  Y61.2473 
X3.6837  
X3.5923  Y61.3840 
X3.4720  Y61.5043 
X3.3304  Y61.5989 
X3.1731  Y61.6641 
X3.0061  Y61.6973 
X2.8359  
X2.6689  Y61.6641 
X2.5116  Y61.5989 
X2.3700  Y61.5043 
X2.2497  Y61.3840 
X2.1551  Y61.2424 
X2.0899  Y61.0851 
X2.0567  Y60.9181 
Y60.7479 
X2.0899  Y60.5809 
X2.1551  Y60.4236 
X2.2497  Y60.2820 
X2.3700  Y60.1617 
X2.5116  Y60.0671 
X2.6689  Y60.0019 
X2.8359  Y59.9687 
X3.0061  
X3.1731  Y60.0019 
X3.3304  Y60.0671 
X3.4720  Y60.1617 
X3.5923  Y60.2820 
X3.6837  Y60.4187 
X4.4639  
X9.8092  Y55.0734 
Y52.5235 
X9.8374  Y52.4181 
X9.8920  Y52.3236 
X16.7500 Y45.4656 
X16.8271 Y45.3885 
X16.9216 Y45.3339 
X17.0270 Y45.3057 
X19.3864 
X35.1015 Y29.5906 
G00 Z2.5400  
G00 X37.2766 Y31.0468 
G01 Z-0.1778 F254   
G01 X37.3968 Y30.9266 F508   
G01 X37.5342 Y30.8267 
X37.6856 Y30.7496 
X37.8472 Y30.6971 
X38.0150 Y30.6705 
X38.1850 
X38.3528 Y30.6971 
X38.5144 Y30.7496 
X38.6658 Y30.8267 
X38.8032 Y30.9266 
X38.9234 Y31.0468 
X39.0233 Y31.1842 
X39.1004 Y31.3356 
X39.1529 Y31.4972 
X39.1795 Y31.6650 
Y31.8350 
X39.1529 Y32.0028 
X39.1004 Y32.1644 
X39.0233 Y32.3158 
X38.9234 Y32.4532 
X38.8032 Y32.5734 
X38.6658 Y32.6733 
X38.5144 Y32.7504 
X38.3528 Y32.8029 
X38.1850 Y32.8295 
X38.0150 
X37.8472 Y32.8029 
X37.6856 Y32.7504 
X37.5342 Y32.6733 
X37.3968 Y32.5734 
X37.2766 Y32.4532 
X37.1767 Y32.3158 
X37.0996 Y32.1644 
X37.0471 Y32.0028 
X37.0205 Y31.8350 
Y31.6650 
X37.0471 Y31.4972 
X37.0996 Y31.3356 
X37.1767 Y31.1842 
X37.2766 Y31.0468 
G00 Z2.5400  
G00 X34.3582 Y33.4666 
G01 Z-0.1778 F254   
G01 X34.4784 Y33.5868 F508   
G01 X34.5783 Y33.7242 
X34.6554 Y33.8756 
X34.7079 Y34.0372 
X34.7345 Y34.2050 
Y34.3750 
X34.7079 Y34.5428 
X34.6554 Y34.7044 
X34.5783 Y34.8558 
X34.4784 Y34.9932 
X34.3582 Y35.1134 
X34.2208 Y35.2133 
X34.0694 Y35.2904 
X33.9078 Y35.3429 
X33.7400 Y35.3695 
X33.5700 
X33.4022 Y35.3429 
X33.2406 Y35.2904 
X33.0892 Y35.2133 
X32.9518 Y35.1134 
X32.8316 Y34.9932 
X32.7317 Y34.8558 
X32.6546 Y34.7044 
X32.6021 Y34.5428 
X32.5755 Y34.3750 
Y34.2050 
X32.6021 Y34.0372 
X32.6546 Y33.8756 
X32.7317 Y33.7242 
X32.8316 Y33.5868 
X32.9518 Y33.4666 
X33.0892 Y33.3667 
X33.2406 Y33.2896 
X33.4022 Y33.2371 
X33.5700 Y33.2105 
X33.7400 
X33.9078 Y33.2371 
X34.0694 Y33.2896 
X34.2208 Y33.3667 
X34.3582 Y33.4666 
G00 Z2.5400  
G00 X31.3034 Y32.4532 
G01 Z-0.1778 F254   
G01 X31.1832 Y32.5734 F508   
G01 X31.0458 Y32.6733 
X30.8944 Y32.7504 
X30.7328 Y32.8029 
X30.5650 Y32.8295 
X30.3950 
X30.2272 Y32.8029 
X30.0656 Y32.7504 
X29.9142 Y32.6733 
X29.7768 Y32.5734 
X29.6566 Y32.4532 
X29.5567 Y32.3158 
X29.4796 Y32.1644 
X29.4271 Y32.0028 
X29.4005 Y31.8350 
Y31.6650 
X29.4271 Y31.4972 
X29.4796 Y31.3356 
X29.5567 Y31.1842 
X29.6566 Y31.0468 
X29.7768 Y30.9266 
X29.9142 Y30.8267 
X30.0656 Y30.7496 
X30.2272 Y30.6971 
X30.3950 Y30.6705 
X30.5650 
X30.7328 Y30.6971 
X30.8944 Y30.7496 
X31.0458 Y30.8267 
X31.1832 Y30.9266 
X31.3034 Y31.0468 
X31.4033 Y31.1842 
X31.4804 Y31.3356 
X31.5329 Y31.4972 
X31.5595 Y31.6650 
Y31.8350 
X31.5329 Y32.0028 
X31.4804 Y32.1644 
X31.4033 Y32.3158 
X31.3034 Y32.4532 
G00 Z2.5400  
G00 X31.3048 Y39.8072 
G01 Z-0.1778 F254   
G01 X31.4759 Y39.7363 F508   
G01 X31.6574 Y39.7002 
X31.8426 
X32.0241 Y39.7363 
X32.1952 Y39.8072 
X32.3491 Y39.9100 
X32.4800 Y40.0409 
X32.5828 Y40.1948 
X32.6537 Y40.3659 
X32.6898 Y40.5474 
Y40.7326 
X32.6537 Y40.9141 
X32.5828 Y41.0852 
X32.4800 Y41.2391 
X32.3491 Y41.3700 
X32.1952 Y41.4728 
X32.0241 Y41.5437 
X31.8426 Y41.5798 
X31.6574 
X31.4759 Y41.5437 
X31.3048 Y41.4728 
X31.1509 Y41.3700 
X31.0200 Y41.2391 
X30.9172 Y41.0852 
X30.8463 Y40.9141 
X30.8102 Y40.7326 
Y40.5474 
X30.8463 Y40.3659 
X30.9172 Y40.1948 
X31.0200 Y40.0409 
X31.1509 Y39.9100 
X31.3048 Y39.8072 
G00 Z2.5400  
G00 X29.8091 Y39.9100 
G01 Z-0.1778 F254   
G01 X29.9400 Y40.0409 F508   
G01 X30.0428 Y40.1948 
X30.1137 Y40.3659 
X30.1498 Y40.5474 
Y40.7326 
X30.1137 Y40.9141 
X30.0428 Y41.0852 
X29.9400 Y41.2391 
X29.8091 Y41.3700 
X29.6552 Y41.4728 
X29.4841 Y41.5437 
X29.3026 Y41.5798 
X29.1174 
X28.9359 Y41.5437 
X28.7648 Y41.4728 
X28.6109 Y41.3700 
X28.4800 Y41.2391 
X28.3772 Y41.0852 
X28.3063 Y40.9141 
X28.2702 Y40.7326 
Y40.5474 
X28.3063 Y40.3659 
X28.3772 Y40.1948 
X28.4800 Y40.0409 
X28.6109 Y39.9100 
X28.7648 Y39.8072 
X28.9359 Y39.7363 
X29.1174 Y39.7002 
X29.3026 
X29.4841 Y39.7363 
X29.6552 Y39.8072 
X29.8091 Y39.9100 
G00 Z2.5400  
G00 X28.5561 Y39.2763 
G01 Z-0.1778 F254   
G01 X18.9234 Y48.9090 F508   
G01 X18.8289 Y48.9636 
X18.8072 Y48.9694 
X18.7999 Y48.9869 
X18.7053 Y49.1285 
X18.5850 Y49.2488 
X18.4434 Y49.3434 
X18.2861 Y49.4086 
X18.1191 Y49.4418 
X17.9489 
X17.7819 Y49.4086 
X17.6246 Y49.3434 
X17.4830 Y49.2488 
X17.3627 Y49.1285 
X17.2681 Y48.9869 
X17.2029 Y48.8296 
X17.1697 Y48.6626 
Y48.4924 
X17.2029 Y48.3254 
X17.2681 Y48.1681 
X17.3627 Y48.0265 
X17.4830 Y47.9062 
X17.6246 Y47.8116 
X17.7819 Y47.7464 
X17.9489 Y47.7132 
X18.1191 
X18.2861 Y47.7464 
X18.4434 Y47.8116 
X18.5850 Y47.9062 
X18.6697 Y47.9909 
X28.0530 Y38.6076 
X28.1301 Y38.5305 
X28.2246 Y38.4759 
X28.3300 Y38.4477 
X44.6398 
X44.7312 Y38.3110 
X44.8515 Y38.1907 
X44.9931 Y38.0961 
X45.1504 Y38.0309 
X45.3174 Y37.9977 
X45.4876 
X45.6546 Y38.0309 
X45.8119 Y38.0961 
X45.9535 Y38.1907 
X46.0738 Y38.3110 
X46.1684 Y38.4526 
X46.2336 Y38.6099 
X46.2668 Y38.7769 
Y38.9471 
X46.2336 Y39.1141 
X46.1684 Y39.2714 
X46.0738 Y39.4130 
X45.9535 Y39.5333 
X45.8119 Y39.6279 
X45.6546 Y39.6931 
X45.4876 Y39.7263 
X45.3174 
X45.1504 Y39.6931 
X44.9931 Y39.6279 
X44.8515 Y39.5333 
X44.7312 Y39.4130 
X44.6398 Y39.2763 
X28.5561 
G00 Z2.5400  
G00 X32.0036 Y42.3405 
G01 Z-0.1778 F254   
G01 X32.0981 Y42.2859 F508   
G01 X32.2035 Y42.2577 
X43.7704 
X47.1166 Y38.9115 
X47.2111 Y38.8569 
X47.3165 Y38.8287 
X47.9224 
X47.9352 Y38.7978 
X48.0380 Y38.6439 
X48.1689 Y38.5130 
X48.3228 Y38.4102 
X48.4939 Y38.3393 
X48.6754 Y38.3032 
X48.8606 
X49.0421 Y38.3393 
X49.2132 Y38.4102 
X49.3671 Y38.5130 
X49.4980 Y38.6439 
X49.6008 Y38.7978 
X49.6717 Y38.9689 
X49.7078 Y39.1504 
Y39.3356 
X49.6717 Y39.5171 
X49.6008 Y39.6882 
X49.4980 Y39.8421 
X49.3671 Y39.9730 
X49.2132 Y40.0758 
X49.0421 Y40.1467 
X48.8606 Y40.1828 
X48.6754 
X48.4939 Y40.1467 
X48.3228 Y40.0758 
X48.1689 Y39.9730 
X48.0380 Y39.8421 
X47.9352 Y39.6882 
X47.9224 Y39.6573 
X47.5426 
X44.2735 Y42.9264 
X44.1964 Y43.0035 
X44.1019 Y43.0581 
X43.9965 Y43.0863 
X32.4296 
X24.4808 Y51.0351 
Y56.1292 
X24.5749 Y56.1835 
X24.6520 Y56.2606 
X29.4451 Y61.0537 
X56.4704 
X57.5437 Y59.9804 
X57.5347 Y59.9586 
X57.4993 Y59.7807 
Y59.5993 
X57.5347 Y59.4214 
X57.6041 Y59.2539 
X57.7048 Y59.1031 
X57.8331 Y58.9748 
X57.9839 Y58.8741 
X58.1514 Y58.8047 
X58.3293 Y58.7693 
X58.5107 
X58.6886 Y58.8047 
X58.8561 Y58.8741 
X59.0069 Y58.9748 
X59.1352 Y59.1031 
X59.2359 Y59.2539 
X59.3053 Y59.4214 
X59.3407 Y59.5993 
Y59.7807 
X59.3053 Y59.9586 
X59.2359 Y60.1261 
X59.1352 Y60.2769 
X59.0069 Y60.4052 
X58.8561 Y60.5059 
X58.6886 Y60.5753 
X58.5107 Y60.6107 
X58.3293 
X58.1514 Y60.5753 
X58.1296 Y60.5663 
X56.9735 Y61.7224 
X56.8964 Y61.7995 
X56.8019 Y61.8541 
X56.6965 Y61.8823 
X29.2190 
X29.1136 Y61.8541 
X29.0191 Y61.7995 
X24.2252 Y57.0057 
X21.9352 Y59.2957 
X21.9831 Y59.4432 
X22.0091 Y59.6070 
Y59.7730 
X21.9831 Y59.9368 
X21.9319 Y60.0946 
X21.8565 Y60.2425 
X21.7590 Y60.3767 
X21.6417 Y60.4940 
X21.5075 Y60.5915 
X21.3596 Y60.6669 
X21.2018 Y60.7181 
X21.0380 Y60.7441 
X20.8720 
X20.7082 Y60.7181 
X20.5504 Y60.6669 
X20.4025 Y60.5915 
X20.2683 Y60.4940 
X20.1510 Y60.3767 
X20.0535 Y60.2425 
X19.9781 Y60.0946 
X19.9269 Y59.9368 
X19.9009 Y59.7730 
Y59.6070 
X19.9269 Y59.4432 
X19.9781 Y59.2854 
X20.0535 Y59.1375 
X20.1510 Y59.0033 
X20.2683 Y58.8860 
X20.4025 Y58.7885 
X20.5504 Y58.7131 
X20.7082 Y58.6619 
X20.8720 Y58.6359 
X21.0380 
X21.2018 Y58.6619 
X21.3493 Y58.7098 
X23.6522 Y56.4069 
Y50.8090 
X23.6804 Y50.7036 
X23.7350 Y50.6091 
X23.8121 Y50.5320 
X32.0036 Y42.3405 
G00 Z2.5400  
G00 X32.3048 Y43.8631 
G01 Z-0.1778 F254   
G01 X32.4331 Y43.7348 F508   
G01 X32.5839 Y43.6341 
X32.7514 Y43.5647 
X32.9293 Y43.5293 
X33.1107 
X33.2886 Y43.5647 
X33.4561 Y43.6341 
X33.6069 Y43.7348 
X33.7352 Y43.8631 
X33.8359 Y44.0139 
X33.9053 Y44.1814 
X33.9407 Y44.3593 
Y44.5407 
X33.9053 Y44.7186 
X33.8359 Y44.8861 
X33.7352 Y45.0369 
X33.6069 Y45.1652 
X33.4561 Y45.2659 
X33.2886 Y45.3353 
X33.1107 Y45.3707 
X32.9293 
X32.7514 Y45.3353 
X32.5839 Y45.2659 
X32.4331 Y45.1652 
X32.3048 Y45.0369 
X32.2041 Y44.8861 
X32.1347 Y44.7186 
X32.0993 Y44.5407 
Y44.3593 
X32.1347 Y44.1814 
X32.2041 Y44.0139 
X32.3048 Y43.8631 
G00 Z2.5400  
G00 X34.8448 Y43.8631 
G01 Z-0.1778 F254   
G01 X34.9731 Y43.7348 F508   
G01 X35.1239 Y43.6341 
X35.2914 Y43.5647 
X35.4693 Y43.5293 
X35.6507 
X35.8286 Y43.5647 
X35.9961 Y43.6341 
X36.1469 Y43.7348 
X36.2752 Y43.8631 
X36.3759 Y44.0139 
X36.4453 Y44.1814 
X36.4807 Y44.3593 
Y44.5407 
X36.4453 Y44.7186 
X36.3759 Y44.8861 
X36.2752 Y45.0369 
X36.1469 Y45.1652 
X35.9961 Y45.2659 
X35.8286 Y45.3353 
X35.6507 Y45.3707 
X35.4693 
X35.2914 Y45.3353 
X35.1239 Y45.2659 
X34.9731 Y45.1652 
X34.8448 Y45.0369 
X34.7441 Y44.8861 
X34.6747 Y44.7186 
X34.6393 Y44.5407 
Y44.3593 
X34.6747 Y44.1814 
X34.7441 Y44.0139 
X34.8448 Y43.8631 
G00 Z2.5400  
G00 X37.3848 Y43.8631 
G01 Z-0.1778 F254   
G01 X37.5131 Y43.7348 F508   
G01 X37.6639 Y43.6341 
X37.8314 Y43.5647 
X38.0093 Y43.5293 
X38.1907 
X38.3686 Y43.5647 
X38.5361 Y43.6341 
X38.6869 Y43.7348 
X38.8152 Y43.8631 
X38.9159 Y44.0139 
X38.9853 Y44.1814 
X39.0207 Y44.3593 
Y44.5407 
X38.9853 Y44.7186 
X38.9159 Y44.8861 
X38.8152 Y45.0369 
X38.6869 Y45.1652 
X38.5361 Y45.2659 
X38.3686 Y45.3353 
X38.1907 Y45.3707 
X38.0093 
X37.8314 Y45.3353 
X37.6639 Y45.2659 
X37.5131 Y45.1652 
X37.3848 Y45.0369 
X37.2841 Y44.8861 
X37.2147 Y44.7186 
X37.1793 Y44.5407 
Y44.3593 
X37.2147 Y44.1814 
X37.2841 Y44.0139 
X37.3848 Y43.8631 
G00 Z2.5400  
G00 X39.9248 Y43.8631 
G01 Z-0.1778 F254   
G01 X40.0531 Y43.7348 F508   
G01 X40.2039 Y43.6341 
X40.3714 Y43.5647 
X40.5493 Y43.5293 
X40.7307 
X40.9086 Y43.5647 
X41.0761 Y43.6341 
X41.2269 Y43.7348 
X41.3552 Y43.8631 
X41.4559 Y44.0139 
X41.5253 Y44.1814 
X41.5607 Y44.3593 
Y44.5407 
X41.5253 Y44.7186 
X41.4559 Y44.8861 
X41.3552 Y45.0369 
X41.2269 Y45.1652 
X41.0761 Y45.2659 
X40.9086 Y45.3353 
X40.7307 Y45.3707 
X40.5493 
X40.3714 Y45.3353 
X40.2039 Y45.2659 
X40.0531 Y45.1652 
X39.9248 Y45.0369 
X39.8241 Y44.8861 
X39.7547 Y44.7186 
X39.7193 Y44.5407 
Y44.3593 
X39.7547 Y44.1814 
X39.8241 Y44.0139 
X39.9248 Y43.8631 
G00 Z2.5400  
G00 X42.4648 Y43.8631 
G01 Z-0.1778 F254   
G01 X42.5931 Y43.7348 F508   
G01 X42.7439 Y43.6341 
X42.9114 Y43.5647 
X43.0893 Y43.5293 
X43.2707 
X43.4486 Y43.5647 
X43.6161 Y43.6341 
X43.7669 Y43.7348 
X43.8952 Y43.8631 
X43.9959 Y44.0139 
X44.0653 Y44.1814 
X44.1007 Y44.3593 
Y44.5407 
X44.0653 Y44.7186 
X43.9959 Y44.8861 
X43.8952 Y45.0369 
X43.7669 Y45.1652 
X43.6161 Y45.2659 
X43.4486 Y45.3353 
X43.2707 Y45.3707 
X43.0893 
X42.9114 Y45.3353 
X42.7439 Y45.2659 
X42.5931 Y45.1652 
X42.4648 Y45.0369 
X42.3641 Y44.8861 
X42.2947 Y44.7186 
X42.2593 Y44.5407 
Y44.3593 
X42.2947 Y44.1814 
X42.3641 Y44.0139 
X42.4648 Y43.8631 
G00 Z2.5400  
G00 X45.0048 Y43.8631 
G01 Z-0.1778 F254   
G01 X45.1331 Y43.7348 F508   
G01 X45.2839 Y43.6341 
X45.4514 Y43.5647 
X45.6293 Y43.5293 
X45.8107 
X45.9886 Y43.5647 
X46.1561 Y43.6341 
X46.3069 Y43.7348 
X46.4352 Y43.8631 
X46.5359 Y44.0139 
X46.6053 Y44.1814 
X46.6407 Y44.3593 
Y44.5407 
X46.6053 Y44.7186 
X46.5359 Y44.8861 
X46.4352 Y45.0369 
X46.3069 Y45.1652 
X46.1561 Y45.2659 
X45.9886 Y45.3353 
X45.8107 Y45.3707 
X45.6293 
X45.4514 Y45.3353 
X45.2839 Y45.2659 
X45.1331 Y45.1652 
X45.0048 Y45.0369 
X44.9041 Y44.8861 
X44.8347 Y44.7186 
X44.7993 Y44.5407 
Y44.3593 
X44.8347 Y44.1814 
X44.9041 Y44.0139 
X45.0048 Y43.8631 
G00 Z2.5400  
G00 X50.0848 Y43.8631 
G01 Z-0.1778 F254   
G01 X50.2131 Y43.7348 F508   
G01 X50.3639 Y43.6341 
X50.5314 Y43.5647 
X50.7093 Y43.5293 
X50.8907 
X51.0686 Y43.5647 
X51.2361 Y43.6341 
X51.3869 Y43.7348 
X51.5152 Y43.8631 
X51.6159 Y44.0139 
X51.6853 Y44.1814 
X51.7207 Y44.3593 
Y44.5407 
X51.6853 Y44.7186 
X51.6159 Y44.8861 
X51.5152 Y45.0369 
X51.3869 Y45.1652 
X51.2361 Y45.2659 
X51.0686 Y45.3353 
X50.8907 Y45.3707 
X50.7093 
X50.5314 Y45.3353 
X50.5096 Y45.3263 
X43.7655 Y52.0704 
X43.6884 Y52.1475 
X43.5939 Y52.2021 
X43.4885 Y52.2303 
X26.4802 
X26.3888 Y52.3670 
X26.2685 Y52.4873 
X26.1269 Y52.5819 
X25.9696 Y52.6471 
X25.8026 Y52.6803 
X25.6324 
X25.4654 Y52.6471 
X25.3081 Y52.5819 
X25.1665 Y52.4873 
X25.0462 Y52.3670 
X24.9516 Y52.2254 
X24.8864 Y52.0681 
X24.8532 Y51.9011 
Y51.7309 
X24.8864 Y51.5639 
X24.9516 Y51.4066 
X25.0462 Y51.2650 
X25.1665 Y51.1447 
X25.3081 Y51.0501 
X25.4654 Y50.9849 
X25.6324 Y50.9517 
X25.8026 
X25.9696 Y50.9849 
X26.1269 Y51.0501 
X26.2685 Y51.1447 
X26.3888 Y51.2650 
X26.4802 Y51.4017 
X43.2624 
X49.9237 Y44.7404 
X49.9147 Y44.7186 
X49.8793 Y44.5407 
Y44.3593 
X49.9147 Y44.1814 
X49.9841 Y44.0139 
X50.0848 Y43.8631 
G00 Z2.5400  
G00 X52.6248 Y43.8631 
G01 Z-0.1778 F254   
G01 X52.7531 Y43.7348 F508   
G01 X52.9039 Y43.6341 
X53.0714 Y43.5647 
X53.2493 Y43.5293 
X53.4307 
X53.6086 Y43.5647 
X53.7761 Y43.6341 
X53.9269 Y43.7348 
X54.0552 Y43.8631 
X54.1559 Y44.0139 
X54.2253 Y44.1814 
X54.2607 Y44.3593 
Y44.5407 
X54.2253 Y44.7186 
X54.1559 Y44.8861 
X54.0552 Y45.0369 
X53.9269 Y45.1652 
X53.7761 Y45.2659 
X53.6086 Y45.3353 
X53.4307 Y45.3707 
X53.2493 
X53.0714 Y45.3353 
X53.0496 Y45.3263 
X52.3384 Y46.0375 
X53.9827 Y47.6818 
X54.1439 Y47.6497 
X54.3141 
X54.4811 Y47.6829 
X54.6384 Y47.7481 
X54.7800 Y47.8427 
X54.9003 Y47.9630 
X54.9949 Y48.1046 
X55.0601 Y48.2619 
X55.0933 Y48.4289 
Y48.5991 
X55.0601 Y48.7661 
X54.9949 Y48.9234 
X54.9003 Y49.0650 
X54.7800 Y49.1853 
X54.6384 Y49.2799 
X54.4811 Y49.3451 
X54.3141 Y49.3783 
X54.1439 
X53.9769 Y49.3451 
X53.8196 Y49.2799 
X53.6780 Y49.1853 
X53.5577 Y49.0650 
X53.4631 Y48.9234 
X53.3979 Y48.7661 
X53.3647 Y48.5991 
Y48.4289 
X53.3968 Y48.2677 
X51.7525 Y46.6234 
X44.1465 Y54.2294 
X44.0694 Y54.3065 
X43.9749 Y54.3611 
X43.8695 Y54.3893 
X26.4802 
X26.3888 Y54.5260 
X26.2685 Y54.6463 
X26.1269 Y54.7409 
X25.9696 Y54.8061 
X25.8026 Y54.8393 
X25.6324 
X25.4654 Y54.8061 
X25.3081 Y54.7409 
X25.1665 Y54.6463 
X25.0462 Y54.5260 
X24.9516 Y54.3844 
X24.8864 Y54.2271 
X24.8532 Y54.0601 
Y53.8899 
X24.8864 Y53.7229 
X24.9516 Y53.5656 
X25.0462 Y53.4240 
X25.1665 Y53.3037 
X25.3081 Y53.2091 
X25.4654 Y53.1439 
X25.6324 Y53.1107 
X25.8026 
X25.9696 Y53.1439 
X26.1269 Y53.2091 
X26.2685 Y53.3037 
X26.3888 Y53.4240 
X26.4802 Y53.5607 
X43.6434 
X51.4210 Y45.7831 
X51.4981 Y45.7060 
X52.4637 Y44.7404 
X52.4547 Y44.7186 
X52.4193 Y44.5407 
Y44.3593 
X52.4547 Y44.1814 
X52.5241 Y44.0139 
X52.6248 Y43.8631 
G00 Z2.5400  
G00 X55.1648 Y43.8631 
G01 Z-0.1778 F254   
G01 X55.2931 Y43.7348 F508   
G01 X55.4439 Y43.6341 
X55.6114 Y43.5647 
X55.7893 Y43.5293 
X55.9707 
X56.1486 Y43.5647 
X56.3161 Y43.6341 
X56.4669 Y43.7348 
X56.5952 Y43.8631 
X56.6959 Y44.0139 
X56.7653 Y44.1814 
X56.8007 Y44.3593 
Y44.5407 
X56.7653 Y44.7186 
X56.6959 Y44.8861 
X56.5952 Y45.0369 
X56.4669 Y45.1652 
X56.3161 Y45.2659 
X56.1486 Y45.3353 
X55.9707 Y45.3707 
X55.7893 
X55.6114 Y45.3353 
X55.4439 Y45.2659 
X55.2931 Y45.1652 
X55.1648 Y45.0369 
X55.0641 Y44.8861 
X54.9947 Y44.7186 
X54.9593 Y44.5407 
Y44.3593 
X54.9947 Y44.1814 
X55.0641 Y44.0139 
X55.1648 Y43.8631 
G00 Z2.5400  
G00 X55.1524 Y41.5798 
G01 Z-0.1778 F254   
G01 X54.9709 Y41.5437 F508   
G01 X54.7998 Y41.4728 
X54.6459 Y41.3700 
X54.5150 Y41.2391 
X54.4122 Y41.0852 
X54.3413 Y40.9141 
X54.3052 Y40.7326 
Y40.5474 
X54.3413 Y40.3659 
X54.4122 Y40.1948 
X54.5150 Y40.0409 
X54.6459 Y39.9100 
X54.7998 Y39.8072 
X54.9709 Y39.7363 
X55.1524 Y39.7002 
X55.3376 
X55.5191 Y39.7363 
X55.6902 Y39.8072 
X55.8441 Y39.9100 
X55.9750 Y40.0409 
X56.0778 Y40.1948 
X56.1487 Y40.3659 
X56.1848 Y40.5474 
Y40.7326 
X56.1487 Y40.9141 
X56.0778 Y41.0852 
X55.9750 Y41.2391 
X55.8441 Y41.3700 
X55.6902 Y41.4728 
X55.5191 Y41.5437 
X55.3376 Y41.5798 
X55.1524 
G00 Z2.5400  
G00 X55.1524 Y39.0398 
G01 Z-0.1778 F254   
G01 X54.9709 Y39.0037 F508   
G01 X54.7998 Y38.9328 
X54.6459 Y38.8300 
X54.5150 Y38.6991 
X54.4122 Y38.5452 
X54.3413 Y38.3741 
X54.3052 Y38.1926 
Y38.0074 
X54.3413 Y37.8259 
X54.4122 Y37.6548 
X54.5150 Y37.5009 
X54.6459 Y37.3700 
X54.7998 Y37.2672 
X54.9709 Y37.1963 
X55.0712 Y37.1764 
Y29.6065 
X55.0960 Y29.5139 
X55.1440 Y29.4308 
X56.1476 Y28.4272 
X56.1173 Y28.3677 
X56.0631 Y28.2009 
X56.0357 Y28.0277 
Y27.8523 
X56.0631 Y27.6791 
X56.1173 Y27.5123 
X56.1970 Y27.3560 
X56.3001 Y27.2141 
X56.4241 Y27.0901 
X56.5660 Y26.9870 
X56.7223 Y26.9073 
X56.8891 Y26.8531 
X57.0623 Y26.8257 
X57.2377 
X57.4109 Y26.8531 
X57.5777 Y26.9073 
X57.7340 Y26.9870 
X57.8759 Y27.0901 
X57.9999 Y27.2141 
X58.1030 Y27.3560 
X58.1827 Y27.5123 
X58.2369 Y27.6791 
X58.2643 Y27.8523 
Y28.0277 
X58.2369 Y28.2009 
X58.1827 Y28.3677 
X58.1030 Y28.5240 
X57.9999 Y28.6659 
X57.8759 Y28.7899 
X57.7340 Y28.8930 
X57.5777 Y28.9727 
X57.4109 Y29.0269 
X57.2377 Y29.0543 
X57.0623 
X56.8891 Y29.0269 
X56.7223 Y28.9727 
X56.6628 Y28.9424 
X55.7998 Y29.8054 
Y37.3404 
X55.8441 Y37.3700 
X55.9750 Y37.5009 
X56.0778 Y37.6548 
X56.1487 Y37.8259 
X56.1848 Y38.0074 
Y38.1926 
X56.1487 Y38.3741 
X56.0778 Y38.5452 
X55.9750 Y38.6991 
X55.8441 Y38.8300 
X55.6902 Y38.9328 
X55.5191 Y39.0037 
X55.3376 Y39.0398 
X55.1524 
G00 Z2.5400  
G00 X57.9440 Y40.0409 
G01 Z-0.1778 F254   
G01 X58.0749 Y39.9100 F508   
G01 X58.2288 Y39.8072 
X58.3999 Y39.7363 
X58.5814 Y39.7002 
X58.7666 
X58.9481 Y39.7363 
X59.1192 Y39.8072 
X59.2731 Y39.9100 
X59.4040 Y40.0409 
X59.5068 Y40.1948 
X59.5777 Y40.3659 
X59.6138 Y40.5474 
Y40.7326 
X59.5777 Y40.9141 
X59.5068 Y41.0852 
X59.4040 Y41.2391 
X59.2731 Y41.3700 
X59.1192 Y41.4728 
X58.9481 Y41.5437 
X58.7666 Y41.5798 
X58.5814 
X58.3999 Y41.5437 
X58.2288 Y41.4728 
X58.0749 Y41.3700 
X57.9440 Y41.2391 
X57.8412 Y41.0852 
X57.7703 Y40.9141 
X57.7342 Y40.7326 
Y40.5474 
X57.7703 Y40.3659 
X57.8412 Y40.1948 
X57.9440 Y40.0409 
G00 Z2.5400  
G00 X60.4840 Y40.0409 
G01 Z-0.1778 F254   
G01 X60.6149 Y39.9100 F508   
G01 X60.7688 Y39.8072 
X60.9399 Y39.7363 
X61.1214 Y39.7002 
X61.3066 
X61.4881 Y39.7363 
X61.6592 Y39.8072 
X61.8131 Y39.9100 
X61.9440 Y40.0409 
X62.0468 Y40.1948 
X62.1177 Y40.3659 
X62.1538 Y40.5474 
Y40.7326 
X62.1177 Y40.9141 
X62.0468 Y41.0852 
X61.9440 Y41.2391 
X61.8131 Y41.3700 
X61.6592 Y41.4728 
X61.4881 Y41.5437 
X61.3066 Y41.5798 
X61.1214 
X60.9399 Y41.5437 
X60.7688 Y41.4728 
X60.6149 Y41.3700 
X60.4840 Y41.2391 
X60.3812 Y41.0852 
X60.3103 Y40.9141 
X60.2742 Y40.7326 
Y40.5474 
X60.3103 Y40.3659 
X60.3812 Y40.1948 
X60.4840 Y40.0409 
G00 Z2.5400  
G00 X60.5239 Y37.6459 
G01 Z-0.1778 F254   
G01 X60.3731 Y37.5452 F508   
G01 X60.2448 Y37.4169 
X60.1441 Y37.2661 
X60.0747 Y37.0986 
X60.0393 Y36.9207 
Y36.7393 
X60.0747 Y36.5614 
X60.1441 Y36.3939 
X60.2448 Y36.2431 
X60.3731 Y36.1148 
X60.5239 Y36.0141 
X60.6914 Y35.9447 
X60.8693 Y35.9093 
X61.0507 
X61.2286 Y35.9447 
X61.3961 Y36.0141 
X61.5469 Y36.1148 
X61.6752 Y36.2431 
X61.7759 Y36.3939 
X61.8453 Y36.5614 
X61.8807 Y36.7393 
Y36.9207 
X61.8453 Y37.0986 
X61.7759 Y37.2661 
X61.6752 Y37.4169 
X61.5469 Y37.5452 
X61.3961 Y37.6459 
X61.2286 Y37.7153 
X61.0507 Y37.7507 
X60.8693 
X60.6914 Y37.7153 
X60.5239 Y37.6459 
G00 Z2.5400  
G00 X60.5456 Y32.7504 
G01 Z-0.1778 F254   
G01 X60.3942 Y32.6733 F508   
G01 X60.2568 Y32.5734 
X60.1366 Y32.4532 
X60.0367 Y32.3158 
X59.9596 Y32.1644 
X59.9071 Y32.0028 
X59.8805 Y31.8350 
Y31.6650 
X59.9071 Y31.4972 
X59.9596 Y31.3356 
X60.0367 Y31.1842 
X60.1366 Y31.0468 
X60.2568 Y30.9266 
X60.3942 Y30.8267 
X60.5456 Y30.7496 
X60.7072 Y30.6971 
X60.8750 Y30.6705 
X61.0450 
X61.2128 Y30.6971 
X61.3744 Y30.7496 
X61.5258 Y30.8267 
X61.6632 Y30.9266 
X61.7834 Y31.0468 
X61.8833 Y31.1842 
X61.9604 Y31.3356 
X62.0129 Y31.4972 
X62.0395 Y31.6650 
Y31.8350 
X62.0129 Y32.0028 
X61.9604 Y32.1644 
X61.8833 Y32.3158 
X61.7834 Y32.4532 
X61.6632 Y32.5734 
X61.5258 Y32.6733 
X61.3744 Y32.7504 
X61.2128 Y32.8029 
X61.0450 Y32.8295 
X60.8750 
X60.7072 Y32.8029 
X60.5456 Y32.7504 
G00 Z2.5400  
G00 X63.4961 Y32.7944 
G01 Z-0.1778 F254   
G01 X63.4309 Y32.6371 F508   
G01 X63.3977 Y32.4701 
Y32.2999 
X63.4309 Y32.1329 
X63.4961 Y31.9756 
X63.5907 Y31.8340 
X63.7110 Y31.7137 
X63.8526 Y31.6191 
X64.0099 Y31.5539 
X64.1769 Y31.5207 
X64.3471 
X64.5141 Y31.5539 
X64.6714 Y31.6191 
X64.8130 Y31.7137 
X64.9333 Y31.8340 
X65.0279 Y31.9756 
X65.0931 Y32.1329 
X65.1263 Y32.2999 
Y32.4701 
X65.0931 Y32.6371 
X65.0279 Y32.7944 
X64.9333 Y32.9360 
X64.8130 Y33.0563 
X64.6763 Y33.1477 
Y41.1669 
X65.7671 Y42.2577 
X66.8565 
X66.9619 Y42.2859 
X67.0564 Y42.3405 
X68.2896 Y43.5737 
X68.3114 Y43.5647 
X68.4893 Y43.5293 
X68.6707 
X68.8486 Y43.5647 
X69.0161 Y43.6341 
X69.1669 Y43.7348 
X69.2952 Y43.8631 
X69.3959 Y44.0139 
X69.4653 Y44.1814 
X69.5007 Y44.3593 
Y44.5407 
X69.4653 Y44.7186 
X69.3959 Y44.8861 
X69.2952 Y45.0369 
X69.1669 Y45.1652 
X69.0161 Y45.2659 
X68.8486 Y45.3353 
X68.6707 Y45.3707 
X68.4893 
X68.3114 Y45.3353 
X68.1439 Y45.2659 
X67.9931 Y45.1652 
X67.8648 Y45.0369 
X67.7641 Y44.8861 
X67.6947 Y44.7186 
X67.6593 Y44.5407 
Y44.3593 
X67.6947 Y44.1814 
X67.7037 Y44.1596 
X66.6304 Y43.0863 
X65.5410 
X65.4356 Y43.0581 
X65.3411 Y43.0035 
X65.2640 Y42.9264 
X63.9305 Y41.5929 
X63.8759 Y41.4984 
X63.8477 Y41.3930 
Y33.1477 
X63.7110 Y33.0563 
X63.5907 Y32.9360 
X63.4961 Y32.7944 
G00 Z2.5400  
G00 X64.0441 Y28.7899 
G01 Z-0.1778 F254   
G01 X63.9201 Y28.6659 F508   
G01 X63.8170 Y28.5240 
X63.7373 Y28.3677 
X63.6831 Y28.2009 
X63.6557 Y28.0277 
Y27.8523 
X63.6831 Y27.6791 
X63.7373 Y27.5123 
X63.8170 Y27.3560 
X63.9201 Y27.2141 
X64.0441 Y27.0901 
X64.1860 Y26.9870 
X64.3423 Y26.9073 
X64.5091 Y26.8531 
X64.6823 Y26.8257 
X64.8577 
X65.0309 Y26.8531 
X65.1977 Y26.9073 
X65.3540 Y26.9870 
X65.4959 Y27.0901 
X65.6199 Y27.2141 
X65.7230 Y27.3560 
X65.8027 Y27.5123 
X65.8569 Y27.6791 
X65.8843 Y27.8523 
Y28.0277 
X65.8569 Y28.2009 
X65.8027 Y28.3677 
X65.7230 Y28.5240 
X65.6199 Y28.6659 
X65.4959 Y28.7899 
X65.3540 Y28.8930 
X65.1977 Y28.9727 
X65.0309 Y29.0269 
X64.8577 Y29.0543 
X64.6823 
X64.5091 Y29.0269 
X64.3423 Y28.9727 
X64.1860 Y28.8930 
X64.0441 Y28.7899 
G00 Z2.5400  
G00 X64.0441 Y26.2499 
G01 Z-0.1778 F254   
G01 X63.9201 Y26.1259 F508   
G01 X63.8170 Y25.9840 
X63.7373 Y25.8277 
X63.6831 Y25.6609 
X63.6557 Y25.4877 
Y25.3123 
X63.6831 Y25.1391 
X63.7373 Y24.9723 
X63.8170 Y24.8160 
X63.9201 Y24.6741 
X64.0441 Y24.5501 
X64.1860 Y24.4470 
X64.3423 Y24.3673 
X64.5091 Y24.3131 
X64.6823 Y24.2857 
X64.8577 
X65.0309 Y24.3131 
X65.1977 Y24.3673 
X65.3540 Y24.4470 
X65.4959 Y24.5501 
X65.6199 Y24.6741 
X65.7230 Y24.8160 
X65.8027 Y24.9723 
X65.8569 Y25.1391 
X65.8843 Y25.3123 
Y25.4877 
X65.8569 Y25.6609 
X65.8027 Y25.8277 
X65.7230 Y25.9840 
X65.6199 Y26.1259 
X65.4959 Y26.2499 
X65.3540 Y26.3530 
X65.1977 Y26.4327 
X65.0309 Y26.4869 
X64.8577 Y26.5143 
X64.6823 
X64.5091 Y26.4869 
X64.3423 Y26.4327 
X64.1860 Y26.3530 
X64.0441 Y26.2499 
G00 Z2.5400  
G00 X57.9999 Y26.1259 
G01 Z-0.1778 F254   
G01 X57.8759 Y26.2499 F508   
G01 X57.7340 Y26.3530 
X57.5777 Y26.4327 
X57.4109 Y26.4869 
X57.2377 Y26.5143 
X57.0623 
X56.8891 Y26.4869 
X56.7223 Y26.4327 
X56.5660 Y26.3530 
X56.4241 Y26.2499 
X56.3001 Y26.1259 
X56.1970 Y25.9840 
X56.1173 Y25.8277 
X56.0631 Y25.6609 
X56.0357 Y25.4877 
Y25.3123 
X56.0631 Y25.1391 
X56.1173 Y24.9723 
X56.1970 Y24.8160 
X56.3001 Y24.6741 
X56.4241 Y24.5501 
X56.5660 Y24.4470 
X56.7223 Y24.3673 
X56.8891 Y24.3131 
X57.0623 Y24.2857 
X57.2377 
X57.4109 Y24.3131 
X57.5777 Y24.3673 
X57.7340 Y24.4470 
X57.8759 Y24.5501 
X57.9999 Y24.6741 
X58.1030 Y24.8160 
X58.1827 Y24.9723 
X58.2369 Y25.1391 
X58.2643 Y25.3123 
Y25.4877 
X58.2369 Y25.6609 
X58.1827 Y25.8277 
X58.1030 Y25.9840 
X57.9999 Y26.1259 
G00 Z2.5400  
G00 X60.2568 Y22.4134 
G01 Z-0.1778 F254   
G01 X60.1366 Y22.2932 F508   
G01 X60.0367 Y22.1558 
X59.9596 Y22.0044 
X59.9071 Y21.8428 
X59.8805 Y21.6750 
Y21.5050 
X59.9071 Y21.3372 
X59.9596 Y21.1756 
X60.0367 Y21.0242 
X60.1366 Y20.8868 
X60.2568 Y20.7666 
X60.3942 Y20.6667 
X60.5456 Y20.5896 
X60.7072 Y20.5371 
X60.8750 Y20.5105 
X61.0450 
X61.2128 Y20.5371 
X61.3744 Y20.5896 
X61.5258 Y20.6667 
X61.6632 Y20.7666 
X61.7834 Y20.8868 
X61.8833 Y21.0242 
X61.9604 Y21.1756 
X62.0129 Y21.3372 
X62.0395 Y21.5050 
Y21.6750 
X62.0129 Y21.8428 
X61.9604 Y22.0044 
X61.8833 Y22.1558 
X61.7834 Y22.2932 
X61.6632 Y22.4134 
X61.5258 Y22.5133 
X61.3744 Y22.5904 
X61.2128 Y22.6429 
X61.0450 Y22.6695 
X60.8750 
X60.7072 Y22.6429 
X60.5456 Y22.5904 
X60.3942 Y22.5133 
X60.2568 Y22.4134 
G00 Z2.5400  
G00 X54.3929 Y22.4778 
G01 Z-0.1778 F254   
G01 X54.3404 Y22.6394 F508   
G01 X54.2633 Y22.7908 
X54.1634 Y22.9282 
X54.0432 Y23.0484 
X53.9058 Y23.1483 
X53.7544 Y23.2254 
X53.5928 Y23.2779 
X53.4250 Y23.3045 
X53.2550 
X53.0872 Y23.2779 
X52.9256 Y23.2254 
X52.7742 Y23.1483 
X52.6368 Y23.0484 
X52.5166 Y22.9282 
X52.4167 Y22.7908 
X52.3396 Y22.6394 
X52.2871 Y22.4778 
X52.2605 Y22.3100 
Y22.1400 
X52.2871 Y21.9722 
X52.3396 Y21.8106 
X52.4167 Y21.6592 
X52.5166 Y21.5218 
X52.6368 Y21.4016 
X52.7742 Y21.3017 
X52.9256 Y21.2246 
X53.0872 Y21.1721 
X53.2550 Y21.1455 
X53.4250 
X53.5928 Y21.1721 
X53.7544 Y21.2246 
X53.9058 Y21.3017 
X54.0432 Y21.4016 
X54.1634 Y21.5218 
X54.2633 Y21.6592 
X54.3404 Y21.8106 
X54.3929 Y21.9722 
X54.4195 Y22.1400 
Y22.3100 
X54.3929 Y22.4778 
G00 Z2.5400  
G00 X50.2559 Y24.5501 
G01 Z-0.1778 F254   
G01 X50.3799 Y24.6741 F508   
G01 X50.4830 Y24.8160 
X50.5627 Y24.9723 
X50.6169 Y25.1391 
X50.6443 Y25.3123 
Y25.4877 
X50.6169 Y25.6609 
X50.5627 Y25.8277 
X50.4830 Y25.9840 
X50.3799 Y26.1259 
X50.2559 Y26.2499 
X50.1140 Y26.3530 
X49.9577 Y26.4327 
X49.7909 Y26.4869 
X49.6177 Y26.5143 
X49.4423 
X49.2691 Y26.4869 
X49.1023 Y26.4327 
X48.9460 Y26.3530 
X48.8041 Y26.2499 
X48.6801 Y26.1259 
X48.5770 Y25.9840 
X48.4973 Y25.8277 
X48.4431 Y25.6609 
X48.4157 Y25.4877 
Y25.3123 
X48.4431 Y25.1391 
X48.4973 Y24.9723 
X48.5770 Y24.8160 
X48.6801 Y24.6741 
X48.8041 Y24.5501 
X48.9460 Y24.4470 
X49.1023 Y24.3673 
X49.2691 Y24.3131 
X49.4423 Y24.2857 
X49.6177 
X49.7909 Y24.3131 
X49.9577 Y24.3673 
X50.1140 Y24.4470 
X50.2559 Y24.5501 
G00 Z2.5400  
G00 X50.2559 Y27.0901 
G01 Z-0.1778 F254   
G01 X50.3799 Y27.2141 F508   
G01 X50.4830 Y27.3560 
X50.5627 Y27.5123 
X50.6169 Y27.6791 
X50.6443 Y27.8523 
Y28.0277 
X50.6169 Y28.2009 
X50.5627 Y28.3677 
X50.4830 Y28.5240 
X50.3799 Y28.6659 
X50.2559 Y28.7899 
X50.1140 Y28.8930 
X49.9577 Y28.9727 
X49.7909 Y29.0269 
X49.6177 Y29.0543 
X49.4423 
X49.2691 Y29.0269 
X49.1023 Y28.9727 
X48.9460 Y28.8930 
X48.8041 Y28.7899 
X48.6801 Y28.6659 
X48.5770 Y28.5240 
X48.4973 Y28.3677 
X48.4431 Y28.2009 
X48.4157 Y28.0277 
Y27.8523 
X48.4431 Y27.6791 
X48.4973 Y27.5123 
X48.5770 Y27.3560 
X48.6801 Y27.2141 
X48.8041 Y27.0901 
X48.9460 Y26.9870 
X49.1023 Y26.9073 
X49.2691 Y26.8531 
X49.4423 Y26.8257 
X49.6177 
X49.7909 Y26.8531 
X49.9577 Y26.9073 
X50.1140 Y26.9870 
X50.2559 Y27.0901 
G00 Z2.5400  
G00 X52.5166 Y31.6818 
G01 Z-0.1778 F254   
G01 X52.6368 Y31.5616 F508   
G01 X52.7742 Y31.4617 
X52.9256 Y31.3846 
X53.0872 Y31.3321 
X53.2550 Y31.3055 
X53.4250 
X53.5928 Y31.3321 
X53.7544 Y31.3846 
X53.9058 Y31.4617 
X54.0432 Y31.5616 
X54.1634 Y31.6818 
X54.2633 Y31.8192 
X54.3404 Y31.9706 
X54.3929 Y32.1322 
X54.4195 Y32.3000 
Y32.4700 
X54.3929 Y32.6378 
X54.3404 Y32.7994 
X54.2633 Y32.9508 
X54.1634 Y33.0882 
X54.0432 Y33.2084 
X53.9058 Y33.3083 
X53.7544 Y33.3854 
X53.5928 Y33.4379 
X53.4250 Y33.4645 
X53.2550 
X53.0872 Y33.4379 
X52.9256 Y33.3854 
X52.7742 Y33.3083 
X52.6368 Y33.2084 
X52.5166 Y33.0882 
X52.4167 Y32.9508 
X52.3396 Y32.7994 
X52.2871 Y32.6378 
X52.2605 Y32.4700 
Y32.3000 
X52.2871 Y32.1322 
X52.3396 Y31.9706 
X52.4167 Y31.8192 
X52.5166 Y31.6818 
G00 Z2.5400  
G00 X46.7995 Y31.6650 
G01 Z-0.1778 F254   
G01 X46.7995 Y31.8350 F508   
G01 X46.7729 Y32.0028 
X46.7204 Y32.1644 
X46.6433 Y32.3158 
X46.5434 Y32.4532 
X46.4232 Y32.5734 
X46.2858 Y32.6733 
X46.1344 Y32.7504 
X45.9728 Y32.8029 
X45.8050 Y32.8295 
X45.6350 
X45.4672 Y32.8029 
X45.3056 Y32.7504 
X45.1542 Y32.6733 
X45.0168 Y32.5734 
X44.8966 Y32.4532 
X44.7967 Y32.3158 
X44.7196 Y32.1644 
X44.6671 Y32.0028 
X44.6405 Y31.8350 
Y31.6650 
X44.6671 Y31.4972 
X44.7196 Y31.3356 
X44.7967 Y31.1842 
X44.8966 Y31.0468 
X45.0168 Y30.9266 
X45.1542 Y30.8267 
X45.3056 Y30.7496 
X45.4672 Y30.6971 
X45.6350 Y30.6705 
X45.8050 
X45.9728 Y30.6971 
X46.1344 Y30.7496 
X46.2858 Y30.8267 
X46.4232 Y30.9266 
X46.5434 Y31.0468 
X46.6433 Y31.1842 
X46.7204 Y31.3356 
X46.7729 Y31.4972 
X46.7995 Y31.6650 
G00 Z2.5400  
G00 X48.0380 Y36.1039 
G01 Z-0.1778 F254   
G01 X48.1689 Y35.9730 F508   
G01 X48.3228 Y35.8702 
X48.4939 Y35.7993 
X48.6754 Y35.7632 
X48.8606 
X49.0421 Y35.7993 
X49.2132 Y35.8702 
X49.3671 Y35.9730 
X49.4980 Y36.1039 
X49.6008 Y36.2578 
X49.6717 Y36.4289 
X49.7078 Y36.6104 
Y36.7956 
X49.6717 Y36.9771 
X49.6008 Y37.1482 
X49.4980 Y37.3021 
X49.3671 Y37.4330 
X49.2132 Y37.5358 
X49.0421 Y37.6067 
X48.8606 Y37.6428 
X48.6754 
X48.4939 Y37.6067 
X48.3228 Y37.5358 
X48.1689 Y37.4330 
X48.0380 Y37.3021 
X47.9352 Y37.1482 
X47.8643 Y36.9771 
X47.8282 Y36.7956 
Y36.6104 
X47.8643 Y36.4289 
X47.9352 Y36.2578 
X48.0380 Y36.1039 
G00 Z2.5400  
G00 X42.7599 Y28.6659 
G01 Z-0.1778 F254   
G01 X42.6359 Y28.7899 F508   
G01 X42.4940 Y28.8930 
X42.3377 Y28.9727 
X42.1709 Y29.0269 
X41.9977 Y29.0543 
X41.8223 
X41.6491 Y29.0269 
X41.4823 Y28.9727 
X41.3260 Y28.8930 
X41.1841 Y28.7899 
X41.0601 Y28.6659 
X40.9570 Y28.5240 
X40.8773 Y28.3677 
X40.8231 Y28.2009 
X40.7957 Y28.0277 
Y27.8523 
X40.8231 Y27.6791 
X40.8773 Y27.5123 
X40.9570 Y27.3560 
X41.0601 Y27.2141 
X41.1841 Y27.0901 
X41.3260 Y26.9870 
X41.4823 Y26.9073 
X41.6491 Y26.8531 
X41.8223 Y26.8257 
X41.9977 
X42.1709 Y26.8531 
X42.3377 Y26.9073 
X42.4940 Y26.9870 
X42.6359 Y27.0901 
X42.7599 Y27.2141 
X42.8630 Y27.3560 
X42.9427 Y27.5123 
X42.9969 Y27.6791 
X43.0243 Y27.8523 
Y28.0277 
X42.9969 Y28.2009 
X42.9427 Y28.3677 
X42.8630 Y28.5240 
X42.7599 Y28.6659 
G00 Z2.5400  
G00 X42.7599 Y26.1259 
G01 Z-0.1778 F254   
G01 X42.6359 Y26.2499 F508   
G01 X42.4940 Y26.3530 
X42.3377 Y26.4327 
X42.1709 Y26.4869 
X41.9977 Y26.5143 
X41.8223 
X41.6491 Y26.4869 
X41.4823 Y26.4327 
X41.3260 Y26.3530 
X41.1841 Y26.2499 
X41.0601 Y26.1259 
X40.9570 Y25.9840 
X40.8773 Y25.8277 
X40.8231 Y25.6609 
X40.7957 Y25.4877 
Y25.3123 
X40.8231 Y25.1391 
X40.8773 Y24.9723 
X40.9570 Y24.8160 
X41.0601 Y24.6741 
X41.1841 Y24.5501 
X41.3260 Y24.4470 
X41.4823 Y24.3673 
X41.6491 Y24.3131 
X41.8223 Y24.2857 
X41.9977 
X42.1709 Y24.3131 
X42.3377 Y24.3673 
X42.4940 Y24.4470 
X42.6359 Y24.5501 
X42.7599 Y24.6741 
X42.8630 Y24.8160 
X42.9427 Y24.9723 
X42.9969 Y25.1391 
X43.0243 Y25.3123 
Y25.4877 
X42.9969 Y25.6609 
X42.9427 Y25.8277 
X42.8630 Y25.9840 
X42.7599 Y26.1259 
G00 Z2.5400  
G00 X45.0168 Y22.4134 
G01 Z-0.1778 F254   
G01 X44.8966 Y22.2932 F508   
G01 X44.7967 Y22.1558 
X44.7196 Y22.0044 
X44.6671 Y21.8428 
X44.6405 Y21.6750 
Y21.5050 
X44.6671 Y21.3372 
X44.7196 Y21.1756 
X44.7967 Y21.0242 
X44.8966 Y20.8868 
X45.0168 Y20.7666 
X45.1542 Y20.6667 
X45.3056 Y20.5896 
X45.4672 Y20.5371 
X45.6350 Y20.5105 
X45.8050 
X45.9728 Y20.5371 
X46.1344 Y20.5896 
X46.2858 Y20.6667 
X46.4232 Y20.7666 
X46.5434 Y20.8868 
X46.6433 Y21.0242 
X46.7204 Y21.1756 
X46.7729 Y21.3372 
X46.7995 Y21.5050 
Y21.6750 
X46.7729 Y21.8428 
X46.7204 Y22.0044 
X46.6433 Y22.1558 
X46.5434 Y22.2932 
X46.4232 Y22.4134 
X46.2858 Y22.5133 
X46.1344 Y22.5904 
X45.9728 Y22.6429 
X45.8050 Y22.6695 
X45.6350 
X45.4672 Y22.6429 
X45.3056 Y22.5904 
X45.1542 Y22.5133 
X45.0168 Y22.4134 
G00 Z2.5400  
G00 X38.9234 Y22.2932 
G01 Z-0.1778 F254   
G01 X38.8032 Y22.4134 F508   
G01 X38.6658 Y22.5133 
X38.5144 Y22.5904 
X38.3528 Y22.6429 
X38.1850 Y22.6695 
X38.0150 
X37.8472 Y22.6429 
X37.6856 Y22.5904 
X37.5342 Y22.5133 
X37.3968 Y22.4134 
X37.2766 Y22.2932 
X37.1767 Y22.1558 
X37.0996 Y22.0044 
X37.0471 Y21.8428 
X37.0205 Y21.6750 
Y21.5050 
X37.0471 Y21.3372 
X37.0996 Y21.1756 
X37.1767 Y21.0242 
X37.2766 Y20.8868 
X37.3968 Y20.7666 
X37.5342 Y20.6667 
X37.6856 Y20.5896 
X37.8472 Y20.5371 
X38.0150 Y20.5105 
X38.1850 
X38.3528 Y20.5371 
X38.5144 Y20.5896 
X38.6658 Y20.6667 
X38.8032 Y20.7666 
X38.9234 Y20.8868 
X39.0233 Y21.0242 
X39.1004 Y21.1756 
X39.1529 Y21.3372 
X39.1795 Y21.5050 
Y21.6750 
X39.1529 Y21.8428 
X39.1004 Y22.0044 
X39.0233 Y22.1558 
X38.9234 Y22.2932 
G00 Z2.5400  
G00 X24.1982 Y33.4666 
G01 Z-0.1778 F254   
G01 X24.3184 Y33.5868 F508   
G01 X24.4183 Y33.7242 
X24.4954 Y33.8756 
X24.5479 Y34.0372 
X24.5745 Y34.2050 
Y34.3750 
X24.5479 Y34.5428 
X24.4954 Y34.7044 
X24.4183 Y34.8558 
X24.3184 Y34.9932 
X24.1982 Y35.1134 
X24.0608 Y35.2133 
X23.9094 Y35.2904 
X23.7478 Y35.3429 
X23.5800 Y35.3695 
X23.4100 
X23.2422 Y35.3429 
X23.0806 Y35.2904 
X22.9292 Y35.2133 
X22.7918 Y35.1134 
X22.6716 Y34.9932 
X22.5717 Y34.8558 
X22.4946 Y34.7044 
X22.4421 Y34.5428 
X22.4155 Y34.3750 
Y34.2050 
X22.4421 Y34.0372 
X22.4946 Y33.8756 
X22.5717 Y33.7242 
X22.6716 Y33.5868 
X22.7918 Y33.4666 
X22.9292 Y33.3667 
X23.0806 Y33.2896 
X23.2422 Y33.2371 
X23.4100 Y33.2105 
X23.5800 
X23.7478 Y33.2371 
X23.9094 Y33.2896 
X24.0608 Y33.3667 
X24.1982 Y33.4666 
G00 Z2.5400  
G00 X19.2809 Y42.9151 
G01 Z-0.1778 F254   
G01 X19.4049 Y43.0391 F508   
G01 X19.5080 Y43.1810 
X19.5877 Y43.3373 
X19.6419 Y43.5041 
X19.6693 Y43.6773 
Y43.8527 
X19.6419 Y44.0259 
X19.5877 Y44.1927 
X19.5080 Y44.3490 
X19.4049 Y44.4909 
X19.2809 Y44.6149 
X19.1390 Y44.7180 
X18.9827 Y44.7977 
X18.8159 Y44.8519 
X18.6427 Y44.8793 
X18.4673 
X18.2941 Y44.8519 
X18.1273 Y44.7977 
X17.9710 Y44.7180 
X17.8291 Y44.6149 
X17.7051 Y44.4909 
X17.6020 Y44.3490 
X17.5223 Y44.1927 
X17.4681 Y44.0259 
X17.4407 Y43.8527 
Y43.6773 
X17.4681 Y43.5041 
X17.5223 Y43.3373 
X17.6020 Y43.1810 
X17.7051 Y43.0391 
X17.8291 Y42.9151 
X17.9710 Y42.8120 
X18.1273 Y42.7323 
X18.2941 Y42.6781 
X18.4673 Y42.6507 
X18.6427 
X18.8159 Y42.6781 
X18.9827 Y42.7323 
X19.1390 Y42.8120 
X19.2809 Y42.9151 
G00 Z2.5400  
G00 X19.3923 Y49.2003 
G01 Z-0.1778 F254   
G01 X19.5862 Y49.1617 F508   
G01 X19.7838 Y49.1617 
X19.9777 Y49.2003 
X20.1602 Y49.2759 
X20.3246 Y49.3857 
X20.4643 Y49.5254 
X20.5741 Y49.6898 
X20.6497 Y49.8723 
X20.6883 Y50.0662 
Y50.2638 
X20.6497 Y50.4577 
X20.5741 Y50.6402 
X20.4643 Y50.8046 
X20.3246 Y50.9443 
X20.1602 Y51.0541 
X19.9777 Y51.1297 
X19.7838 Y51.1683 
X19.5862 
X19.3923 Y51.1297 
X19.2098 Y51.0541 
X19.0454 Y50.9443 
X18.9057 Y50.8046 
X18.8148 Y50.6686 
X15.8890 Y53.5944 
X15.8119 Y53.6715 
X15.7174 Y53.7261 
X15.6120 Y53.7543 
X13.0369 
X12.9665 Y53.8925 
X12.8690 Y54.0267 
X12.7517 Y54.1440 
X12.6175 Y54.2415 
X12.4696 Y54.3169 
X12.3118 Y54.3681 
X12.1480 Y54.3941 
X11.9820 
X11.8182 Y54.3681 
X11.6604 Y54.3169 
X11.5125 Y54.2415 
X11.3783 Y54.1440 
X11.2610 Y54.0267 
X11.1635 Y53.8925 
X11.0881 Y53.7446 
X11.0369 Y53.5868 
X11.0109 Y53.4230 
Y53.2570 
X11.0369 Y53.0932 
X11.0881 Y52.9354 
X11.1635 Y52.7875 
X11.2610 Y52.6533 
X11.3783 Y52.5360 
X11.5125 Y52.4385 
X11.6604 Y52.3631 
X11.8182 Y52.3119 
X11.9820 Y52.2859 
X12.1480 
X12.3118 Y52.3119 
X12.4696 Y52.3631 
X12.6175 Y52.4385 
X12.7517 Y52.5360 
X12.8690 Y52.6533 
X12.9665 Y52.7875 
X13.0369 Y52.9257 
X15.3859 
X18.4781 Y49.8335 
X18.5726 Y49.7789 
X18.6780 Y49.7507 
X18.7706 
X18.7959 Y49.6898 
X18.9057 Y49.5254 
X19.0454 Y49.3857 
X19.2098 Y49.2759 
X19.3923 Y49.2003 
G00 Z2.5400  
G00 X21.4457 Y49.5254 
G01 Z-0.1778 F254   
G01 X21.5854 Y49.3857 F508   
G01 X21.7498 Y49.2759 
X21.9323 Y49.2003 
X22.1262 Y49.1617 
X22.3238 
X22.5176 Y49.2003 
X22.7002 Y49.2759 
X22.8646 Y49.3857 
X23.0043 Y49.5254 
X23.1141 Y49.6898 
X23.1897 Y49.8723 
X23.2283 Y50.0662 
Y50.2638 
X23.1897 Y50.4577 
X23.1141 Y50.6402 
X23.0043 Y50.8046 
X22.8646 Y50.9443 
X22.7002 Y51.0541 
X22.5176 Y51.1297 
X22.3238 Y51.1683 
X22.1262 
X21.9323 Y51.1297 
X21.7498 Y51.0541 
X21.5854 Y50.9443 
X21.4457 Y50.8046 
X21.3359 Y50.6402 
X21.2603 Y50.4577 
X21.2217 Y50.2638 
Y50.0662 
X21.2603 Y49.8723 
X21.3359 Y49.6898 
X21.4457 Y49.5254 
G00 Z2.5400  
G00 X21.4457 Y52.0654 
G01 Z-0.1778 F254   
G01 X21.5854 Y51.9257 F508   
G01 X21.7498 Y51.8159 
X21.9323 Y51.7403 
X22.1262 Y51.7017 
X22.3238 
X22.5176 Y51.7403 
X22.7002 Y51.8159 
X22.8646 Y51.9257 
X23.0043 Y52.0654 
X23.1141 Y52.2298 
X23.1897 Y52.4123 
X23.2283 Y52.6062 
Y52.8038 
X23.1897 Y52.9977 
X23.1141 Y53.1802 
X23.0043 Y53.3446 
X22.8646 Y53.4843 
X22.7002 Y53.5941 
X22.5176 Y53.6697 
X22.3238 Y53.7083 
X22.1262 
X21.9323 Y53.6697 
X21.7498 Y53.5941 
X21.5854 Y53.4843 
X21.4457 Y53.3446 
X21.3359 Y53.1802 
X21.2603 Y52.9977 
X21.2217 Y52.8038 
Y52.6062 
X21.2603 Y52.4123 
X21.3359 Y52.2298 
X21.4457 Y52.0654 
G00 Z2.5400  
G00 X20.4643 Y52.0654 
G01 Z-0.1778 F254   
G01 X20.5741 Y52.2298 F508   
G01 X20.6497 Y52.4123 
X20.6883 Y52.6062 
Y52.8038 
X20.6497 Y52.9977 
X20.5741 Y53.1802 
X20.4643 Y53.3446 
X20.3246 Y53.4843 
X20.1602 Y53.5941 
X19.9777 Y53.6697 
X19.7838 Y53.7083 
X19.5862 
X19.3923 Y53.6697 
X19.2098 Y53.5941 
X19.0454 Y53.4843 
X18.9057 Y53.3446 
X18.7959 Y53.1802 
X18.7203 Y52.9977 
X18.6817 Y52.8038 
Y52.6062 
X18.7203 Y52.4123 
X18.7959 Y52.2298 
X18.9057 Y52.0654 
X19.0454 Y51.9257 
X19.2098 Y51.8159 
X19.3923 Y51.7403 
X19.5862 Y51.7017 
X19.7838 
X19.9777 Y51.7403 
X20.1602 Y51.8159 
X20.3246 Y51.9257 
X20.4643 Y52.0654 
G00 Z2.5400  
G00 X20.3246 Y54.4657 
G01 Z-0.1778 F254   
G01 X20.4643 Y54.6054 F508   
G01 X20.5741 Y54.7698 
X20.6497 Y54.9523 
X20.6883 Y55.1462 
Y55.3438 
X20.6497 Y55.5376 
X20.5741 Y55.7202 
X20.4643 Y55.8846 
X20.3246 Y56.0243 
X20.1602 Y56.1341 
X19.9777 Y56.2097 
X19.7838 Y56.2483 
X19.5862 
X19.3923 Y56.2097 
X19.2098 Y56.1341 
X19.0454 Y56.0243 
X18.9057 Y55.8846 
X18.7959 Y55.7202 
X18.7203 Y55.5376 
X18.6817 Y55.3438 
Y55.1462 
X18.7203 Y54.9523 
X18.7959 Y54.7698 
X18.9057 Y54.6054 
X19.0454 Y54.4657 
X19.2098 Y54.3559 
X19.3923 Y54.2803 
X19.5862 Y54.2417 
X19.7838 
X19.9777 Y54.2803 
X20.1602 Y54.3559 
X20.3246 Y54.4657 
G00 Z2.5400  
G00 X21.4457 Y54.6054 
G01 Z-0.1778 F254   
G01 X21.5854 Y54.4657 F508   
G01 X21.7498 Y54.3559 
X21.9323 Y54.2803 
X22.1262 Y54.2417 
X22.3238 
X22.5176 Y54.2803 
X22.7002 Y54.3559 
X22.8646 Y54.4657 
X23.0043 Y54.6054 
X23.1141 Y54.7698 
X23.1897 Y54.9523 
X23.2283 Y55.1462 
Y55.3438 
X23.1897 Y55.5376 
X23.1141 Y55.7202 
X23.0043 Y55.8846 
X22.8646 Y56.0243 
X22.7002 Y56.1341 
X22.5176 Y56.2097 
X22.3238 Y56.2483 
X22.1262 
X21.9323 Y56.2097 
X21.9163 Y56.2031 
X17.4958 Y60.6236 
Y67.6268 
X17.6325 Y67.7182 
X17.7528 Y67.8385 
X17.8474 Y67.9801 
X17.9126 Y68.1374 
X17.9458 Y68.3044 
Y68.4746 
X17.9126 Y68.6416 
X17.8474 Y68.7989 
X17.7528 Y68.9405 
X17.6325 Y69.0608 
X17.4909 Y69.1554 
X17.3336 Y69.2206 
X17.1666 Y69.2538 
X16.9964 
X16.8294 Y69.2206 
X16.6721 Y69.1554 
X16.5305 Y69.0608 
X16.4102 Y68.9405 
X16.3156 Y68.7989 
X16.2504 Y68.6416 
X16.2172 Y68.4746 
Y68.3044 
X16.2504 Y68.1374 
X16.3156 Y67.9801 
X16.4102 Y67.8385 
X16.5305 Y67.7182 
X16.6672 Y67.6268 
Y60.5065 
Y60.3975 
X16.6954 Y60.2921 
X16.7500 Y60.1976 
X21.3041 Y55.6435 
X21.2603 Y55.5376 
X21.2217 Y55.3438 
Y55.1462 
X21.2603 Y54.9523 
X21.3359 Y54.7698 
X21.4457 Y54.6054 
G00 Z2.5400  
G00 X27.1417 Y61.8060 
G01 Z-0.1778 F254   
G01 X27.2620 Y61.6857 F508   
G01 X27.4036 Y61.5911 
X27.5609 Y61.5259 
X27.7279 Y61.4927 
X27.8981 
X28.0651 Y61.5259 
X28.2224 Y61.5911 
X28.3640 Y61.6857 
X28.4843 Y61.8060 
X28.5789 Y61.9476 
X28.6441 Y62.1049 
X28.6773 Y62.2719 
Y62.4421 
X28.6441 Y62.6091 
X28.5789 Y62.7664 
X28.4843 Y62.9080 
X28.3640 Y63.0283 
X28.2224 Y63.1229 
X28.0651 Y63.1881 
X27.8981 Y63.2213 
X27.7279 
X27.5667 Y63.1892 
X20.0727 Y70.6832 
X20.1048 Y70.8444 
Y71.0146 
X20.0716 Y71.1816 
X20.0064 Y71.3389 
X19.9118 Y71.4805 
X19.7915 Y71.6008 
X19.6499 Y71.6954 
X19.4926 Y71.7606 
X19.3256 Y71.7938 
X19.1554 
X18.9884 Y71.7606 
X18.8311 Y71.6954 
X18.6895 Y71.6008 
X18.5692 Y71.4805 
X18.4746 Y71.3389 
X18.4094 Y71.1816 
X18.3762 Y71.0146 
Y70.8444 
X18.4094 Y70.6774 
X18.4746 Y70.5201 
X18.5692 Y70.3785 
X18.6895 Y70.2582 
X18.8311 Y70.1636 
X18.9884 Y70.0984 
X19.1554 Y70.0652 
X19.3256 
X19.4868 Y70.0973 
X26.9808 Y62.6033 
X26.9487 Y62.4421 
Y62.2719 
X26.9819 Y62.1049 
X27.0471 Y61.9476 
X27.1417 Y61.8060 
G00 Z2.5400  
G00 X32.4331 Y60.4052 
G01 Z-0.1778 F254   
G01 X32.3048 Y60.2769 F508   
G01 X32.2041 Y60.1261 
X32.1347 Y59.9586 
X32.0993 Y59.7807 
Y59.5993 
X32.1347 Y59.4214 
X32.2041 Y59.2539 
X32.3048 Y59.1031 
X32.4331 Y58.9748 
X32.5839 Y58.8741 
X32.7514 Y58.8047 
X32.9293 Y58.7693 
X33.1107 
X33.2886 Y58.8047 
X33.4561 Y58.8741 
X33.6069 Y58.9748 
X33.7352 Y59.1031 
X33.8359 Y59.2539 
X33.9053 Y59.4214 
X33.9407 Y59.5993 
Y59.7807 
X33.9053 Y59.9586 
X33.8359 Y60.1261 
X33.7352 Y60.2769 
X33.6069 Y60.4052 
X33.4561 Y60.5059 
X33.2886 Y60.5753 
X33.1107 Y60.6107 
X32.9293 
X32.7514 Y60.5753 
X32.5839 Y60.5059 
X32.4331 Y60.4052 
G00 Z2.5400  
G00 X34.9731 Y60.4052 
G01 Z-0.1778 F254   
G01 X34.8448 Y60.2769 F508   
G01 X34.7441 Y60.1261 
X34.6747 Y59.9586 
X34.6393 Y59.7807 
Y59.5993 
X34.6747 Y59.4214 
X34.7441 Y59.2539 
X34.8448 Y59.1031 
X34.9731 Y58.9748 
X35.1239 Y58.8741 
X35.2914 Y58.8047 
X35.4693 Y58.7693 
X35.6507 
X35.8286 Y58.8047 
X35.9961 Y58.8741 
X36.1469 Y58.9748 
X36.2752 Y59.1031 
X36.3759 Y59.2539 
X36.4453 Y59.4214 
X36.4807 Y59.5993 
Y59.7807 
X36.4453 Y59.9586 
X36.3759 Y60.1261 
X36.2752 Y60.2769 
X36.1469 Y60.4052 
X35.9961 Y60.5059 
X35.8286 Y60.5753 
X35.6507 Y60.6107 
X35.4693 
X35.2914 Y60.5753 
X35.1239 Y60.5059 
X34.9731 Y60.4052 
G00 Z2.5400  
G00 X37.5131 Y60.4052 
G01 Z-0.1778 F254   
G01 X37.3848 Y60.2769 F508   
G01 X37.2841 Y60.1261 
X37.2147 Y59.9586 
X37.1793 Y59.7807 
Y59.5993 
X37.2147 Y59.4214 
X37.2841 Y59.2539 
X37.3848 Y59.1031 
X37.5131 Y58.9748 
X37.6639 Y58.8741 
X37.8314 Y58.8047 
X38.0093 Y58.7693 
X38.1907 
X38.3686 Y58.8047 
X38.5361 Y58.8741 
X38.6869 Y58.9748 
X38.8152 Y59.1031 
X38.9159 Y59.2539 
X38.9853 Y59.4214 
X39.0207 Y59.5993 
Y59.7807 
X38.9853 Y59.9586 
X38.9159 Y60.1261 
X38.8152 Y60.2769 
X38.6869 Y60.4052 
X38.5361 Y60.5059 
X38.3686 Y60.5753 
X38.1907 Y60.6107 
X38.0093 
X37.8314 Y60.5753 
X37.6639 Y60.5059 
X37.5131 Y60.4052 
G00 Z2.5400  
G00 X40.0531 Y60.4052 
G01 Z-0.1778 F254   
G01 X39.9248 Y60.2769 F508   
G01 X39.8241 Y60.1261 
X39.7547 Y59.9586 
X39.7193 Y59.7807 
Y59.5993 
X39.7547 Y59.4214 
X39.8241 Y59.2539 
X39.9248 Y59.1031 
