(.../pcb-gcode-3.6.2.4/pcb-gcode.ulp)
(Copyright 2005 - 2012 by John Johnson)
(See readme.txt for licensing terms.)
(This file generated from the board:)
(.../3K_valdiklis_v1/3K_valdiklis_v1.brd)
(Current profile is .../pcb-gcode-3.6.2.4/profiles/mach.pp  )
(This file generated 2016.10.12 22:36:41)
(Settings from pcb-machine.h)
(spindle on time = 3.0000)
(spindle speed = 20000.0000)
(tool change at 0.0000  0.0000  25.4000 )
(feed rate xy = F0     )
(feed rate z  = F508   )
(Z Axis Settings)
(  High     Up        Down     Drill)
(12.7000 	2.5400  	-0.1778 	-0.8128 )
(Settings from pcb-defaults.h)
(isolate min = 0.0254)
(isolate max = 0.5080)
(isolate step = 0.1270)
(Generated top outlines, top drill, bottom outlines, )
(Unit of measure: mm)
( Tool|       Size       |  Min Sub |  Max Sub |   Count )
( T01 | 0.500mm 0.0197in | 0.0197in | 0.0236in |      17 )
( T02 | 0.813mm 0.0320in | 0.0276in | 0.0320in |     127 )
( T03 | 1.016mm 0.0400in | 0.0354in | 0.0440in |     108 )
( T04 | 1.270mm 0.0500in | 0.0500in | 0.0512in |       2 )
( T05 | 2.286mm 0.0900in | 0.0000in | 0.0000in |       0 )
( T06 | 3.175mm 0.1250in | 0.1181in | 0.1250in |       6 )
(Metric Mode)
G21
(Absolute Coordinates)
G90
S20000
G00 Z12.7000 
G00 X0.0000  Y0.0000  
M03
G04 P3.000000
M05
G00 Z25.4000 
M06 T01  ; 0.5000  
G01 Z0.0000  F508   
M06 
G00 Z2.5400  
M03
G04 P3.000000
G82 X2.9210  Y60.8330 Z-0.8128 F508   R2.5400  P1.000000
G82 X17.0815 Y68.3895 
G82 X19.2405 Y70.9295 
G82 X19.2405 Y82.2325 
G82 X6.0960  Y84.1375 
G82 X27.8130 Y62.3570 
G82 X25.7175 Y53.9750 
G82 X25.7175 Y51.8160 
G82 X18.0340 Y48.5775 
G82 X37.6555 Y50.1650 
G82 X45.4025 Y38.8620 
G82 X48.0695 Y29.8450 
G82 X64.2620 Y32.3850 
G82 X60.3250 Y50.1650 
G82 X54.2290 Y48.5140 
G82 X74.0410 Y66.5480 
G82 X70.1040 Y2.6670  
M05
G00 Z25.4000 
G00 X0.0000  Y0.0000  
M06 T02  ; 0.8128  
G01 Z0.0000  F508   
M06 
G00 Z2.5400  
M03
G04 P3.000000
G82 X0.0000  Y0.0000  Z-0.8128 F508   R2.5400  P1.000000
G82 X30.4800 Y21.5900 
G82 X38.1000 Y21.5900 
G82 X45.7200 Y21.5900 
G82 X53.3400 Y22.2250 
G82 X60.9600 Y21.5900 
G82 X60.9600 Y31.7500 
G82 X60.9600 Y36.8300 
G82 X61.2140 Y40.6400 
G82 X58.6740 Y40.6400 
G82 X55.2450 Y40.6400 
G82 X55.2450 Y38.1000 
G82 X53.3400 Y32.3850 
G82 X48.7680 Y36.7030 
G82 X48.7680 Y39.2430 
G82 X48.2600 Y44.4500 
G82 X45.7200 Y44.4500 
G82 X43.1800 Y44.4500 
G82 X40.6400 Y44.4500 
G82 X38.1000 Y44.4500 
G82 X35.5600 Y44.4500 
G82 X33.0200 Y44.4500 
G82 X31.7500 Y40.6400 
G82 X29.2100 Y40.6400 
G82 X33.6550 Y34.2900 
G82 X30.4800 Y31.7500 
G82 X23.4950 Y34.2900 
G82 X38.1000 Y31.7500 
G82 X45.7200 Y31.7500 
G82 X50.8000 Y44.4500 
G82 X53.3400 Y44.4500 
G82 X55.8800 Y44.4500 
G82 X58.4200 Y44.4500 
G82 X60.9600 Y44.4500 
G82 X63.5000 Y44.4500 
G82 X66.0400 Y44.4500 
G82 X68.5800 Y44.4500 
G82 X71.1200 Y44.4500 
G82 X73.6600 Y44.4500 
G82 X76.2000 Y44.4500 
G82 X78.7400 Y44.4500 
G82 X81.2800 Y44.4500 
G82 X88.2650 Y48.2600 
G82 X90.8050 Y48.2600 
G82 X93.9800 Y48.2600 
G82 X93.9800 Y45.7200 
G82 X93.9800 Y43.1800 
G82 X90.8050 Y38.1000 
G82 X88.2650 Y38.1000 
G82 X89.5350 Y28.0670 
G82 X89.5350 Y25.5270 
G82 X89.5350 Y22.9870 
G82 X89.5350 Y20.4470 
G82 X89.5350 Y17.9070 
G82 X89.5350 Y15.3670 
G82 X89.5350 Y12.8270 
G82 X89.5350 Y10.2870 
G82 X86.6775 Y10.1600 
G82 X80.2640 Y8.3820  
G82 X70.1040 Y8.3820  
G82 X97.1550 Y10.2870 
G82 X97.1550 Y12.8270 
G82 X97.1550 Y15.3670 
G82 X97.1550 Y17.9070 
G82 X97.1550 Y20.4470 
G82 X97.1550 Y22.9870 
G82 X97.1550 Y25.5270 
G82 X97.1550 Y28.0670 
G82 X104.9020 Y25.6540 
G82 X104.9020 Y15.4940 
G82 X120.0000 Y0.0000  
G82 X105.4100 Y43.1800 
G82 X105.4100 Y45.7200 
G82 X101.6000 Y45.7200 
G82 X101.6000 Y48.2600 
G82 X101.6000 Y50.8000 
G82 X101.6000 Y53.8480 
G82 X99.0600 Y53.8480 
G82 X93.9800 Y50.8000 
G82 X101.6000 Y43.1800 
G82 X81.2800 Y59.6900 
G82 X78.7400 Y59.6900 
G82 X76.2000 Y59.6900 
G82 X73.6600 Y59.6900 
G82 X71.1200 Y59.6900 
G82 X68.5800 Y59.6900 
G82 X66.0400 Y59.6900 
G82 X63.5000 Y59.6900 
G82 X60.9600 Y59.6900 
G82 X58.4200 Y59.6900 
G82 X55.8800 Y59.6900 
G82 X53.3400 Y59.6900 
G82 X50.8000 Y59.6900 
G82 X48.2600 Y59.6900 
G82 X45.7200 Y59.6900 
G82 X43.1800 Y59.6900 
G82 X40.6400 Y59.6900 
G82 X38.1000 Y59.6900 
G82 X35.5600 Y59.6900 
G82 X33.0200 Y59.6900 
G82 X15.2400 Y76.2000 
G82 X15.2400 Y78.7400 
G82 X15.2400 Y81.2800 
G82 X6.3500  Y81.2800 
G82 X3.8100  Y81.2800 
G82 X8.8900  Y95.2500 
G82 X11.4300 Y95.2500 
G82 X0.0000  Y100.0000 
G82 X1.9050  Y58.4200 
G82 X4.4450  Y58.4200 
G82 X5.0800  Y50.1650 
G82 X7.6200  Y50.1650 
G82 X66.0400 Y40.6400 
G82 X68.5800 Y40.6400 
G82 X66.0400 Y36.8300 
G82 X82.8675 Y62.1030 
G82 X88.9000 Y68.5800 
G82 X91.4400 Y68.5800 
G82 X92.0750 Y84.4550 
G82 X88.2650 Y84.4550 
G82 X82.5500 Y83.8200 
G82 X80.0100 Y83.8200 
G82 X88.2650 Y94.6150 
G82 X92.0750 Y94.6150 
G82 X97.7900 Y96.5200 
G82 X107.9500 Y96.5200 
G82 X120.0000 Y100.0000 
M05
G00 Z25.4000 
G00 X0.0000  Y0.0000  
M06 T03  ; 1.0160  
G01 Z0.0000  F508   
M06 
G00 Z2.5400  
M03
G04 P3.000000
G82 X1.9050  Y53.3400 Z-0.8128 F508   R2.5400  P1.000000
G82 X3.1550  Y43.7650 
G82 X12.0650 Y53.3400 
G82 X10.7950 Y59.6900 
G82 X8.3312  Y68.6000 
G82 X6.3500  Y68.6000 
G82 X6.3500  Y71.1000 
G82 X8.3312  Y71.1000 
G82 X21.5500 Y71.8600 
G82 X21.5500 Y74.4000 
G82 X21.5500 Y76.9400 
G82 X21.5500 Y79.4800 
G82 X21.5500 Y82.0200 
G82 X21.5500 Y84.5600 
G82 X21.5500 Y87.1000 
G82 X21.5500 Y89.6400 
G82 X20.9550 Y59.6900 
G82 X19.6850 Y55.2450 
G82 X19.6850 Y52.7050 
G82 X19.6850 Y50.1650 
G82 X22.2250 Y50.1650 
G82 X22.2250 Y52.7050 
G82 X22.2250 Y55.2450 
G82 X18.5550 Y43.7650 
G82 X26.6700 Y27.9400 
G82 X26.6700 Y25.4000 
G82 X34.2900 Y25.4000 
G82 X34.2900 Y27.9400 
G82 X41.9100 Y27.9400 
G82 X41.9100 Y25.4000 
G82 X49.5300 Y25.4000 
G82 X49.5300 Y27.9400 
G82 X57.1500 Y27.9400 
G82 X57.1500 Y25.4000 
G82 X64.7700 Y25.4000 
G82 X64.7700 Y27.9400 
G82 X64.7700 Y15.2400 
G82 X64.7700 Y10.1600 
G82 X57.1500 Y10.1600 
G82 X57.1500 Y15.2400 
G82 X49.5300 Y15.2400 
G82 X49.5300 Y10.1600 
G82 X41.9100 Y10.1600 
G82 X41.9100 Y15.2400 
G82 X34.2900 Y15.2400 
G82 X34.2900 Y10.1600 
G82 X26.6700 Y10.1600 
G82 X26.6700 Y15.2400 
G82 X17.6350 Y7.1820  
G82 X14.1350 Y7.1820  
G82 X9.0170  Y9.0170  
G82 X9.0170  Y5.2070  
G82 X8.3550  Y14.3650 
G82 X13.3550 Y14.3650 
G82 X25.4000 Y2.5400  
G82 X27.9400 Y2.5400  
G82 X33.0200 Y2.5400  
G82 X35.5600 Y2.5400  
G82 X40.6400 Y2.5400  
G82 X43.1800 Y2.5400  
G82 X48.2600 Y2.5400  
G82 X50.8000 Y2.5400  
G82 X55.8800 Y2.5400  
G82 X58.4200 Y2.5400  
G82 X63.5000 Y2.5400  
G82 X66.0400 Y2.5400  
G82 X73.1520 Y2.6670  
G82 X75.6920 Y2.6670  
G82 X78.2320 Y2.6670  
G82 X84.4550 Y2.6670  
G82 X86.9950 Y2.6670  
G82 X90.8050 Y2.6670  
G82 X93.3450 Y2.6670  
G82 X97.1550 Y2.6670  
G82 X99.6950 Y2.6670  
G82 X104.7750 Y2.6670  
G82 X107.3150 Y2.6670  
G82 X109.8550 Y2.6670  
G82 X112.3950 Y2.6670  
G82 X111.1250 Y11.5570 
G82 X108.5850 Y11.5570 
G82 X106.0450 Y11.5570 
G82 X108.5850 Y15.3670 
G82 X108.5850 Y25.5270 
G82 X93.7006 Y71.6788 
G82 X89.1794 Y71.6788 
G82 X83.8200 Y69.2150 
G82 X80.0100 Y69.2150 
G82 X74.5500 Y76.9400 
G82 X74.5500 Y79.4800 
G82 X74.5500 Y82.0200 
G82 X74.5500 Y84.5500 
G82 X80.0100 Y79.3750 
G82 X83.8200 Y79.3750 
G82 X89.1794 Y78.1812 
G82 X93.7006 Y78.1812 
G82 X96.7994 Y85.6488 
G82 X101.3206 Y85.6488 
G82 X104.4194 Y86.2838 
G82 X108.9406 Y86.2838 
G82 X112.0394 Y86.9188 
G82 X116.5606 Y86.9188 
G82 X116.5606 Y93.4212 
G82 X112.0394 Y93.4212 
G82 X108.9406 Y92.7862 
G82 X104.4194 Y92.7862 
G82 X101.3206 Y92.1512 
G82 X96.7994 Y92.1512 
M05
G00 Z25.4000 
G00 X0.0000  Y0.0000  
M06 T04  ; 1.2700  
G01 Z0.0000  F508   
M06 
G00 Z2.5400  
M03
G04 P3.000000
G82 X97.7900 Y69.8500 Z-0.8128 F508   R2.5400  P1.000000
G82 X117.7900 Y69.8500 
M05
G00 Z25.4000 
G00 X0.0000  Y0.0000  
M06 T05  ; 2.2860  
G01 Z0.0000  F508   
M06 
G00 Z2.5400  
M03
G04 P3.000000
G82 X3.6322  Y63.8302 Z-0.8128 F508   R2.5400  P1.000000
G82 X3.6322  Y75.8698 
M05
G00 Z25.4000 
G00 X0.0000  Y0.0000  
M06 T06  ; 3.1750  
G01 Z0.0000  F508   
M06 
G00 Z2.5400  
M03
G04 P3.000000
G82 X3.0000  Y3.0000  Z-0.8128 F508   R2.5400  P1.000000
G82 X3.0000  Y97.0000 
G82 X74.0410 Y94.9960 
G82 X74.0410 Y66.5480 
G82 X117.0000 Y97.0000 
G82 X117.0000 Y3.0000  
T01 
G00 Z12.7000 
M05
M02
