(.../pcb-gcode-3.6.2.4/pcb-gcode.ulp)
(Copyright 2005 - 2012 by John Johnson)
(See readme.txt for licensing terms.)
(This file generated from the board:)
(.../3K_valdiklis_v1/3K_valdiklis_v1.2.brd)
(Current profile is .../pcb-gcode-3.6.2.4/profiles/mach.pp  )
(This file generated 2016.11.03 22:13:28)
(Settings from pcb-machine.h)
(spindle on time = 3.0000)
(spindle speed = 20000.0000)
(tool change at 0.0000  0.0000  25.4000 )
(feed rate xy = F0     )
(feed rate z  = F508   )
(Z Axis Settings)
(  High     Up        Down     Drill)
(12.7000 	2.5400  	-0.1778 	-1.5000 )
(Settings from pcb-defaults.h)
(isolate min = 0.0254)
(isolate max = 0.5080)
(isolate step = 0.1270)
(Generated top outlines, top drill, top stencil, bottom outlines, bottom stencil)
(Unit of measure: mm)
( Tool|       Size       |  Min Sub |  Max Sub |   Count )
( T01 | 0.500mm 0.0197in | 0.0197in | 0.0236in |      20 )
( T02 | 0.813mm 0.0320in | 0.0276in | 0.0320in |     109 )
( T03 | 1.016mm 0.0400in | 0.0354in | 0.0440in |     124 )
( T04 | 2.286mm 0.0900in | 0.0000in | 0.0000in |       0 )
( T06 | 3.175mm 0.1250in | 0.1181in | 0.1250in |       3 )
( T06 | 3.200mm 0.1260in | 0.1181in | 0.1250in |       3 )
(Metric Mode)
G21
(Absolute Coordinates)
G90
S20000
G00 Z12.7000 
G00 X0.0000  Y0.0000  
M03
G04 P3.000000
M05
G00 Z25.4000 
M06 T01  ; 0.5000  
G01 Z0.0000  F508   
M06 
G00 Z2.5400  
M03
G04 P3.000000
G00 X37.5920 Y8.2550  
G01 Z-1.5000 F508   
G00 Z2.5400  
G00 X46.8630 Y14.7320 
G01 Z-1.5000 F508   
G00 Z2.5400  
G00 X51.4350 Y9.2075  
G01 Z-1.5000 F508   
G00 Z2.5400  
G00 X50.2920 Y7.6200  
G01 Z-1.5000 F508   
G00 Z2.5400  
G00 X59.3090 Y8.0645  
G01 Z-1.5000 F508   
G00 Z2.5400  
G00 X75.1840 Y16.9545 
G01 Z-1.5000 F508   
G00 Z2.5400  
G00 X87.2490 Y21.3995 
G01 Z-1.5000 F508   
G00 Z2.5400  
G00 X91.0590 Y17.0815 
G01 Z-1.5000 F508   
G00 Z2.5400  
G00 X107.8865 Y16.5100 
G01 Z-1.5000 F508   
G00 Z2.5400  
G00 X104.3305 Y32.9565 
G01 Z-1.5000 F508   
G00 Z2.5400  
G00 X72.0725 Y36.4490 
G01 Z-1.5000 F508   
G00 Z2.5400  
G00 X70.6755 Y40.7670 
G01 Z-1.5000 F508   
G00 Z2.5400  
G00 X74.9935 Y58.9280 
G01 Z-1.5000 F508   
G00 Z2.5400  
G00 X70.6120 Y63.4365 
G01 Z-1.5000 F508   
G00 Z2.5400  
G00 X70.6120 Y76.8350 
G01 Z-1.5000 F508   
G00 Z2.5400  
G00 X76.5175 Y77.1525 
G01 Z-1.5000 F508   
G00 Z2.5400  
G00 X78.4860 Y78.1685 
G01 Z-1.5000 F508   
G00 Z2.5400  
G00 X92.2020 Y72.0090 
G01 Z-1.5000 F508   
G00 Z2.5400  
G00 X46.6725 Y40.8305 
G01 Z-1.5000 F508   
G00 Z2.5400  
G00 X44.9580 Y42.7355 
G01 Z-1.5000 F508   
G00 Z2.5400  
M05
G00 Z25.4000 
G00 X0.0000  Y0.0000  
M06 T02  ; 0.8128  
G01 Z0.0000  F508   
M06 
G00 Z2.5400  
M03
G04 P3.000000
G00 X0.0470  Y0.0000  
G01 Z-1.5000 F508   
G00 Z2.5400  
G00 X34.4170 Y12.1920 
G01 Z-1.5000 F508   
G00 Z2.5400  
G00 X34.4170 Y14.7320 
G01 Z-1.5000 F508   
G00 Z2.5400  
G00 X34.4170 Y17.2720 
G01 Z-1.5000 F508   
G00 Z2.5400  
G00 X34.4170 Y19.8120 
G01 Z-1.5000 F508   
G00 Z2.5400  
G00 X34.4170 Y22.3520 
G01 Z-1.5000 F508   
G00 Z2.5400  
G00 X34.4170 Y24.8920 
G01 Z-1.5000 F508   
G00 Z2.5400  
G00 X34.4170 Y27.4320 
G01 Z-1.5000 F508   
G00 Z2.5400  
G00 X34.4170 Y29.9720 
G01 Z-1.5000 F508   
G00 Z2.5400  
G00 X36.8300 Y34.4170 
G01 Z-1.5000 F508   
G00 Z2.5400  
G00 X39.3700 Y34.4170 
G01 Z-1.5000 F508   
G00 Z2.5400  
G00 X42.0370 Y29.9720 
G01 Z-1.5000 F508   
G00 Z2.5400  
G00 X42.0370 Y27.4320 
G01 Z-1.5000 F508   
G00 Z2.5400  
G00 X42.0370 Y24.8920 
G01 Z-1.5000 F508   
G00 Z2.5400  
G00 X42.0370 Y22.3520 
G01 Z-1.5000 F508   
G00 Z2.5400  
G00 X42.0370 Y19.8120 
G01 Z-1.5000 F508   
G00 Z2.5400  
G00 X42.0370 Y17.2720 
G01 Z-1.5000 F508   
G00 Z2.5400  
G00 X42.0370 Y14.7320 
G01 Z-1.5000 F508   
G00 Z2.5400  
G00 X42.0370 Y12.1920 
G01 Z-1.5000 F508   
G00 Z2.5400  
G00 X56.0070 Y27.9400 
G01 Z-1.5000 F508   
G00 Z2.5400  
G00 X61.0870 Y27.9400 
G01 Z-1.5000 F508   
G00 Z2.5400  
G00 X61.0870 Y33.0200 
G01 Z-1.5000 F508   
G00 Z2.5400  
G00 X61.0870 Y35.5600 
G01 Z-1.5000 F508   
G00 Z2.5400  
G00 X57.9120 Y35.5600 
G01 Z-1.5000 F508   
G00 Z2.5400  
G00 X57.9120 Y33.0200 
G01 Z-1.5000 F508   
G00 Z2.5400  
G00 X52.1970 Y34.9250 
G01 Z-1.5000 F508   
G00 Z2.5400  
G00 X49.6570 Y34.9250 
G01 Z-1.5000 F508   
G00 Z2.5400  
G00 X67.4370 Y35.5600 
G01 Z-1.5000 F508   
G00 Z2.5400  
G00 X67.4370 Y33.0200 
G01 Z-1.5000 F508   
G00 Z2.5400  
G00 X67.4370 Y30.4800 
G01 Z-1.5000 F508   
G00 Z2.5400  
G00 X67.4370 Y27.9400 
G01 Z-1.5000 F508   
G00 Z2.5400  
G00 X67.4370 Y25.4000 
G01 Z-1.5000 F508   
G00 Z2.5400  
G00 X67.4370 Y22.8600 
G01 Z-1.5000 F508   
G00 Z2.5400  
G00 X67.4370 Y20.3200 
G01 Z-1.5000 F508   
G00 Z2.5400  
G00 X67.4370 Y17.7800 
G01 Z-1.5000 F508   
G00 Z2.5400  
G00 X67.4370 Y15.2400 
G01 Z-1.5000 F508   
G00 Z2.5400  
G00 X67.4370 Y12.7000 
G01 Z-1.5000 F508   
G00 Z2.5400  
G00 X63.1190 Y13.0810 
G01 Z-1.5000 F508   
G00 Z2.5400  
G00 X63.1190 Y2.9210  
G01 Z-1.5000 F508   
G00 Z2.5400  
G00 X82.6770 Y12.7000 
G01 Z-1.5000 F508   
G00 Z2.5400  
G00 X82.6770 Y15.2400 
G01 Z-1.5000 F508   
G00 Z2.5400  
G00 X82.6770 Y17.7800 
G01 Z-1.5000 F508   
G00 Z2.5400  
G00 X82.6770 Y20.3200 
G01 Z-1.5000 F508   
G00 Z2.5400  
G00 X82.6770 Y22.8600 
G01 Z-1.5000 F508   
G00 Z2.5400  
G00 X82.6770 Y25.4000 
G01 Z-1.5000 F508   
G00 Z2.5400  
G00 X82.6770 Y27.9400 
G01 Z-1.5000 F508   
G00 Z2.5400  
G00 X82.6770 Y30.4800 
G01 Z-1.5000 F508   
G00 Z2.5400  
G00 X82.6770 Y33.0200 
G01 Z-1.5000 F508   
G00 Z2.5400  
G00 X82.6770 Y35.5600 
G01 Z-1.5000 F508   
G00 Z2.5400  
G00 X82.6770 Y38.1000 
G01 Z-1.5000 F508   
G00 Z2.5400  
G00 X82.6770 Y40.6400 
G01 Z-1.5000 F508   
G00 Z2.5400  
G00 X82.6770 Y43.1800 
G01 Z-1.5000 F508   
G00 Z2.5400  
G00 X82.6770 Y45.7200 
G01 Z-1.5000 F508   
G00 Z2.5400  
G00 X82.6770 Y48.2600 
G01 Z-1.5000 F508   
G00 Z2.5400  
G00 X82.6770 Y50.8000 
G01 Z-1.5000 F508   
G00 Z2.5400  
G00 X82.6770 Y53.3400 
G01 Z-1.5000 F508   
G00 Z2.5400  
G00 X82.6770 Y55.8800 
G01 Z-1.5000 F508   
G00 Z2.5400  
G00 X82.6770 Y58.4200 
G01 Z-1.5000 F508   
G00 Z2.5400  
G00 X82.6770 Y60.9600 
G01 Z-1.5000 F508   
G00 Z2.5400  
G00 X81.4070 Y72.3900 
G01 Z-1.5000 F508   
G00 Z2.5400  
G00 X78.8670 Y72.3900 
G01 Z-1.5000 F508   
G00 Z2.5400  
G00 X83.9470 Y72.3900 
G01 Z-1.5000 F508   
G00 Z2.5400  
G00 X86.4870 Y80.6450 
G01 Z-1.5000 F508   
G00 Z2.5400  
G00 X86.4870 Y83.1850 
G01 Z-1.5000 F508   
G00 Z2.5400  
G00 X99.8220 Y80.6450 
G01 Z-1.5000 F508   
G00 Z2.5400  
G00 X99.8220 Y78.1050 
G01 Z-1.5000 F508   
G00 Z2.5400  
G00 X67.4370 Y60.9600 
G01 Z-1.5000 F508   
G00 Z2.5400  
G00 X67.4370 Y58.4200 
G01 Z-1.5000 F508   
G00 Z2.5400  
G00 X67.4370 Y55.8800 
G01 Z-1.5000 F508   
G00 Z2.5400  
G00 X67.4370 Y53.3400 
G01 Z-1.5000 F508   
G00 Z2.5400  
G00 X67.4370 Y50.8000 
G01 Z-1.5000 F508   
G00 Z2.5400  
G00 X67.4370 Y48.2600 
G01 Z-1.5000 F508   
G00 Z2.5400  
G00 X67.4370 Y45.7200 
G01 Z-1.5000 F508   
G00 Z2.5400  
G00 X67.4370 Y43.1800 
G01 Z-1.5000 F508   
G00 Z2.5400  
G00 X67.4370 Y40.6400 
G01 Z-1.5000 F508   
G00 Z2.5400  
G00 X67.4370 Y38.1000 
G01 Z-1.5000 F508   
G00 Z2.5400  
G00 X89.5350 Y37.4650 
G01 Z-1.5000 F508   
G00 Z2.5400  
G00 X89.5350 Y40.0050 
G01 Z-1.5000 F508   
G00 Z2.5400  
G00 X90.9320 Y31.1150 
G01 Z-1.5000 F508   
G00 Z2.5400  
G00 X90.9320 Y26.6700 
G01 Z-1.5000 F508   
G00 Z2.5400  
G00 X101.0920 Y26.6700 
G01 Z-1.5000 F508   
G00 Z2.5400  
G00 X101.0920 Y31.1150 
G01 Z-1.5000 F508   
G00 Z2.5400  
G00 X104.2670 Y23.4950 
G01 Z-1.5000 F508   
G00 Z2.5400  
G00 X104.2670 Y13.3350 
G01 Z-1.5000 F508   
G00 Z2.5400  
G00 X104.9020 Y6.9850  
G01 Z-1.5000 F508   
G00 Z2.5400  
G00 X107.4420 Y6.9850  
G01 Z-1.5000 F508   
G00 Z2.5400  
G00 X138.0470 Y0.0000  
G01 Z-1.5000 F508   
G00 Z2.5400  
G00 X129.0320 Y36.1950 
G01 Z-1.5000 F508   
G00 Z2.5400  
G00 X126.4920 Y36.1950 
G01 Z-1.5000 F508   
G00 Z2.5400  
G00 X138.0470 Y90.0000 
G01 Z-1.5000 F508   
G00 Z2.5400  
G00 X59.0550 Y74.6760 
G01 Z-1.5000 F508   
G00 Z2.5400  
G00 X59.0550 Y64.5160 
G01 Z-1.5000 F508   
G00 Z2.5400  
G00 X48.3870 Y60.3250 
G01 Z-1.5000 F508   
G00 Z2.5400  
G00 X40.1320 Y57.7850 
G01 Z-1.5000 F508   
G00 Z2.5400  
G00 X32.5120 Y57.7850 
G01 Z-1.5000 F508   
G00 Z2.5400  
G00 X24.8920 Y57.7850 
G01 Z-1.5000 F508   
G00 Z2.5400  
G00 X17.2720 Y57.7850 
G01 Z-1.5000 F508   
G00 Z2.5400  
G00 X9.6520  Y57.7850 
G01 Z-1.5000 F508   
G00 Z2.5400  
G00 X11.5570 Y51.4350 
G01 Z-1.5000 F508   
G00 Z2.5400  
G00 X11.5570 Y48.8950 
G01 Z-1.5000 F508   
G00 Z2.5400  
G00 X6.4770  Y48.2600 
G01 Z-1.5000 F508   
G00 Z2.5400  
G00 X6.4770  Y50.8000 
G01 Z-1.5000 F508   
G00 Z2.5400  
G00 X9.6520  Y67.9450 
G01 Z-1.5000 F508   
G00 Z2.5400  
G00 X17.2720 Y67.9450 
G01 Z-1.5000 F508   
G00 Z2.5400  
G00 X24.8920 Y67.9450 
G01 Z-1.5000 F508   
G00 Z2.5400  
G00 X32.5120 Y67.9450 
G01 Z-1.5000 F508   
G00 Z2.5400  
G00 X40.1320 Y67.9450 
G01 Z-1.5000 F508   
G00 Z2.5400  
G00 X48.3870 Y70.4850 
G01 Z-1.5000 F508   
G00 Z2.5400  
G00 X0.0470  Y90.0000 
G01 Z-1.5000 F508   
G00 Z2.5400  
M05
G00 Z25.4000 
G00 X0.0000  Y0.0000  
M06 T03  ; 1.0160  
G01 Z0.0000  F508   
M06 
G00 Z2.5400  
M03
G04 P3.000000
G00 X4.5720  Y86.9950 
G01 Z-1.5000 F508   
G00 Z2.5400  
G00 X7.1120  Y86.9950 
G01 Z-1.5000 F508   
G00 Z2.5400  
G00 X12.1920 Y86.9950 
G01 Z-1.5000 F508   
G00 Z2.5400  
G00 X14.7320 Y86.9950 
G01 Z-1.5000 F508   
G00 Z2.5400  
G00 X19.8120 Y86.9950 
G01 Z-1.5000 F508   
G00 Z2.5400  
G00 X22.3520 Y86.9950 
G01 Z-1.5000 F508   
G00 Z2.5400  
G00 X27.4320 Y86.9950 
G01 Z-1.5000 F508   
G00 Z2.5400  
G00 X29.9720 Y86.9950 
G01 Z-1.5000 F508   
G00 Z2.5400  
G00 X35.0520 Y86.9950 
G01 Z-1.5000 F508   
G00 Z2.5400  
G00 X37.5920 Y86.9950 
G01 Z-1.5000 F508   
G00 Z2.5400  
G00 X42.6720 Y86.9950 
G01 Z-1.5000 F508   
G00 Z2.5400  
G00 X45.2120 Y86.9950 
G01 Z-1.5000 F508   
G00 Z2.5400  
G00 X43.9420 Y81.9150 
G01 Z-1.5000 F508   
G00 Z2.5400  
G00 X43.9420 Y79.3750 
G01 Z-1.5000 F508   
G00 Z2.5400  
G00 X43.9420 Y74.2950 
G01 Z-1.5000 F508   
G00 Z2.5400  
G00 X36.3220 Y74.2950 
G01 Z-1.5000 F508   
G00 Z2.5400  
G00 X36.3220 Y79.3750 
G01 Z-1.5000 F508   
G00 Z2.5400  
G00 X36.3220 Y81.9150 
G01 Z-1.5000 F508   
G00 Z2.5400  
G00 X28.7020 Y81.9150 
G01 Z-1.5000 F508   
G00 Z2.5400  
G00 X28.7020 Y79.3750 
G01 Z-1.5000 F508   
G00 Z2.5400  
G00 X28.7020 Y74.2950 
G01 Z-1.5000 F508   
G00 Z2.5400  
G00 X21.0820 Y74.2950 
G01 Z-1.5000 F508   
G00 Z2.5400  
G00 X21.0820 Y79.3750 
G01 Z-1.5000 F508   
G00 Z2.5400  
G00 X21.0820 Y81.9150 
G01 Z-1.5000 F508   
G00 Z2.5400  
G00 X13.4620 Y81.9150 
G01 Z-1.5000 F508   
G00 Z2.5400  
G00 X13.4620 Y79.3750 
G01 Z-1.5000 F508   
G00 Z2.5400  
G00 X13.4620 Y74.2950 
G01 Z-1.5000 F508   
G00 Z2.5400  
G00 X5.8420  Y74.2950 
G01 Z-1.5000 F508   
G00 Z2.5400  
G00 X5.8420  Y79.3750 
G01 Z-1.5000 F508   
G00 Z2.5400  
G00 X5.8420  Y81.9150 
G01 Z-1.5000 F508   
G00 Z2.5400  
G00 X5.8420  Y64.1350 
G01 Z-1.5000 F508   
G00 Z2.5400  
G00 X5.8420  Y61.5950 
G01 Z-1.5000 F508   
G00 Z2.5400  
G00 X13.4620 Y61.5950 
G01 Z-1.5000 F508   
G00 Z2.5400  
G00 X13.4620 Y64.1350 
G01 Z-1.5000 F508   
G00 Z2.5400  
G00 X21.0820 Y64.1350 
G01 Z-1.5000 F508   
G00 Z2.5400  
G00 X21.0820 Y61.5950 
G01 Z-1.5000 F508   
G00 Z2.5400  
G00 X28.7020 Y61.5950 
G01 Z-1.5000 F508   
G00 Z2.5400  
G00 X28.7020 Y64.1350 
G01 Z-1.5000 F508   
G00 Z2.5400  
G00 X36.3220 Y64.1350 
G01 Z-1.5000 F508   
G00 Z2.5400  
G00 X36.3220 Y61.5950 
G01 Z-1.5000 F508   
G00 Z2.5400  
G00 X43.9420 Y61.5950 
G01 Z-1.5000 F508   
G00 Z2.5400  
G00 X43.9420 Y64.1350 
G01 Z-1.5000 F508   
G00 Z2.5400  
G00 X53.4670 Y64.6430 
G01 Z-1.5000 F508   
G00 Z2.5400  
G00 X53.4670 Y74.8030 
G01 Z-1.5000 F508   
G00 Z2.5400  
G00 X54.1020 Y79.8830 
G01 Z-1.5000 F508   
G00 Z2.5400  
G00 X56.6420 Y79.8830 
G01 Z-1.5000 F508   
G00 Z2.5400  
G00 X59.1820 Y79.8830 
G01 Z-1.5000 F508   
G00 Z2.5400  
G00 X60.4520 Y86.8680 
G01 Z-1.5000 F508   
G00 Z2.5400  
G00 X57.9120 Y86.8680 
G01 Z-1.5000 F508   
G00 Z2.5400  
G00 X55.3720 Y86.8680 
G01 Z-1.5000 F508   
G00 Z2.5400  
G00 X52.8320 Y86.8680 
G01 Z-1.5000 F508   
G00 Z2.5400  
G00 X70.6320 Y82.5500 
G01 Z-1.5000 F508   
G00 Z2.5400  
G00 X70.6320 Y80.5688 
G01 Z-1.5000 F508   
G00 Z2.5400  
G00 X73.1320 Y80.5688 
G01 Z-1.5000 F508   
G00 Z2.5400  
G00 X73.1320 Y82.5500 
G01 Z-1.5000 F508   
G00 Z2.5400  
G00 X116.2370 Y85.9800 
G01 Z-1.5000 F508   
G00 Z2.5400  
G00 X118.7670 Y85.9800 
G01 Z-1.5000 F508   
G00 Z2.5400  
G00 X121.3070 Y85.9800 
G01 Z-1.5000 F508   
G00 Z2.5400  
G00 X123.8470 Y85.9800 
G01 Z-1.5000 F508   
G00 Z2.5400  
G00 X123.8470 Y32.9800 
G01 Z-1.5000 F508   
G00 Z2.5400  
G00 X121.3070 Y32.9800 
G01 Z-1.5000 F508   
G00 Z2.5400  
G00 X118.7670 Y32.9800 
G01 Z-1.5000 F508   
G00 Z2.5400  
G00 X116.2270 Y32.9800 
G01 Z-1.5000 F508   
G00 Z2.5400  
G00 X113.6870 Y32.9800 
G01 Z-1.5000 F508   
G00 Z2.5400  
G00 X111.1470 Y32.9800 
G01 Z-1.5000 F508   
G00 Z2.5400  
G00 X111.2520 Y20.9550 
G01 Z-1.5000 F508   
G00 Z2.5400  
G00 X111.2520 Y18.4150 
G01 Z-1.5000 F508   
G00 Z2.5400  
G00 X111.2520 Y15.8750 
G01 Z-1.5000 F508   
G00 Z2.5400  
G00 X111.2520 Y13.3350 
G01 Z-1.5000 F508   
G00 Z2.5400  
G00 X111.2520 Y10.7950 
G01 Z-1.5000 F508   
G00 Z2.5400  
G00 X100.5332 Y11.0744 
G01 Z-1.5000 F508   
G00 Z2.5400  
G00 X100.5332 Y7.9756  
G01 Z-1.5000 F508   
G00 Z2.5400  
G00 X100.5332 Y3.4544  
G01 Z-1.5000 F508   
G00 Z2.5400  
G00 X94.0308 Y3.4544  
G01 Z-1.5000 F508   
G00 Z2.5400  
G00 X94.0308 Y7.9756  
G01 Z-1.5000 F508   
G00 Z2.5400  
G00 X94.0308 Y11.0744 
G01 Z-1.5000 F508   
G00 Z2.5400  
G00 X94.0308 Y15.5956 
G01 Z-1.5000 F508   
G00 Z2.5400  
G00 X94.0308 Y18.6944 
G01 Z-1.5000 F508   
G00 Z2.5400  
G00 X94.0308 Y23.2156 
G01 Z-1.5000 F508   
G00 Z2.5400  
G00 X100.5332 Y23.2156 
G01 Z-1.5000 F508   
G00 Z2.5400  
G00 X100.5332 Y18.6944 
G01 Z-1.5000 F508   
G00 Z2.5400  
G00 X100.5332 Y15.5956 
G01 Z-1.5000 F508   
G00 Z2.5400  
G00 X87.1220 Y1.9050  
G01 Z-1.5000 F508   
G00 Z2.5400  
G00 X76.9620 Y1.9050  
G01 Z-1.5000 F508   
G00 Z2.5400  
G00 X73.5076 Y1.8288  
G01 Z-1.5000 F508   
G00 Z2.5400  
G00 X68.9864 Y1.8288  
G01 Z-1.5000 F508   
G00 Z2.5400  
G00 X68.9864 Y8.3312  
G01 Z-1.5000 F508   
G00 Z2.5400  
G00 X73.5076 Y8.3312  
G01 Z-1.5000 F508   
G00 Z2.5400  
G00 X59.3090 Y3.3020  
G01 Z-1.5000 F508   
G00 Z2.5400  
G00 X56.7690 Y3.3020  
G01 Z-1.5000 F508   
G00 Z2.5400  
G00 X54.2290 Y3.3020  
G01 Z-1.5000 F508   
G00 Z2.5400  
G00 X45.2120 Y3.3020  
G01 Z-1.5000 F508   
G00 Z2.5400  
G00 X42.6720 Y3.3020  
G01 Z-1.5000 F508   
G00 Z2.5400  
G00 X38.2270 Y3.3020  
G01 Z-1.5000 F508   
G00 Z2.5400  
G00 X35.6870 Y3.3020  
G01 Z-1.5000 F508   
G00 Z2.5400  
G00 X31.8770 Y3.3020  
G01 Z-1.5000 F508   
G00 Z2.5400  
G00 X29.3370 Y3.3020  
G01 Z-1.5000 F508   
G00 Z2.5400  
G00 X19.0320 Y7.8170  
G01 Z-1.5000 F508   
G00 Z2.5400  
G00 X15.5320 Y7.8170  
G01 Z-1.5000 F508   
G00 Z2.5400  
G00 X15.3870 Y15.0000 
G01 Z-1.5000 F508   
G00 Z2.5400  
G00 X10.3870 Y15.0000 
G01 Z-1.5000 F508   
G00 Z2.5400  
G00 X7.8740  Y7.1120  
G01 Z-1.5000 F508   
G00 Z2.5400  
G00 X7.8740  Y3.3020  
G01 Z-1.5000 F508   
G00 Z2.5400  
G00 X5.1870  Y44.4000 
G01 Z-1.5000 F508   
G00 Z2.5400  
G00 X15.3670 Y48.8950 
G01 Z-1.5000 F508   
G00 Z2.5400  
G00 X20.5870 Y44.4000 
G01 Z-1.5000 F508   
G00 Z2.5400  
G00 X25.5270 Y48.8950 
G01 Z-1.5000 F508   
G00 Z2.5400  
G00 X30.6070 Y40.6400 
G01 Z-1.5000 F508   
G00 Z2.5400  
G00 X40.7670 Y40.6400 
G01 Z-1.5000 F508   
G00 Z2.5400  
G00 X50.2920 Y40.0050 
G01 Z-1.5000 F508   
G00 Z2.5400  
G00 X52.8320 Y40.0050 
G01 Z-1.5000 F508   
G00 Z2.5400  
G00 X55.3720 Y40.0050 
G01 Z-1.5000 F508   
G00 Z2.5400  
G00 X55.3720 Y42.5450 
G01 Z-1.5000 F508   
G00 Z2.5400  
G00 X52.8320 Y42.5450 
G01 Z-1.5000 F508   
G00 Z2.5400  
G00 X50.2920 Y42.5450 
G01 Z-1.5000 F508   
G00 Z2.5400  
G00 X126.3870 Y32.9800 
G01 Z-1.5000 F508   
G00 Z2.5400  
G00 X128.9270 Y32.9800 
G01 Z-1.5000 F508   
G00 Z2.5400  
G00 X135.3820 Y24.7650 
G01 Z-1.5000 F508   
G00 Z2.5400  
G00 X135.3820 Y22.2250 
G01 Z-1.5000 F508   
G00 Z2.5400  
G00 X135.3820 Y19.6850 
G01 Z-1.5000 F508   
G00 Z2.5400  
G00 X135.3820 Y17.1450 
G01 Z-1.5000 F508   
G00 Z2.5400  
G00 X135.3820 Y14.6050 
G01 Z-1.5000 F508   
G00 Z2.5400  
G00 X135.3820 Y12.0650 
G01 Z-1.5000 F508   
G00 Z2.5400  
G00 X135.3820 Y9.5250  
G01 Z-1.5000 F508   
G00 Z2.5400  
M05
G00 Z25.4000 
G00 X0.0000  Y0.0000  
M06 T04  ; 2.2860  
G01 Z0.0000  F508   
M06 
G00 Z2.5400  
M03
G04 P3.000000
G00 X65.8622 Y85.2678 
G01 Z-1.5000 F508   
G00 Z2.5400  
G00 X77.9018 Y85.2678 
G01 Z-1.5000 F508   
G00 Z2.5400  
M05
G00 Z25.4000 
G00 X0.0000  Y0.0000  
M06 T06  ; 3.1750  
G01 Z0.0000  F508   
M06 
G00 Z2.5400  
M03
G04 P3.000000
G00 X3.0470  Y3.0000  
G01 Z-1.5000 F508   
G00 Z2.5400  
G00 X3.0470  Y55.4200 
G01 Z-1.5000 F508   
G00 Z2.5400  
G00 X135.0470 Y87.0000 
G01 Z-1.5000 F508   
G00 Z2.5400  
M05
G00 Z25.4000 
G00 X0.0000  Y0.0000  
M06 T06  ; 3.2000  
G01 Z0.0000  F508   
M06 
G00 Z2.5400  
M03
G04 P3.000000
G00 X112.3170 Y4.6990  
G01 Z-1.5000 F508   
G00 Z2.5400  
G00 X134.3170 Y4.6990  
G01 Z-1.5000 F508   
G00 Z2.5400  
T01 
G00 Z12.7000 
M05
M02
