(.../pcb-gcode-3.6.2.4/pcb-gcode.ulp)
(Copyright 2005 - 2012 by John Johnson)
(See readme.txt for licensing terms.)
(This file generated from the board:)
(.../3K_valdiklis_v1/3K_valdiklis_v1.2.brd)
(Current profile is .../pcb-gcode-3.6.2.4/profiles/mach.pp  )
(This file generated 2016.11.03 22:13:09)
(Settings from pcb-machine.h)
(spindle on time = 3.0000)
(  Tool Size)
(0.1778  )
(spindle speed = 30000.0000)
(tool change at 0.0000  0.0000  25.4000 )
(feed rate xy = F508   )
(feed rate z  = F254   )
(Z Axis Settings)
(  High     Up        Down     Drill)
(12.7000 	2.5400  	-0.1778 	-1.5000 )
(Settings from pcb-defaults.h)
(isolate min = 0.0254)
(isolate max = 0.5080)
(isolate step = 0.1270)
(Generated top outlines, top drill, top stencil, bottom outlines, bottom stencil)
(Unit of measure: mm)
(Metric Mode)
G21
(Absolute Coordinates)
G90
S30000
G00 Z12.7000 
G00 X0.0000  Y0.0000  
M03
G04 P3.000000
G00 Z2.5400  
G00 X7.0215  Y2.5739  
G01 Z-0.1778 F254   
G01 X7.1459  Y2.4495  F508   
G01 X7.2882  Y2.3461  
X7.4450  Y2.2662  
X7.6123  Y2.2118  
X7.7860  Y2.1843  
X7.9620  
X8.1357  Y2.2118  
X8.3030  Y2.2662  
X8.4598  Y2.3461  
X8.6021  Y2.4495  
X8.7265  Y2.5739  
X8.8299  Y2.7162  
X8.9098  Y2.8729  
X8.9642  Y3.0403  
X8.9917  Y3.2140  
Y3.3900  
X8.9642  Y3.5637  
X8.9098  Y3.7310  
X8.8299  Y3.8878  
X8.7265  Y4.0301  
X8.6021  Y4.1545  
X8.4598  Y4.2579  
X8.3030  Y4.3378  
X8.1357  Y4.3922  
X7.9620  Y4.4197  
X7.7860  
X7.6123  Y4.3922  
X7.4450  Y4.3378  
X7.2882  Y4.2579  
X7.1459  Y4.1545  
X7.0215  Y4.0301  
X6.9181  Y3.8878  
X6.8382  Y3.7310  
X6.7838  Y3.5637  
X6.7563  Y3.3900  
Y3.2140  
X6.7838  Y3.0403  
X6.8382  Y2.8729  
X6.9181  Y2.7162  
X7.0215  Y2.5739  
G00 Z2.5400  
G00 X7.0215  Y6.3839  
G01 Z-0.1778 F254   
G01 X7.1459  Y6.2595  F508   
G01 X7.2882  Y6.1561  
X7.4450  Y6.0762  
X7.6123  Y6.0218  
X7.7860  Y5.9943  
X7.9620  
X8.1357  Y6.0218  
X8.3030  Y6.0762  
X8.4598  Y6.1561  
X8.6021  Y6.2595  
X8.7265  Y6.3839  
X8.8299  Y6.5262  
X8.9098  Y6.6829  
X8.9642  Y6.8503  
X8.9917  Y7.0240  
Y7.2000  
X8.9642  Y7.3737  
X8.9098  Y7.5410  
X8.8299  Y7.6978  
X8.7265  Y7.8401  
X8.6021  Y7.9645  
X8.4598  Y8.0679  
X8.3030  Y8.1478  
X8.1357  Y8.2022  
X7.9620  Y8.2297  
X7.7860  
X7.6123  Y8.2022  
X7.4450  Y8.1478  
X7.2882  Y8.0679  
X7.1459  Y7.9645  
X7.0215  Y7.8401  
X6.9181  Y7.6978  
X6.8382  Y7.5410  
X6.7838  Y7.3737  
X6.7563  Y7.2000  
Y7.0240  
X6.7838  Y6.8503  
X6.8382  Y6.6829  
X6.9181  Y6.5262  
X7.0215  Y6.3839  
G00 Z2.5400  
G00 X14.6117 Y7.0310  
G01 Z-0.1778 F254   
G01 X14.7460 Y6.8967  F508   
G01 X14.8997 Y6.7851  
X15.0689 Y6.6989  
X15.2495 Y6.6402  
X15.4370 Y6.6105  
X15.6270 
X15.8145 Y6.6402  
X15.9951 Y6.6989  
X16.1643 Y6.7851  
X16.3180 Y6.8967  
X16.4523 Y7.0310  
X16.5639 Y7.1847  
X16.6501 Y7.3539  
X16.7088 Y7.5345  
X16.7385 Y7.7220  
Y7.9120  
X16.7088 Y8.0995  
X16.6501 Y8.2801  
X16.5639 Y8.4493  
X16.4523 Y8.6030  
X16.3180 Y8.7373  
X16.1643 Y8.8489  
X15.9951 Y8.9351  
X15.8145 Y8.9938  
X15.6270 Y9.0235  
X15.4370 
X15.2495 Y8.9938  
X15.0689 Y8.9351  
X14.8997 Y8.8489  
X14.7460 Y8.7373  
X14.6117 Y8.6030  
X14.5001 Y8.4493  
X14.4139 Y8.2801  
X14.3552 Y8.0995  
X14.3255 Y7.9120  
Y7.7220  
X14.3552 Y7.5345  
X14.4139 Y7.3539  
X14.5001 Y7.1847  
X14.6117 Y7.0310  
G00 Z2.5400  
G00 X18.1117 Y7.0310  
G01 Z-0.1778 F254   
G01 X18.2460 Y6.8967  F508   
G01 X18.3997 Y6.7851  
X18.5689 Y6.6989  
X18.7495 Y6.6402  
X18.9370 Y6.6105  
X19.1270 
X19.3145 Y6.6402  
X19.4951 Y6.6989  
X19.6643 Y6.7851  
X19.8180 Y6.8967  
X19.9523 Y7.0310  
X20.0639 Y7.1847  
X20.1501 Y7.3539  
X20.2088 Y7.5345  
X20.2385 Y7.7220  
Y7.9120  
X20.2088 Y8.0995  
X20.1501 Y8.2801  
X20.0639 Y8.4493  
X19.9523 Y8.6030  
X19.8180 Y8.7373  
X19.6643 Y8.8489  
X19.4951 Y8.9351  
X19.3145 Y8.9938  
X19.1270 Y9.0235  
X18.9370 
X18.7495 Y8.9938  
X18.5689 Y8.9351  
X18.3997 Y8.8489  
X18.2460 Y8.7373  
X18.1117 Y8.6030  
X18.0001 Y8.4493  
X17.9139 Y8.2801  
X17.8552 Y8.0995  
X17.8255 Y7.9120  
Y7.7220  
X17.8552 Y7.5345  
X17.9139 Y7.3539  
X18.0001 Y7.1847  
X18.1117 Y7.0310  
G00 Z2.5400  
G00 X16.0934 Y14.1729 
G01 Z-0.1778 F254   
G01 X16.2141 Y14.2936 F508   
G01 X16.3144 Y14.4317 
X16.3919 Y14.5838 
X16.4446 Y14.7461 
X16.4713 Y14.9147 
Y15.0853 
X16.4446 Y15.2539 
X16.3919 Y15.4162 
X16.3144 Y15.5683 
X16.2141 Y15.7064 
X16.0934 Y15.8271 
X15.9553 Y15.9274 
X15.8032 Y16.0049 
X15.6409 Y16.0576 
X15.4723 Y16.0843 
X15.3017 
X15.1331 Y16.0576 
X14.9708 Y16.0049 
X14.8187 Y15.9274 
X14.6806 Y15.8271 
X14.5599 Y15.7064 
X14.4596 Y15.5683 
X14.3821 Y15.4162 
X14.3294 Y15.2539 
X14.3027 Y15.0853 
Y14.9147 
X14.3294 Y14.7461 
X14.3821 Y14.5838 
X14.4596 Y14.4317 
X14.5599 Y14.2936 
X14.6806 Y14.1729 
X14.8187 Y14.0726 
X14.9708 Y13.9951 
X15.1331 Y13.9424 
X15.3017 Y13.9157 
X15.4723 
X15.6409 Y13.9424 
X15.8032 Y13.9951 
X15.9553 Y14.0726 
X16.0934 Y14.1729 
G00 Z2.5400  
G00 X11.0934 Y14.1729 
G01 Z-0.1778 F254   
G01 X11.2141 Y14.2936 F508   
G01 X11.3144 Y14.4317 
X11.3919 Y14.5838 
X11.4446 Y14.7461 
X11.4713 Y14.9147 
Y15.0853 
X11.4446 Y15.2539 
X11.3919 Y15.4162 
X11.3144 Y15.5683 
X11.2141 Y15.7064 
X11.0934 Y15.8271 
X10.9553 Y15.9274 
X10.8032 Y16.0049 
X10.6409 Y16.0576 
X10.4723 Y16.0843 
X10.3017 
X10.1331 Y16.0576 
X9.9708  Y16.0049 
X9.8187  Y15.9274 
X9.6806  Y15.8271 
X9.5599  Y15.7064 
X9.4596  Y15.5683 
X9.3821  Y15.4162 
X9.3294  Y15.2539 
X9.3027  Y15.0853 
Y14.9147 
X9.3294  Y14.7461 
X9.3821  Y14.5838 
X9.4596  Y14.4317 
X9.5599  Y14.2936 
X9.6806  Y14.1729 
X9.8187  Y14.0726 
X9.9708  Y13.9951 
X10.1331 Y13.9424 
X10.3017 Y13.9157 
X10.4723 
X10.6409 Y13.9424 
X10.8032 Y13.9951 
X10.9553 Y14.0726 
X11.0934 Y14.1729 
G00 Z2.5400  
G00 X32.6627 Y14.2627 
G01 Z-0.1778 F254   
G01 X32.7711 Y14.1005 F508   
G01 X32.9091 Y13.9625 
X33.0713 Y13.8541 
X33.2516 Y13.7794 
X33.4430 Y13.7413 
X35.3910 
X35.4988 Y13.7628 
X40.4990 Y8.7626  
X40.5761 Y8.6855  
X40.6706 Y8.6309  
X40.7760 Y8.6027  
X50.7468 
X50.8522 Y8.4973  
X51.0019 Y8.3973  
X51.1683 Y8.3283  
X51.3449 Y8.2932  
X51.5251 
X51.7017 Y8.3283  
X51.8681 Y8.3973  
X52.0178 Y8.4973  
X52.1452 Y8.6247  
X52.2452 Y8.7744  
X52.3142 Y8.9408  
X52.3493 Y9.1174  
Y9.2975  
X52.3142 Y9.4742  
X52.2452 Y9.6406  
X52.1452 Y9.7903  
X52.0178 Y9.9177  
X51.8681 Y10.0177 
X51.7017 Y10.0867 
X51.5251 Y10.1218 
X51.3449 
X51.1683 Y10.0867 
X51.0019 Y10.0177 
X50.8522 Y9.9177  
X50.7248 Y9.7903  
X50.6248 Y9.6406  
X50.5558 Y9.4742  
X50.5473 Y9.4313  
X41.0021 
X36.1711 Y14.2623 
X36.2460 Y14.4430 
X36.2841 Y14.6344 
Y14.8296 
X36.2460 Y15.0210 
X36.1713 Y15.2013 
X36.0629 Y15.3635 
X35.9249 Y15.5015 
X35.7627 Y15.6099 
X35.5824 Y15.6846 
X35.3910 Y15.7227 
X33.4430 
X33.2516 Y15.6846 
X33.0713 Y15.6099 
X32.9091 Y15.5015 
X32.7711 Y15.3635 
X32.6627 Y15.2013 
X32.5880 Y15.0210 
X32.5499 Y14.8296 
Y14.6344 
X32.5880 Y14.4430 
X32.6627 Y14.2627 
G00 Z2.5400  
G00 X32.9091 Y12.9615 
G01 Z-0.1778 F254   
G01 X32.7711 Y12.8235 F508   
G01 X32.6627 Y12.6613 
X32.5880 Y12.4810 
X32.5499 Y12.2896 
Y12.0944 
X32.5880 Y11.9030 
X32.6627 Y11.7227 
X32.7711 Y11.5605 
X32.9091 Y11.4225 
X33.0713 Y11.3141 
X33.2516 Y11.2394 
X33.4430 Y11.2013 
X35.3910 
X35.5824 Y11.2394 
X35.7627 Y11.3141 
X35.9249 Y11.4225 
X36.0629 Y11.5605 
X36.1713 Y11.7227 
X36.2460 Y11.9030 
X36.2841 Y12.0944 
Y12.2896 
X36.2460 Y12.4810 
X36.1713 Y12.6613 
X36.0629 Y12.8235 
X35.9249 Y12.9615 
X35.7627 Y13.0699 
X35.5824 Y13.1446 
X35.3910 Y13.1827 
X33.4430 
X33.2516 Y13.1446 
X33.0713 Y13.0699 
X32.9091 Y12.9615 
G00 Z2.5400  
G00 X32.9091 Y16.5025 
G01 Z-0.1778 F254   
G01 X33.0713 Y16.3941 F508   
G01 X33.2516 Y16.3194 
X33.4430 Y16.2813 
X35.3910 
X35.5824 Y16.3194 
X35.7627 Y16.3941 
X35.9249 Y16.5025 
X36.0629 Y16.6405 
X36.1713 Y16.8027 
X36.2460 Y16.9830 
X36.2841 Y17.1744 
Y17.3696 
X36.2460 Y17.5610 
X36.1713 Y17.7413 
X36.0629 Y17.9035 
X35.9249 Y18.0415 
X35.7627 Y18.1499 
X35.5824 Y18.2246 
X35.3910 Y18.2627 
X33.4430 
X33.2516 Y18.2246 
X33.0713 Y18.1499 
X32.9091 Y18.0415 
X32.7711 Y17.9035 
X32.6627 Y17.7413 
X32.5880 Y17.5610 
X32.5499 Y17.3696 
Y17.1744 
X32.5880 Y16.9830 
X32.6627 Y16.8027 
X32.7711 Y16.6405 
X32.9091 Y16.5025 
G00 Z2.5400  
G00 X32.9091 Y19.0425 
G01 Z-0.1778 F254   
G01 X33.0713 Y18.9341 F508   
G01 X33.2516 Y18.8594 
X33.4430 Y18.8213 
X35.3910 
X35.5824 Y18.8594 
X35.7627 Y18.9341 
X35.9249 Y19.0425 
X36.0629 Y19.1805 
X36.1713 Y19.3427 
X36.2460 Y19.5230 
X36.2841 Y19.7144 
Y19.9096 
X36.2460 Y20.1010 
X36.1713 Y20.2813 
X36.0629 Y20.4435 
X35.9249 Y20.5815 
X35.7627 Y20.6899 
X35.5824 Y20.7646 
X35.3910 Y20.8027 
X33.4430 
X33.2516 Y20.7646 
X33.0713 Y20.6899 
X32.9091 Y20.5815 
X32.7711 Y20.4435 
X32.6627 Y20.2813 
X32.5880 Y20.1010 
X32.5499 Y19.9096 
Y19.7144 
X32.5880 Y19.5230 
X32.6627 Y19.3427 
X32.7711 Y19.1805 
X32.9091 Y19.0425 
G00 Z2.5400  
G00 X32.9091 Y21.5825 
G01 Z-0.1778 F254   
G01 X33.0713 Y21.4741 F508   
G01 X33.2516 Y21.3994 
X33.4430 Y21.3613 
X35.3910 
X35.5824 Y21.3994 
X35.7627 Y21.4741 
X35.9249 Y21.5825 
X36.0629 Y21.7205 
X36.1713 Y21.8827 
X36.2460 Y22.0630 
X36.2841 Y22.2544 
Y22.4496 
X36.2460 Y22.6410 
X36.1713 Y22.8213 
X36.0629 Y22.9835 
X35.9249 Y23.1215 
X35.7627 Y23.2299 
X35.5824 Y23.3046 
X35.3910 Y23.3427 
X33.4430 
X33.2516 Y23.3046 
X33.0713 Y23.2299 
X32.9091 Y23.1215 
X32.7711 Y22.9835 
X32.6627 Y22.8213 
X32.5880 Y22.6410 
X32.5499 Y22.4496 
Y22.2544 
X32.5880 Y22.0630 
X32.6627 Y21.8827 
X32.7711 Y21.7205 
X32.9091 Y21.5825 
G00 Z2.5400  
G00 X32.9091 Y24.1225 
G01 Z-0.1778 F254   
G01 X33.0713 Y24.0141 F508   
G01 X33.2516 Y23.9394 
X33.4430 Y23.9013 
X35.3910 
X35.5824 Y23.9394 
X35.7627 Y24.0141 
X35.9249 Y24.1225 
X36.0629 Y24.2605 
X36.1713 Y24.4227 
X36.2460 Y24.6030 
X36.2841 Y24.7944 
Y24.9896 
X36.2460 Y25.1810 
X36.1713 Y25.3613 
X36.0629 Y25.5235 
X35.9249 Y25.6615 
X35.7627 Y25.7699 
X35.5824 Y25.8446 
X35.3910 Y25.8827 
X33.4430 
X33.2516 Y25.8446 
X33.0713 Y25.7699 
X32.9091 Y25.6615 
X32.7711 Y25.5235 
X32.6627 Y25.3613 
X32.5880 Y25.1810 
X32.5499 Y24.9896 
Y24.7944 
X32.5880 Y24.6030 
X32.6627 Y24.4227 
X32.7711 Y24.2605 
X32.9091 Y24.1225 
G00 Z2.5400  
G00 X32.9091 Y26.6625 
G01 Z-0.1778 F254   
G01 X33.0713 Y26.5541 F508   
G01 X33.2516 Y26.4794 
X33.4430 Y26.4413 
X35.3910 
X35.5824 Y26.4794 
X35.7627 Y26.5541 
X35.9249 Y26.6625 
X36.0629 Y26.8005 
X36.1713 Y26.9627 
X36.2460 Y27.1430 
X36.2841 Y27.3344 
Y27.5296 
X36.2460 Y27.7210 
X36.1713 Y27.9013 
X36.0629 Y28.0635 
X35.9249 Y28.2015 
X35.7627 Y28.3099 
X35.5824 Y28.3846 
X35.3910 Y28.4227 
X33.4430 
X33.3352 Y28.4012 
X32.2913 Y29.4451 
Y31.7689 
X37.5096 Y36.9872 
X43.8974 
X58.2790 Y22.6056 
X58.3561 Y22.5285 
X58.4506 Y22.4739 
X58.5560 Y22.4457 
X65.6599 
X65.6827 Y22.3907 
X65.7911 Y22.2285 
X65.9291 Y22.0905 
X66.0913 Y21.9821 
X66.2716 Y21.9074 
X66.4630 Y21.8693 
X68.4110 
X68.6024 Y21.9074 
X68.7827 Y21.9821 
X68.9449 Y22.0905 
X69.0829 Y22.2285 
X69.1913 Y22.3907 
X69.2660 Y22.5710 
X69.3041 Y22.7624 
Y22.9576 
X69.2660 Y23.1490 
X69.1913 Y23.3293 
X69.0829 Y23.4915 
X68.9449 Y23.6295 
X68.7827 Y23.7379 
X68.6024 Y23.8126 
X68.4110 Y23.8507 
X66.4630 
X66.2716 Y23.8126 
X66.0913 Y23.7379 
X65.9291 Y23.6295 
X65.7911 Y23.4915 
X65.6827 Y23.3293 
X65.6599 Y23.2743 
X58.7821 
X44.3234 Y37.7330 
X44.2289 Y37.7876 
X44.1235 Y37.8158 
X37.2835 
X37.1781 Y37.7876 
X37.0836 Y37.7330 
X31.5455 Y32.1949 
X31.4909 Y32.1004 
X31.4627 Y31.9950 
Y29.2190 
X31.4909 Y29.1136 
X31.5455 Y29.0191 
X31.6226 Y28.9420 
X32.6629 Y27.9017 
X32.5880 Y27.7210 
X32.5499 Y27.5296 
Y27.3344 
X32.5880 Y27.1430 
X32.6627 Y26.9627 
X32.7711 Y26.8005 
X32.9091 Y26.6625 
G00 Z2.5400  
G00 X32.9091 Y29.2025 
G01 Z-0.1778 F254   
G01 X33.0713 Y29.0941 F508   
G01 X33.2516 Y29.0194 
X33.4430 Y28.9813 
X35.3910 
X35.5824 Y29.0194 
X35.7627 Y29.0941 
X35.9249 Y29.2025 
X36.0629 Y29.3405 
X36.1713 Y29.5027 
X36.1941 Y29.5577 
X39.0827 
Y13.9790 
X39.1109 Y13.8736 
X39.1655 Y13.7791 
X39.2426 Y13.7020 
X40.2829 Y12.6617 
X40.2080 Y12.4810 
X40.1699 Y12.2896 
Y12.0944 
X40.2080 Y11.9030 
X40.2827 Y11.7227 
X40.3911 Y11.5605 
X40.5291 Y11.4225 
X40.6913 Y11.3141 
X40.8716 Y11.2394 
X41.0630 Y11.2013 
X43.0110 
X43.2024 Y11.2394 
X43.3827 Y11.3141 
X43.5449 Y11.4225 
X43.6829 Y11.5605 
X43.7432 Y11.6507 
X55.1369 
X58.4734 Y8.3142  
X58.4407 Y8.1500  
Y7.9790  
X58.4741 Y7.8112  
X58.5395 Y7.6532  
X58.6345 Y7.5110  
X58.7555 Y7.3900  
X58.8977 Y7.2950  
X59.0557 Y7.2296  
X59.2235 Y7.1962  
X59.3945 
X59.5623 Y7.2296  
X59.7203 Y7.2950  
X59.8625 Y7.3900  
X59.9834 Y7.5110  
X60.0785 Y7.6532  
X60.1439 Y7.8112  
X60.1773 Y7.9790  
Y8.1500  
X60.1439 Y8.3178  
X60.0785 Y8.4758  
X59.9834 Y8.6180  
X59.8625 Y8.7390  
X59.7203 Y8.8340  
X59.5623 Y8.8994  
X59.3945 Y8.9328  
X59.2235 
X59.0593 Y8.9001  
X55.5629 Y12.3965 
X55.4684 Y12.4511 
X55.3630 Y12.4793 
X43.8664 
X43.7913 Y12.6613 
X43.6829 Y12.8235 
X43.5449 Y12.9615 
X43.3827 Y13.0699 
X43.2024 Y13.1446 
X43.0110 Y13.1827 
X41.0630 
X40.9552 Y13.1612 
X39.9113 Y14.2051 
Y29.5577 
X40.2599 
X40.2827 Y29.5027 
X40.3911 Y29.3405 
X40.5291 Y29.2025 
X40.6913 Y29.0941 
X40.8716 Y29.0194 
X41.0630 Y28.9813 
X43.0110 
X43.2024 Y29.0194 
X43.3827 Y29.0941 
X43.5449 Y29.2025 
X43.6829 Y29.3405 
X43.7913 Y29.5027 
X43.8660 Y29.6830 
X43.9041 Y29.8744 
Y30.0696 
X43.8660 Y30.2610 
X43.7913 Y30.4413 
X43.6829 Y30.6035 
X43.5449 Y30.7415 
X43.3827 Y30.8499 
X43.2024 Y30.9246 
X43.0110 Y30.9627 
X41.0630 
X40.8716 Y30.9246 
X40.6913 Y30.8499 
X40.5291 Y30.7415 
X40.3911 Y30.6035 
X40.2827 Y30.4413 
X40.2599 Y30.3863 
X36.1941 
X36.1713 Y30.4413 
X36.0629 Y30.6035 
X35.9249 Y30.7415 
X35.7627 Y30.8499 
X35.5824 Y30.9246 
X35.3910 Y30.9627 
X33.4430 
X33.2516 Y30.9246 
X33.0713 Y30.8499 
X32.9091 Y30.7415 
X32.7711 Y30.6035 
X32.6627 Y30.4413 
X32.5880 Y30.2610 
X32.5499 Y30.0696 
Y29.8744 
X32.5880 Y29.6830 
X32.6627 Y29.5027 
X32.7711 Y29.3405 
X32.9091 Y29.2025 
G00 Z2.5400  
G00 X36.1000 Y33.8179 
G01 Z-0.1778 F254   
G01 X36.2309 Y33.6870 F508   
G01 X36.3848 Y33.5842 
X36.5559 Y33.5133 
X36.7374 Y33.4772 
X36.9226 
X37.1041 Y33.5133 
X37.2752 Y33.5842 
X37.4291 Y33.6870 
X37.5600 Y33.8179 
X37.6628 Y33.9718 
X37.7337 Y34.1429 
X37.7698 Y34.3244 
Y34.5096 
X37.7337 Y34.6911 
X37.6628 Y34.8622 
X37.5600 Y35.0161 
X37.4291 Y35.1470 
X37.2752 Y35.2498 
X37.1041 Y35.3207 
X36.9226 Y35.3568 
X36.7374 
X36.5559 Y35.3207 
X36.3848 Y35.2498 
X36.2309 Y35.1470 
X36.1000 Y35.0161 
X35.9972 Y34.8622 
X35.9263 Y34.6911 
X35.8902 Y34.5096 
Y34.3244 
X35.9263 Y34.1429 
X35.9972 Y33.9718 
X36.1000 Y33.8179 
G00 Z2.5400  
G00 X38.6400 Y33.8179 
G01 Z-0.1778 F254   
G01 X38.7709 Y33.6870 F508   
G01 X38.9248 Y33.5842 
X39.0959 Y33.5133 
X39.2774 Y33.4772 
X39.4626 
X39.6441 Y33.5133 
X39.8152 Y33.5842 
X39.9691 Y33.6870 
X40.1000 Y33.8179 
X40.2028 Y33.9718 
X40.2156 Y34.0027 
X40.9129 
X44.3532 Y30.5624 
Y28.7745 
X44.3814 Y28.6691 
X44.4360 Y28.5746 
X44.5131 Y28.4975 
X62.4836 Y10.5270 
X62.5781 Y10.4724 
X62.6835 Y10.4442 
X69.1425 
X69.2479 Y10.4724 
X69.3424 Y10.5270 
X69.4195 Y10.6041 
X74.8985 Y16.0831 
X74.9173 Y16.0753 
X75.0939 Y16.0402 
X75.2741 
X75.4507 Y16.0753 
X75.6171 Y16.1443 
X75.7668 Y16.2443 
X75.8942 Y16.3717 
X75.9942 Y16.5214 
X76.0632 Y16.6878 
X76.0983 Y16.8644 
Y17.0446 
X76.0632 Y17.2212 
X75.9942 Y17.3876 
X75.8942 Y17.5373 
X75.7668 Y17.6647 
X75.6171 Y17.7647 
X75.4507 Y17.8337 
X75.2741 Y17.8688 
X75.0939 
X74.9173 Y17.8337 
X74.7509 Y17.7647 
X74.6012 Y17.6647 
X74.4738 Y17.5373 
X74.3738 Y17.3876 
X74.3048 Y17.2212 
X74.2697 Y17.0446 
Y16.8644 
X74.3048 Y16.6878 
X74.3126 Y16.6690 
X68.9164 Y11.2728 
X62.9096 
X45.1818 Y29.0006 
Y30.7885 
X45.1536 Y30.8939 
X45.0990 Y30.9884 
X41.4160 Y34.6714 
X41.3389 Y34.7485 
X41.2444 Y34.8031 
X41.1390 Y34.8313 
X40.2156 
X40.2028 Y34.8622 
X40.1000 Y35.0161 
X39.9691 Y35.1470 
X39.8152 Y35.2498 
X39.6441 Y35.3207 
X39.4626 Y35.3568 
X39.2774 
X39.0959 Y35.3207 
X38.9248 Y35.2498 
X38.7709 Y35.1470 
X38.6400 Y35.0161 
X38.5372 Y34.8622 
X38.4663 Y34.6911 
X38.4302 Y34.5096 
Y34.3244 
X38.4663 Y34.1429 
X38.5372 Y33.9718 
X38.6400 Y33.8179 
G00 Z2.5400  
G00 X39.9630 Y39.9533 
G01 Z-0.1778 F254   
G01 X40.0803 Y39.8360 F508   
G01 X40.2145 Y39.7385 
X40.3624 Y39.6631 
X40.5202 Y39.6119 
X40.6840 Y39.5859 
X40.8500 
X41.0138 Y39.6119 
X41.1716 Y39.6631 
X41.3195 Y39.7385 
X41.4537 Y39.8360 
X41.5710 Y39.9533 
X41.6685 Y40.0875 
X41.7439 Y40.2354 
X41.7951 Y40.3932 
X41.8211 Y40.5570 
Y40.7230 
X41.7951 Y40.8868 
X41.7439 Y41.0446 
X41.6685 Y41.1925 
X41.5710 Y41.3267 
X41.4537 Y41.4440 
X41.3195 Y41.5415 
X41.1716 Y41.6169 
X41.0138 Y41.6681 
X40.8500 Y41.6941 
X40.6840 
X40.5202 Y41.6681 
X40.3624 Y41.6169 
X40.2145 Y41.5415 
X40.0803 Y41.4440 
X39.9630 Y41.3267 
X39.8655 Y41.1925 
X39.7901 Y41.0446 
X39.7389 Y40.8868 
X39.7129 Y40.7230 
Y40.5570 
X39.7389 Y40.3932 
X39.7901 Y40.2354 
X39.8655 Y40.0875 
X39.9630 Y39.9533 
G00 Z2.5400  
G00 X45.9623 Y40.2477 
G01 Z-0.1778 F254   
G01 X46.0897 Y40.1203 F508   
G01 X46.2394 Y40.0203 
X46.4058 Y39.9513 
X46.5824 Y39.9162 
X46.7625 
X46.9392 Y39.9513 
X47.1056 Y40.0203 
X47.2553 Y40.1203 
X47.3827 Y40.2477 
X47.4827 Y40.3974 
X47.4905 Y40.4162 
X49.1679 
X49.2505 Y40.3336 
Y39.0551 
X49.2679 Y39.0131 
X49.3001 Y38.9809 
X49.3421 Y38.9635 
X51.2419 
X51.2839 Y38.9809 
X51.3161 Y39.0131 
X51.3335 Y39.0551 
Y40.9549 
X51.3161 Y40.9969 
X51.2839 Y41.0291 
X51.2419 Y41.0465 
X49.7094 
X49.5939 Y41.1620 
X49.4994 Y41.2166 
X49.3940 Y41.2448 
X47.4905 
X47.4827 Y41.2636 
X47.3827 Y41.4133 
X47.2553 Y41.5407 
X47.1056 Y41.6407 
X46.9392 Y41.7097 
X46.7625 Y41.7448 
X46.5824 
X46.4058 Y41.7097 
X46.2394 Y41.6407 
X46.0897 Y41.5407 
X45.9623 Y41.4133 
X45.8623 Y41.2636 
X45.7933 Y41.0972 
X45.7582 Y40.9205 
Y40.7404 
X45.7933 Y40.5638 
X45.8623 Y40.3974 
X45.9623 Y40.2477 
G00 Z2.5400  
G00 X45.5408 Y42.0253 
G01 Z-0.1778 F254   
G01 X45.6682 Y42.1527 F508   
G01 X45.7682 Y42.3024 
X45.8372 Y42.4688 
X45.8723 Y42.6454 
Y42.8255 
X45.8372 Y43.0022 
X45.7682 Y43.1686 
X45.6682 Y43.3183 
X45.5408 Y43.4457 
X45.3911 Y43.5457 
X45.3723 Y43.5535 
Y60.6335 
X45.3441 Y60.7389 
X45.2895 Y60.8334 
X44.9682 Y61.1547 
X44.9747 Y61.1673 
X45.0289 Y61.3341 
X45.0563 Y61.5073 
Y61.6827 
X45.0289 Y61.8559 
X44.9747 Y62.0227 
X44.8950 Y62.1790 
X44.7919 Y62.3209 
X44.6679 Y62.4449 
X44.5260 Y62.5480 
X44.3697 Y62.6277 
X44.2029 Y62.6819 
X44.0297 Y62.7093 
X43.8543 
X43.6811 Y62.6819 
X43.5143 Y62.6277 
X43.3580 Y62.5480 
X43.2161 Y62.4449 
X43.0921 Y62.3209 
X42.9890 Y62.1790 
X42.9093 Y62.0227 
X42.8551 Y61.8559 
X42.8277 Y61.6827 
Y61.5073 
X42.8551 Y61.3341 
X42.9093 Y61.1673 
X42.9890 Y61.0110 
X43.0921 Y60.8691 
X43.2161 Y60.7451 
X43.3580 Y60.6420 
X43.5143 Y60.5623 
X43.6811 Y60.5081 
X43.8543 Y60.4807 
X44.0297 
X44.2029 Y60.5081 
X44.3697 Y60.5623 
X44.3823 Y60.5688 
X44.5437 Y60.4074 
Y43.5535 
X44.5249 Y43.5457 
X44.3752 Y43.4457 
X44.2478 Y43.3183 
X44.1478 Y43.1686 
X44.0788 Y43.0022 
X44.0437 Y42.8255 
Y42.6454 
X44.0788 Y42.4688 
X44.1478 Y42.3024 
X44.2478 Y42.1527 
X44.3752 Y42.0253 
X44.5249 Y41.9253 
X44.6913 Y41.8563 
X44.8679 Y41.8212 
X45.0481 
X45.2247 Y41.8563 
X45.3911 Y41.9253 
X45.5408 Y42.0253 
G00 Z2.5400  
G00 X49.4012 Y41.9991 
G01 Z-0.1778 F254   
G01 X49.4976 Y41.8665 F508   
G01 X49.6135 Y41.7506 
X49.7461 Y41.6542 
X49.8922 Y41.5798 
X50.0481 Y41.5291 
X50.2100 Y41.5035 
X50.3740 
X50.5359 Y41.5291 
X50.6918 Y41.5798 
X50.8379 Y41.6542 
X50.9705 Y41.7506 
X51.0864 Y41.8665 
X51.1828 Y41.9991 
X51.2572 Y42.1452 
X51.3079 Y42.3011 
X51.3335 Y42.4630 
Y42.6270 
X51.3079 Y42.7889 
X51.2572 Y42.9448 
X51.1828 Y43.0909 
X51.0864 Y43.2235 
X50.9705 Y43.3394 
X50.8379 Y43.4358 
X50.7063 Y43.5028 
Y47.1359 
X65.9576 Y62.3872 
X68.9164 
X69.8360 Y61.4676 
X69.9131 Y61.3905 
X70.1977 Y61.1059 
Y41.5474 
X70.0927 Y41.4772 
X69.9653 Y41.3498 
X69.8653 Y41.2001 
X69.7963 Y41.0337 
X69.7612 Y40.8571 
Y40.6769 
X69.7963 Y40.5003 
X69.8653 Y40.3339 
X69.9653 Y40.1842 
X70.0927 Y40.0568 
X70.2424 Y39.9568 
X70.4088 Y39.8878 
X70.5854 Y39.8527 
X70.7656 
X70.9422 Y39.8878 
X71.1086 Y39.9568 
X71.2583 Y40.0568 
X71.3857 Y40.1842 
X71.4857 Y40.3339 
X71.5547 Y40.5003 
X71.5898 Y40.6769 
Y40.8571 
X71.5547 Y41.0337 
X71.4857 Y41.2001 
X71.3857 Y41.3498 
X71.2583 Y41.4772 
X71.1086 Y41.5772 
X71.0263 Y41.6113 
Y61.9670 
Y62.6185 
X71.0451 Y62.6263 
X71.1948 Y62.7263 
X71.3222 Y62.8537 
X71.4222 Y63.0034 
X71.4912 Y63.1698 
X71.5263 Y63.3464 
Y63.5266 
X71.4912 Y63.7032 
X71.4222 Y63.8696 
X71.3222 Y64.0193 
X71.1948 Y64.1467 
X71.0451 Y64.2467 
X70.8787 Y64.3157 
X70.7020 Y64.3508 
X70.5219 
X70.3453 Y64.3157 
X70.1789 Y64.2467 
X70.0292 Y64.1467 
X69.9018 Y64.0193 
X69.8018 Y63.8696 
X69.7328 Y63.7032 
X69.6977 Y63.5266 
Y63.3464 
X69.7328 Y63.1698 
X69.8018 Y63.0034 
X69.9018 Y62.8537 
X70.0292 Y62.7263 
X70.1789 Y62.6263 
X70.1977 Y62.6185 
Y62.2983 
X70.1846 Y62.2908 
X69.3424 Y63.1330 
X69.2479 Y63.1876 
X69.1425 Y63.2158 
X65.7315 
X65.6261 Y63.1876 
X65.5316 Y63.1330 
X65.4545 Y63.0559 
X49.9605 Y47.5619 
X49.9059 Y47.4674 
X49.8777 Y47.3620 
Y43.5028 
X49.7461 Y43.4358 
X49.6135 Y43.3394 
X49.4976 Y43.2235 
X49.4012 Y43.0909 
X49.3268 Y42.9448 
X49.2761 Y42.7889 
X49.2505 Y42.6270 
Y42.4630 
X49.2761 Y42.3011 
X49.3268 Y42.1452 
X49.4012 Y41.9991 
G00 Z2.5400  
G00 X51.9412 Y41.9991 
G01 Z-0.1778 F254   
G01 X52.0376 Y41.8665 F508   
G01 X52.1535 Y41.7506 
X52.2861 Y41.6542 
X52.4322 Y41.5798 
X52.5881 Y41.5291 
X52.7500 Y41.5035 
X52.9140 
X53.0759 Y41.5291 
X53.2318 Y41.5798 
X53.3779 Y41.6542 
X53.5105 Y41.7506 
X53.6264 Y41.8665 
X53.7228 Y41.9991 
X53.7972 Y42.1452 
X53.8479 Y42.3011 
X53.8735 Y42.4630 
Y42.6270 
X53.8479 Y42.7889 
X53.7972 Y42.9448 
X53.7612 Y43.0153 
X54.7816 Y44.0357 
X61.3955 
X61.5009 Y44.0639 
X61.5954 Y44.1185 
X61.6725 Y44.1956 
X65.3226 Y47.8457 
X65.6599 
X65.6827 Y47.7907 
X65.7911 Y47.6285 
X65.9291 Y47.4905 
X66.0913 Y47.3821 
X66.2716 Y47.3074 
X66.4630 Y47.2693 
X68.4110 
X68.6024 Y47.3074 
X68.7827 Y47.3821 
X68.9449 Y47.4905 
X69.0829 Y47.6285 
X69.1913 Y47.7907 
X69.2660 Y47.9710 
X69.3041 Y48.1624 
Y48.3576 
X69.2660 Y48.5490 
X69.1913 Y48.7293 
X69.0829 Y48.8915 
X68.9449 Y49.0295 
X68.7827 Y49.1379 
X68.6024 Y49.2126 
X68.4110 Y49.2507 
X66.4630 
X66.2716 Y49.2126 
X66.0913 Y49.1379 
X65.9291 Y49.0295 
X65.7911 Y48.8915 
X65.6827 Y48.7293 
X65.6599 Y48.6743 
X65.0965 
X64.9911 Y48.6461 
X64.8966 Y48.5915 
X61.1694 Y44.8643 
X54.5555 
X54.4501 Y44.8361 
X54.3556 Y44.7815 
X53.1205 Y43.5464 
X53.0759 Y43.5609 
X52.9140 Y43.5865 
X52.7500 
X52.5881 Y43.5609 
X52.4322 Y43.5102 
X52.2861 Y43.4358 
X52.1535 Y43.3394 
X52.0376 Y43.2235 
X51.9412 Y43.0909 
X51.8668 Y42.9448 
X51.8161 Y42.7889 
X51.7905 Y42.6270 
Y42.4630 
X51.8161 Y42.3011 
X51.8668 Y42.1452 
X51.9412 Y41.9991 
G00 Z2.5400  
G00 X52.1535 Y40.7994 
G01 Z-0.1778 F254   
G01 X52.0376 Y40.6835 F508   
G01 X51.9412 Y40.5509 
X51.8668 Y40.4048 
X51.8161 Y40.2489 
X51.7905 Y40.0870 
Y39.9230 
X51.8161 Y39.7611 
X51.8668 Y39.6052 
X51.9412 Y39.4591 
X52.0376 Y39.3265 
X52.1535 Y39.2106 
X52.2861 Y39.1142 
X52.4322 Y39.0398 
X52.5881 Y38.9891 
X52.7500 Y38.9635 
X52.9140 
X53.0759 Y38.9891 
X53.2318 Y39.0398 
X53.3779 Y39.1142 
X53.5105 Y39.2106 
X53.6264 Y39.3265 
X53.7228 Y39.4591 
X53.7972 Y39.6052 
X53.8479 Y39.7611 
X53.8735 Y39.9230 
Y40.0870 
X53.8479 Y40.2489 
X53.7972 Y40.4048 
X53.7228 Y40.5509 
X53.6264 Y40.6835 
X53.5105 Y40.7994 
X53.3779 Y40.8958 
X53.2318 Y40.9702 
X53.0759 Y41.0209 
X52.9140 Y41.0465 
X52.7500 
X52.5881 Y41.0209 
X52.4322 Y40.9702 
X52.2861 Y40.8958 
X52.1535 Y40.7994 
G00 Z2.5400  
G00 X54.6935 Y40.7994 
G01 Z-0.1778 F254   
G01 X54.5776 Y40.6835 F508   
G01 X54.4812 Y40.5509 
X54.4068 Y40.4048 
X54.3561 Y40.2489 
X54.3305 Y40.0870 
Y39.9230 
X54.3561 Y39.7611 
X54.4068 Y39.6052 
X54.4812 Y39.4591 
X54.5776 Y39.3265 
X54.6935 Y39.2106 
X54.8261 Y39.1142 
X54.9722 Y39.0398 
X55.1281 Y38.9891 
X55.2900 Y38.9635 
X55.4540 
X55.6159 Y38.9891 
X55.7718 Y39.0398 
X55.9179 Y39.1142 
X56.0505 Y39.2106 
X56.1664 Y39.3265 
X56.2628 Y39.4591 
X56.3298 Y39.5907 
X66.7295 
X66.8349 Y39.6189 
X66.8875 Y39.6493 
X68.4110 
X68.5188 Y39.6708 
X71.2804 Y36.9092 
X71.2623 Y36.8821 
X71.1933 Y36.7157 
X71.1582 Y36.5391 
Y36.3589 
X71.1933 Y36.1823 
X71.2623 Y36.0159 
X71.3623 Y35.8662 
X71.4897 Y35.7388 
X71.6394 Y35.6388 
X71.8058 Y35.5698 
X71.9824 Y35.5347 
X72.1625 
X72.3392 Y35.5698 
X72.5056 Y35.6388 
X72.6553 Y35.7388 
X72.7827 Y35.8662 
X72.8827 Y36.0159 
X72.9517 Y36.1823 
X72.9868 Y36.3589 
Y36.5391 
X72.9517 Y36.7157 
X72.8827 Y36.8821 
X72.7827 Y37.0318 
X72.6553 Y37.1592 
X72.5056 Y37.2592 
X72.3392 Y37.3282 
X72.1625 Y37.3633 
X71.9981 
X69.1911 Y40.1703 
X69.2660 Y40.3510 
X69.3041 Y40.5424 
Y40.7376 
X69.2660 Y40.9290 
X69.1913 Y41.1093 
X69.0829 Y41.2715 
X68.9449 Y41.4095 
X68.7827 Y41.5179 
X68.6024 Y41.5926 
X68.4110 Y41.6307 
X66.4630 
X66.2716 Y41.5926 
X66.0913 Y41.5179 
X65.9291 Y41.4095 
X65.7911 Y41.2715 
X65.6827 Y41.1093 
X65.6080 Y40.9290 
X65.5699 Y40.7376 
Y40.5424 
X65.5944 Y40.4193 
X56.3298 
X56.2628 Y40.5509 
X56.1664 Y40.6835 
X56.0505 Y40.7994 
X55.9179 Y40.8958 
X55.7718 Y40.9702 
X55.6159 Y41.0209 
X55.4540 Y41.0465 
X55.2900 
X55.1281 Y41.0209 
X54.9722 Y40.9702 
X54.8261 Y40.8958 
X54.6935 Y40.7994 
G00 Z2.5400  
G00 X54.6935 Y41.7506 
G01 Z-0.1778 F254   
G01 X54.8261 Y41.6542 F508   
G01 X54.9722 Y41.5798 
X55.1281 Y41.5291 
X55.2900 Y41.5035 
X55.4540 
X55.6159 Y41.5291 
X55.7718 Y41.5798 
X55.9179 Y41.6542 
X56.0505 Y41.7506 
X56.1664 Y41.8665 
X56.2628 Y41.9991 
X56.3372 Y42.1452 
X56.3879 Y42.3011 
X56.4135 Y42.4630 
Y42.6270 
X56.3879 Y42.7889 
X56.3372 Y42.9448 
X56.2628 Y43.0909 
X56.1664 Y43.2235 
X56.0505 Y43.3394 
X55.9179 Y43.4358 
X55.7718 Y43.5102 
X55.6159 Y43.5609 
X55.4540 Y43.5865 
X55.2900 
X55.1281 Y43.5609 
X54.9722 Y43.5102 
X54.8261 Y43.4358 
X54.6935 Y43.3394 
X54.5776 Y43.2235 
X54.4812 Y43.0909 
X54.4068 Y42.9448 
X54.3561 Y42.7889 
X54.3305 Y42.6270 
Y42.4630 
X54.3561 Y42.3011 
X54.4068 Y42.1452 
X54.4812 Y41.9991 
X54.5776 Y41.8665 
X54.6935 Y41.7506 
G00 Z2.5400  
G00 X52.7775 Y35.9743 
G01 Z-0.1778 F254   
G01 X52.6961 Y35.9525 F508   
G01 X52.6441 Y36.0045 
X51.7499 
X51.1175 Y35.3721 
Y34.4779 
X51.7499 Y33.8455 
X52.6441 
X53.2765 Y34.4779 
Y35.1457 
X57.0664 
X57.0792 Y35.1148 
X57.1820 Y34.9609 
X57.3129 Y34.8300 
X57.4668 Y34.7272 
X57.6379 Y34.6563 
X57.8194 Y34.6202 
X58.0046 
X58.1861 Y34.6563 
X58.3572 Y34.7272 
X58.5111 Y34.8300 
X58.6420 Y34.9609 
X58.7448 Y35.1148 
X58.8157 Y35.2859 
X58.8518 Y35.4674 
Y35.6526 
X58.8157 Y35.8341 
X58.7448 Y36.0052 
X58.6420 Y36.1591 
X58.5111 Y36.2900 
X58.3572 Y36.3928 
X58.1861 Y36.4637 
X58.0046 Y36.4998 
X57.8194 
X57.6379 Y36.4637 
X57.4668 Y36.3928 
X57.3129 Y36.2900 
X57.1820 Y36.1591 
X57.0792 Y36.0052 
X57.0664 Y35.9743 
X52.7775 
G00 Z2.5400  
G00 X50.7365 Y35.3721 
G01 Z-0.1778 F254   
G01 X50.1041 Y36.0045 F508   
G01 X49.2099 Y36.0045 
X48.5775 Y35.3721 
Y34.4779 
X49.2099 Y33.8455 
X50.1041 
X50.7365 Y34.4779 
Y35.3721 
G00 Z2.5400  
G00 X57.3129 Y33.7500 
G01 Z-0.1778 F254   
G01 X57.1820 Y33.6191 F508   
G01 X57.0792 Y33.4652 
X57.0083 Y33.2941 
X56.9722 Y33.1126 
Y32.9274 
X57.0083 Y32.7459 
X57.0792 Y32.5748 
X57.1820 Y32.4209 
X57.3129 Y32.2900 
X57.4668 Y32.1872 
X57.6379 Y32.1163 
X57.8194 Y32.0802 
X58.0046 
X58.1861 Y32.1163 
X58.3572 Y32.1872 
X58.5111 Y32.2900 
X58.6420 Y32.4209 
X58.7448 Y32.5748 
X58.8157 Y32.7459 
X58.8518 Y32.9274 
Y33.1126 
X58.8157 Y33.2941 
X58.7448 Y33.4652 
X58.6420 Y33.6191 
X58.5111 Y33.7500 
X58.3572 Y33.8528 
X58.1861 Y33.9237 
X58.0046 Y33.9598 
X57.8194 
X57.6379 Y33.9237 
X57.4668 Y33.8528 
X57.3129 Y33.7500 
G00 Z2.5400  
G00 X60.4879 Y33.7500 
G01 Z-0.1778 F254   
G01 X60.3570 Y33.6191 F508   
G01 X60.2542 Y33.4652 
X60.1833 Y33.2941 
X60.1472 Y33.1126 
Y32.9274 
X60.1833 Y32.7459 
X60.2542 Y32.5748 
X60.3570 Y32.4209 
X60.4879 Y32.2900 
X60.6418 Y32.1872 
X60.6727 Y32.1744 
Y28.8407 
X60.6177 Y28.8179 
X60.4555 Y28.7095 
X60.3175 Y28.5715 
X60.2091 Y28.4093 
X60.1344 Y28.2290 
X60.0963 Y28.0376 
Y27.8424 
X60.1344 Y27.6510 
X60.2091 Y27.4707 
X60.3175 Y27.3085 
X60.4555 Y27.1705 
X60.6177 Y27.0621 
X60.7980 Y26.9874 
X60.9894 Y26.9493 
X61.1846 
X61.3760 Y26.9874 
X61.5563 Y27.0621 
X61.7185 Y27.1705 
X61.8565 Y27.3085 
X61.9649 Y27.4707 
X62.0396 Y27.6510 
X62.0777 Y27.8424 
Y28.0376 
X62.0396 Y28.2290 
X61.9649 Y28.4093 
X61.8565 Y28.5715 
X61.7185 Y28.7095 
X61.5563 Y28.8179 
X61.5013 Y28.8407 
Y32.1744 
X61.5322 Y32.1872 
X61.6861 Y32.2900 
X61.8170 Y32.4209 
X61.9198 Y32.5748 
X61.9907 Y32.7459 
X62.0268 Y32.9274 
Y33.1126 
X61.9907 Y33.2941 
X61.9198 Y33.4652 
X61.8170 Y33.6191 
X61.6861 Y33.7500 
X61.5322 Y33.8528 
X61.3611 Y33.9237 
X61.1796 Y33.9598 
X60.9944 
X60.8129 Y33.9237 
X60.6418 Y33.8528 
X60.4879 Y33.7500 
G00 Z2.5400  
G00 X60.4879 Y34.8300 
G01 Z-0.1778 F254   
G01 X60.6418 Y34.7272 F508   
G01 X60.8129 Y34.6563 
X60.9944 Y34.6202 
X61.1796 
X61.3611 Y34.6563 
X61.5322 Y34.7272 
X61.6861 Y34.8300 
X61.8170 Y34.9609 
X61.9198 Y35.1148 
X61.9907 Y35.2859 
X62.0268 Y35.4674 
Y35.6526 
X61.9907 Y35.8341 
X61.9198 Y36.0052 
X61.8170 Y36.1591 
X61.6861 Y36.2900 
X61.5322 Y36.3928 
X61.3611 Y36.4637 
X61.1796 Y36.4998 
X60.9944 
X60.8129 Y36.4637 
X60.6418 Y36.3928 
X60.4879 Y36.2900 
X60.3570 Y36.1591 
X60.2542 Y36.0052 
X60.1833 Y35.8341 
X60.1472 Y35.6526 
Y35.4674 
X60.1833 Y35.2859 
X60.2542 Y35.1148 
X60.3570 Y34.9609 
X60.4879 Y34.8300 
G00 Z2.5400  
G00 X65.7911 Y34.9285 
G01 Z-0.1778 F254   
G01 X65.9291 Y34.7905 F508   
G01 X66.0913 Y34.6821 
X66.2716 Y34.6074 
X66.4630 Y34.5693 
X68.4110 
X68.6024 Y34.6074 
X68.7827 Y34.6821 
X68.9449 Y34.7905 
X69.0829 Y34.9285 
X69.1913 Y35.0907 
X69.2660 Y35.2710 
X69.3041 Y35.4624 
Y35.6576 
X69.2660 Y35.8490 
X69.1913 Y36.0293 
X69.0829 Y36.1915 
X68.9449 Y36.3295 
X68.7827 Y36.4379 
X68.6024 Y36.5126 
X68.4110 Y36.5507 
X66.4630 
X66.2716 Y36.5126 
X66.0913 Y36.4379 
X65.9291 Y36.3295 
X65.7911 Y36.1915 
X65.6827 Y36.0293 
X65.6080 Y35.8490 
X65.5699 Y35.6576 
Y35.4624 
X65.6080 Y35.2710 
X65.6827 Y35.0907 
X65.7911 Y34.9285 
G00 Z2.5400  
G00 X65.9291 Y33.7895 
G01 Z-0.1778 F254   
G01 X65.7911 Y33.6515 F508   
G01 X65.6827 Y33.4893 
X65.6080 Y33.3090 
X65.5699 Y33.1176 
Y32.9224 
X65.6080 Y32.7310 
X65.6827 Y32.5507 
X65.7911 Y32.3885 
X65.9291 Y32.2505 
X66.0913 Y32.1421 
X66.2716 Y32.0674 
X66.4630 Y32.0293 
X68.4110 
X68.6024 Y32.0674 
X68.7827 Y32.1421 
X68.9449 Y32.2505 
X69.0829 Y32.3885 
X69.1913 Y32.5507 
X69.2660 Y32.7310 
X69.3041 Y32.9224 
Y33.1176 
X69.2660 Y33.3090 
X69.1913 Y33.4893 
X69.0829 Y33.6515 
X68.9449 Y33.7895 
X68.7827 Y33.8979 
X68.6024 Y33.9726 
X68.4110 Y34.0107 
X66.4630 
X66.2716 Y33.9726 
X66.0913 Y33.8979 
X65.9291 Y33.7895 
G00 Z2.5400  
G00 X65.9291 Y31.2495 
G01 Z-0.1778 F254   
G01 X65.7911 Y31.1115 F508   
G01 X65.6827 Y30.9493 
X65.6080 Y30.7690 
X65.5699 Y30.5776 
Y30.3824 
X65.6080 Y30.1910 
X65.6827 Y30.0107 
X65.7911 Y29.8485 
X65.9291 Y29.7105 
X66.0913 Y29.6021 
X66.2716 Y29.5274 
X66.4630 Y29.4893 
X68.4110 
X68.6024 Y29.5274 
X68.7827 Y29.6021 
X68.9449 Y29.7105 
X69.0829 Y29.8485 
X69.1913 Y30.0107 
X69.2660 Y30.1910 
X69.3041 Y30.3824 
Y30.5776 
X69.2660 Y30.7690 
X69.1913 Y30.9493 
X69.0829 Y31.1115 
X68.9449 Y31.2495 
X68.7827 Y31.3579 
X68.6024 Y31.4326 
X68.4110 Y31.4707 
X66.4630 
X66.2716 Y31.4326 
X66.0913 Y31.3579 
X65.9291 Y31.2495 
G00 Z2.5400  
G00 X65.9291 Y28.7095 
G01 Z-0.1778 F254   
G01 X65.7911 Y28.5715 F508   
G01 X65.6827 Y28.4093 
X65.6080 Y28.2290 
X65.5699 Y28.0376 
Y27.8424 
X65.6080 Y27.6510 
X65.6827 Y27.4707 
X65.7911 Y27.3085 
X65.9291 Y27.1705 
X66.0913 Y27.0621 
X66.2716 Y26.9874 
X66.4630 Y26.9493 
X68.4110 
X68.6024 Y26.9874 
X68.7827 Y27.0621 
X68.9449 Y27.1705 
X69.0829 Y27.3085 
X69.1913 Y27.4707 
X69.2660 Y27.6510 
X69.3041 Y27.8424 
Y28.0376 
X69.2660 Y28.2290 
X74.1185 Y33.0831 
X74.1731 Y33.1776 
X74.2013 Y33.2830 
Y37.2020 
X74.1731 Y37.3074 
X74.1185 Y37.4019 
X74.0414 Y37.4790 
X73.6933 Y37.8271 
Y59.4549 
X74.4666 Y60.2282 
X78.4770 
X78.5824 Y60.2564 
X78.6769 Y60.3110 
X78.7540 Y60.3881 
X91.8985 Y73.5326 
X91.9531 Y73.6271 
X91.9813 Y73.7325 
Y79.9375 
X91.9531 Y80.0429 
X91.8985 Y80.1374 
X91.8214 Y80.2145 
X91.0594 Y80.9765 
X90.9649 Y81.0311 
X90.8595 Y81.0593 
X89.6825 
X89.5771 Y81.0311 
X89.4826 Y80.9765 
X89.4055 Y80.8994 
X89.3509 Y80.8049 
X89.3227 Y80.6995 
Y80.5905 
X89.3509 Y80.4851 
X89.4055 Y80.3906 
X89.4826 Y80.3135 
X89.5771 Y80.2589 
X89.6825 Y80.2307 
X90.6334 
X91.1527 Y79.7114 
Y73.9586 
X78.2509 Y61.0568 
X74.2405 
X74.1351 Y61.0286 
X74.0406 Y60.9740 
X73.0246 Y59.9580 
X72.9475 Y59.8809 
X72.8929 Y59.7864 
X72.8647 Y59.6810 
Y37.6010 
X72.8929 Y37.4956 
X72.9475 Y37.4011 
X73.3727 Y36.9759 
Y33.5091 
X68.7112 Y28.8476 
X68.6024 Y28.8926 
X68.4110 Y28.9307 
X66.4630 
X66.2716 Y28.8926 
X66.0913 Y28.8179 
X65.9291 Y28.7095 
G00 Z2.5400  
G00 X65.9291 Y26.1695 
G01 Z-0.1778 F254   
G01 X65.7911 Y26.0315 F508   
G01 X65.6827 Y25.8693 
X65.6080 Y25.6890 
X65.5699 Y25.4976 
Y25.3024 
X65.6080 Y25.1110 
X65.6827 Y24.9307 
X65.7911 Y24.7685 
X65.9291 Y24.6305 
X66.0913 Y24.5221 
X66.2716 Y24.4474 
X66.4630 Y24.4093 
X68.4110 
X68.6024 Y24.4474 
X68.7827 Y24.5221 
X68.9449 Y24.6305 
X69.0829 Y24.7685 
X69.1913 Y24.9307 
X69.2660 Y25.1110 
X69.3041 Y25.3024 
Y25.4976 
X69.2660 Y25.6890 
X75.3250 Y31.7496 
X75.3796 Y31.8441 
X75.4078 Y31.9495 
Y58.1100 
X75.4266 Y58.1178 
X75.5763 Y58.2178 
X75.7037 Y58.3452 
X75.8037 Y58.4949 
X75.8727 Y58.6613 
X75.9078 Y58.8379 
Y59.0181 
X75.8727 Y59.1947 
X75.8037 Y59.3611 
X75.7037 Y59.5108 
X75.5763 Y59.6382 
X75.4266 Y59.7382 
X75.2602 Y59.8072 
X75.0836 Y59.8423 
X74.9034 
X74.7268 Y59.8072 
X74.5604 Y59.7382 
X74.4107 Y59.6382 
X74.2833 Y59.5108 
X74.1833 Y59.3611 
X74.1143 Y59.1947 
X74.0792 Y59.0181 
Y58.8379 
X74.1143 Y58.6613 
X74.1833 Y58.4949 
X74.2833 Y58.3452 
X74.4107 Y58.2178 
X74.5604 Y58.1178 
X74.5792 Y58.1100 
Y32.1756 
X68.7112 Y26.3076 
X68.6024 Y26.3526 
X68.4110 Y26.3907 
X66.4630 
X66.2716 Y26.3526 
X66.0913 Y26.2779 
X65.9291 Y26.1695 
G00 Z2.5400  
G00 X65.9291 Y21.0895 
G01 Z-0.1778 F254   
G01 X65.7911 Y20.9515 F508   
G01 X65.6827 Y20.7893 
X65.6080 Y20.6090 
X65.5699 Y20.4176 
Y20.2224 
X65.6080 Y20.0310 
X65.6827 Y19.8507 
X65.7911 Y19.6885 
X65.9291 Y19.5505 
X66.0913 Y19.4421 
X66.2716 Y19.3674 
X66.4630 Y19.3293 
X68.4110 
X68.6024 Y19.3674 
X68.7827 Y19.4421 
X68.9449 Y19.5505 
X69.0829 Y19.6885 
X69.1913 Y19.8507 
X69.2660 Y20.0310 
X69.3041 Y20.2224 
Y20.4176 
X69.2660 Y20.6090 
X69.1913 Y20.7893 
X69.0829 Y20.9515 
X68.9449 Y21.0895 
X68.7827 Y21.1979 
X68.6024 Y21.2726 
X68.4110 Y21.3107 
X66.4630 
X66.2716 Y21.2726 
X66.0913 Y21.1979 
X65.9291 Y21.0895 
G00 Z2.5400  
G00 X65.9291 Y18.5495 
G01 Z-0.1778 F254   
G01 X65.7911 Y18.4115 F508   
G01 X65.6827 Y18.2493 
X65.6080 Y18.0690 
X65.5699 Y17.8776 
Y17.6824 
X65.6080 Y17.4910 
X65.6827 Y17.3107 
X65.7911 Y17.1485 
X65.9291 Y17.0105 
X66.0913 Y16.9021 
X66.2716 Y16.8274 
X66.4630 Y16.7893 
X68.4110 
X68.6024 Y16.8274 
X68.7827 Y16.9021 
X68.9449 Y17.0105 
X69.0829 Y17.1485 
X69.1913 Y17.3107 
X69.2660 Y17.4910 
X69.3041 Y17.6824 
Y17.8776 
X69.2660 Y18.0690 
X69.1913 Y18.2493 
X69.0829 Y18.4115 
X68.9449 Y18.5495 
X68.7827 Y18.6579 
X68.6024 Y18.7326 
X68.4110 Y18.7707 
X66.4630 
X66.2716 Y18.7326 
X66.0913 Y18.6579 
X65.9291 Y18.5495 
G00 Z2.5400  
G00 X65.9291 Y16.0095 
G01 Z-0.1778 F254   
G01 X65.7911 Y15.8715 F508   
G01 X65.6827 Y15.7093 
X65.6080 Y15.5290 
X65.5699 Y15.3376 
Y15.1424 
X65.6080 Y14.9510 
X65.6827 Y14.7707 
X65.7911 Y14.6085 
X65.9291 Y14.4705 
X66.0913 Y14.3621 
X66.2716 Y14.2874 
X66.4630 Y14.2493 
X68.4110 
X68.6024 Y14.2874 
X68.7827 Y14.3621 
X68.9449 Y14.4705 
X69.0829 Y14.6085 
X69.1913 Y14.7707 
X69.2660 Y14.9510 
X69.3041 Y15.1424 
Y15.3376 
X69.2660 Y15.5290 
X69.1913 Y15.7093 
X69.0829 Y15.8715 
X68.9449 Y16.0095 
X68.7827 Y16.1179 
X68.6024 Y16.1926 
X68.4110 Y16.2307 
X66.4630 
X66.2716 Y16.1926 
X66.0913 Y16.1179 
X65.9291 Y16.0095 
G00 Z2.5400  
G00 X65.9291 Y13.4695 
G01 Z-0.1778 F254   
G01 X65.7911 Y13.3315 F508   
G01 X65.6827 Y13.1693 
X65.6080 Y12.9890 
X65.5699 Y12.7976 
Y12.6024 
X65.6080 Y12.4110 
X65.6827 Y12.2307 
X65.7911 Y12.0685 
X65.9291 Y11.9305 
X66.0913 Y11.8221 
X66.2716 Y11.7474 
X66.4630 Y11.7093 
X68.4110 
X68.6024 Y11.7474 
X68.7827 Y11.8221 
X68.9449 Y11.9305 
X69.0829 Y12.0685 
X69.1913 Y12.2307 
X69.2660 Y12.4110 
X69.3041 Y12.6024 
Y12.7976 
X69.2660 Y12.9890 
X69.1913 Y13.1693 
X69.0829 Y13.3315 
X68.9449 Y13.4695 
X68.7827 Y13.5779 
X68.6024 Y13.6526 
X68.4110 Y13.6907 
X66.4630 
X66.2716 Y13.6526 
X66.0913 Y13.5779 
X65.9291 Y13.4695 
G00 Z2.5400  
G00 X64.1097 Y13.4914 
G01 Z-0.1778 F254   
G01 X63.5294 Y14.0717 F508   
G01 X62.7086 Y14.0717 
X62.1283 Y13.4914 
Y12.6706 
X62.7086 Y12.0903 
X63.5294 
X64.1097 Y12.6706 
Y13.4914 
G00 Z2.5400  
G00 X68.2748 Y9.1644  
G01 Z-0.1778 F254   
G01 X68.1532 Y9.0428  F508   
G01 X68.0522 Y8.9037  
X67.9741 Y8.7505  
X67.9210 Y8.5870  
X67.8941 Y8.4172  
Y8.2452  
X67.9210 Y8.0754  
X67.9741 Y7.9119  
X68.0522 Y7.7587  
X68.1532 Y7.6196  
X68.2748 Y7.4980  
X68.4139 Y7.3970  
X68.5671 Y7.3189  
X68.6102 Y7.3049  
Y2.8551  
X68.5671 Y2.8411  
X68.4139 Y2.7630  
X68.2748 Y2.6620  
X68.1532 Y2.5404  
X68.0522 Y2.4013  
X67.9741 Y2.2481  
X67.9210 Y2.0846  
X67.8941 Y1.9148  
Y1.7428  
X67.9210 Y1.5730  
X67.9741 Y1.4095  
X68.0522 Y1.2563  
X68.1532 Y1.1172  
X68.2748 Y0.9956  
X68.4139 Y0.8946  
X68.5671 Y0.8165  
X68.7306 Y0.7634  
X68.9004 Y0.7365  
X69.0724 
X69.2422 Y0.7634  
X69.4057 Y0.8165  
X69.5589 Y0.8946  
X69.6980 Y0.9956  
X69.8196 Y1.1172  
X69.9206 Y1.2563  
X69.9987 Y1.4095  
X70.0518 Y1.5730  
X70.0787 Y1.7428  
Y1.9148  
X70.0518 Y2.0846  
X69.9987 Y2.2481  
X69.9206 Y2.4013  
X69.8196 Y2.5404  
X69.6980 Y2.6620  
X69.5589 Y2.7630  
X69.4388 Y2.8242  
Y7.3358  
X69.5589 Y7.3970  
X69.6980 Y7.4980  
X69.8196 Y7.6196  
X69.9206 Y7.7587  
X69.9987 Y7.9119  
X70.0518 Y8.0754  
X70.0787 Y8.2452  
Y8.4172  
X70.0518 Y8.5870  
X69.9987 Y8.7505  
X69.9206 Y8.9037  
X69.8196 Y9.0428  
X69.6980 Y9.1644  
X69.5589 Y9.2654  
X69.4057 Y9.3435  
X69.2422 Y9.3966  
X69.0724 Y9.4235  
X68.9004 
X68.7306 Y9.3966  
X68.5671 Y9.3435  
X68.4139 Y9.2654  
X68.2748 Y9.1644  
G00 Z2.5400  
G00 X72.7960 Y9.1644  
G01 Z-0.1778 F254   
G01 X72.6744 Y9.0428  F508   
G01 X72.5734 Y8.9037  
X72.4953 Y8.7505  
X72.4422 Y8.5870  
X72.4153 Y8.4172  
Y8.2452  
X72.4422 Y8.0754  
X72.4953 Y7.9119  
X72.5734 Y7.7587  
X72.6744 Y7.6196  
X72.7960 Y7.4980  
X72.9351 Y7.3970  
X73.0883 Y7.3189  
X73.1187 Y7.3091  
Y2.8509  
X73.0883 Y2.8411  
X72.9351 Y2.7630  
X72.7960 Y2.6620  
X72.6744 Y2.5404  
X72.5734 Y2.4013  
X72.4953 Y2.2481  
X72.4422 Y2.0846  
X72.4153 Y1.9148  
Y1.7428  
X72.4422 Y1.5730  
X72.4953 Y1.4095  
X72.5734 Y1.2563  
X72.6744 Y1.1172  
X72.7960 Y0.9956  
X72.9351 Y0.8946  
X73.0883 Y0.8165  
X73.2518 Y0.7634  
X73.4216 Y0.7365  
X73.5936 
X73.7634 Y0.7634  
X73.9269 Y0.8165  
X74.0801 Y0.8946  
X74.2192 Y0.9956  
X74.3408 Y1.1172  
X74.4418 Y1.2563  
X74.5199 Y1.4095  
X74.5730 Y1.5730  
X74.5999 Y1.7428  
Y1.9148  
X74.5730 Y2.0846  
X74.5199 Y2.2481  
X74.4418 Y2.4013  
X74.3408 Y2.5404  
X74.2192 Y2.6620  
X74.0801 Y2.7630  
X73.9473 Y2.8307  
Y7.3293  
X74.0801 Y7.3970  
X74.2192 Y7.4980  
X74.3408 Y7.6196  
X74.4418 Y7.7587  
X74.5199 Y7.9119  
X74.5730 Y8.0754  
X74.5999 Y8.2452  
Y8.4172  
X74.5730 Y8.5870  
X74.5199 Y8.7505  
X74.4418 Y8.9037  
X74.3408 Y9.0428  
X74.2192 Y9.1644  
X74.0801 Y9.2654  
X73.9269 Y9.3435  
X73.7634 Y9.3966  
X73.5936 Y9.4235  
X73.4216 
X73.2518 Y9.3966  
X73.0883 Y9.3435  
X72.9351 Y9.2654  
X72.7960 Y9.1644  
G00 Z2.5400  
G00 X76.2753 Y2.7090  
G01 Z-0.1778 F254   
G01 X76.1580 Y2.5917  F508   
G01 X76.0605 Y2.4575  
X75.9851 Y2.3096  
X75.9339 Y2.1518  
X75.9079 Y1.9880  
Y1.8220  
X75.9339 Y1.6582  
X75.9851 Y1.5004  
X76.0605 Y1.3525  
X76.1580 Y1.2183  
X76.2753 Y1.1010  
X76.4095 Y1.0035  
X76.5574 Y0.9281  
X76.7152 Y0.8769  
X76.8790 Y0.8509  
X77.0450 
X77.2088 Y0.8769  
X77.3666 Y0.9281  
X77.5145 Y1.0035  
X77.6487 Y1.1010  
X77.7660 Y1.2183  
X77.8635 Y1.3525  
X77.9389 Y1.5004  
X77.9901 Y1.6582  
X78.0161 Y1.8220  
Y1.9880  
X77.9901 Y2.1518  
X77.9389 Y2.3096  
X77.8635 Y2.4575  
X77.7660 Y2.5917  
X77.6487 Y2.7090  
X77.5145 Y2.8065  
X77.3666 Y2.8819  
X77.2088 Y2.9331  
X77.0450 Y2.9591  
X76.8790 
X76.7152 Y2.9331  
X76.5574 Y2.8819  
X76.4095 Y2.8065  
X76.2753 Y2.7090  
G00 Z2.5400  
G00 X86.4353 Y2.7090  
G01 Z-0.1778 F254   
G01 X86.3180 Y2.5917  F508   
G01 X86.2205 Y2.4575  
X86.1451 Y2.3096  
X86.0939 Y2.1518  
X86.0679 Y1.9880  
Y1.8220  
X86.0939 Y1.6582  
X86.1451 Y1.5004  
X86.2205 Y1.3525  
X86.3180 Y1.2183  
X86.4353 Y1.1010  
X86.5695 Y1.0035  
X86.7174 Y0.9281  
X86.8752 Y0.8769  
X87.0390 Y0.8509  
X87.2050 
X87.3688 Y0.8769  
X87.5266 Y0.9281  
X87.6745 Y1.0035  
X87.8087 Y1.1010  
X87.9260 Y1.2183  
X88.0235 Y1.3525  
X88.0989 Y1.5004  
X88.1501 Y1.6582  
X88.1761 Y1.8220  
Y1.9880  
X88.1501 Y2.1518  
X88.0989 Y2.3096  
X88.0235 Y2.4575  
X87.9260 Y2.5917  
X87.8087 Y2.7090  
X87.6745 Y2.8065  
X87.5266 Y2.8819  
X87.3688 Y2.9331  
X87.2050 Y2.9591  
X87.0390 
X86.8752 Y2.9331  
X86.7174 Y2.8819  
X86.5695 Y2.8065  
X86.4353 Y2.7090  
G00 Z2.5400  
G00 X92.2196 Y2.7428  
G01 Z-0.1778 F254   
G01 X92.3412 Y2.6212  F508   
G01 X92.4803 Y2.5202  
X92.6335 Y2.4421  
X92.7970 Y2.3890  
X92.9668 Y2.3621  
X95.0948 
X95.2646 Y2.3890  
X95.4281 Y2.4421  
X95.5813 Y2.5202  
X95.7204 Y2.6212  
X95.8420 Y2.7428  
X95.9430 Y2.8819  
X96.0211 Y3.0351  
X96.0742 Y3.1986  
X96.1011 Y3.3684  
Y3.5404  
X96.0742 Y3.7102  
X96.0211 Y3.8737  
X95.9430 Y4.0269  
X95.8420 Y4.1660  
X95.7204 Y4.2876  
X95.5813 Y4.3886  
X95.4281 Y4.4667  
X95.2646 Y4.5198  
X95.0948 Y4.5467  
X94.3264 
X94.3115 Y4.5724  
X91.4733 Y7.4106  
Y16.2635 
X91.4921 Y16.2713 
X91.6418 Y16.3713 
X91.7692 Y16.4987 
X91.8692 Y16.6484 
X91.9382 Y16.8148 
X91.9733 Y16.9914 
Y17.1715 
X91.9382 Y17.3482 
X91.8692 Y17.5146 
X91.7692 Y17.6643 
X91.6418 Y17.7917 
X91.4921 Y17.8917 
X91.3257 Y17.9607 
X91.1491 Y17.9958 
X90.9689 
X90.7923 Y17.9607 
X90.6259 Y17.8917 
X90.4762 Y17.7917 
X90.3488 Y17.6643 
X90.2488 Y17.5146 
X90.1798 Y17.3482 
X90.1447 Y17.1715 
Y16.9914 
X90.1798 Y16.8148 
X90.2488 Y16.6484 
X90.3488 Y16.4987 
X90.4762 Y16.3713 
X90.6259 Y16.2713 
X90.6447 Y16.2635 
Y7.1845  
X90.6729 Y7.0791  
X90.7275 Y6.9846  
X90.8046 Y6.9075  
X93.1654 Y4.5467  
X92.9668 
X92.7970 Y4.5198  
X92.6335 Y4.4667  
X92.4803 Y4.3886  
X92.3412 Y4.2876  
X92.2196 Y4.1660  
X92.1186 Y4.0269  
X92.0405 Y3.8737  
X91.9874 Y3.7102  
X91.9605 Y3.5404  
Y3.3684  
X91.9874 Y3.1986  
X92.0405 Y3.0351  
X92.1186 Y2.8819  
X92.2196 Y2.7428  
G00 Z2.5400  
G00 X92.2196 Y7.2640  
G01 Z-0.1778 F254   
G01 X92.3412 Y7.1424  F508   
G01 X92.4803 Y7.0414  
X92.6335 Y6.9633  
X92.7970 Y6.9102  
X92.9668 Y6.8833  
X95.0948 
X95.2646 Y6.9102  
X95.4281 Y6.9633  
X95.5813 Y7.0414  
X95.7204 Y7.1424  
X95.8420 Y7.2640  
X95.9430 Y7.4031  
X96.0211 Y7.5563  
X96.0742 Y7.7198  
X96.1011 Y7.8896  
Y8.0616  
X96.0742 Y8.2314  
X96.0211 Y8.3949  
X95.9430 Y8.5481  
X95.8420 Y8.6872  
X95.7204 Y8.8088  
X95.5813 Y8.9098  
X95.4281 Y8.9879  
X95.2646 Y9.0410  
X95.0948 Y9.0679  
X92.9668 
X92.7970 Y9.0410  
X92.6335 Y8.9879  
X92.4803 Y8.9098  
X92.3412 Y8.8088  
X92.2196 Y8.6872  
X92.1186 Y8.5481  
X92.0405 Y8.3949  
X91.9874 Y8.2314  
X91.9605 Y8.0616  
Y7.8896  
X91.9874 Y7.7198  
X92.0405 Y7.5563  
X92.1186 Y7.4031  
X92.2196 Y7.2640  
G00 Z2.5400  
G00 X92.2196 Y10.3628 
G01 Z-0.1778 F254   
G01 X92.3412 Y10.2412 F508   
G01 X92.4803 Y10.1402 
X92.6335 Y10.0621 
X92.7970 Y10.0090 
X92.9668 Y9.9821  
X95.0948 
X95.2646 Y10.0090 
X95.4281 Y10.0621 
X95.5813 Y10.1402 
X95.7204 Y10.2412 
X95.8420 Y10.3628 
X95.9430 Y10.5019 
X96.0211 Y10.6551 
X96.0742 Y10.8186 
X96.1011 Y10.9884 
Y11.1604 
X96.0742 Y11.3302 
X96.0211 Y11.4937 
X95.9430 Y11.6469 
X95.8420 Y11.7860 
X95.7204 Y11.9076 
X95.5813 Y12.0086 
X95.4281 Y12.0867 
X95.2646 Y12.1398 
X95.0948 Y12.1667 
X92.9668 
X92.7970 Y12.1398 
X92.6335 Y12.0867 
X92.4803 Y12.0086 
X92.3412 Y11.9076 
X92.2196 Y11.7860 
X92.1186 Y11.6469 
X92.0405 Y11.4937 
X91.9874 Y11.3302 
X91.9605 Y11.1604 
Y10.9884 
X91.9874 Y10.8186 
X92.0405 Y10.6551 
X92.1186 Y10.5019 
X92.2196 Y10.3628 
G00 Z2.5400  
G00 X92.2196 Y14.8840 
G01 Z-0.1778 F254   
G01 X92.3412 Y14.7624 F508   
G01 X92.4803 Y14.6614 
X92.6335 Y14.5833 
X92.7970 Y14.5302 
X92.9668 Y14.5033 
X95.0948 
X95.2646 Y14.5302 
X95.4281 Y14.5833 
X95.5813 Y14.6614 
X95.7204 Y14.7624 
X95.8420 Y14.8840 
X95.9430 Y15.0231 
X96.0211 Y15.1763 
X96.0309 Y15.2067 
X98.5331 
X98.5429 Y15.1763 
X98.6210 Y15.0231 
X98.7220 Y14.8840 
X98.8436 Y14.7624 
X98.9827 Y14.6614 
X99.1359 Y14.5833 
X99.2994 Y14.5302 
X99.4692 Y14.5033 
X101.5972 
X101.7670 Y14.5302 
X101.9305 Y14.5833 
X102.0837 Y14.6614 
X102.2228 Y14.7624 
X102.3444 Y14.8840 
X102.4454 Y15.0231 
X102.5235 Y15.1763 
X102.5766 Y15.3398 
X102.6035 Y15.5096 
Y15.6816 
X102.5766 Y15.8514 
X102.5235 Y16.0149 
X102.4454 Y16.1681 
X102.3444 Y16.3072 
X102.2228 Y16.4288 
X102.0837 Y16.5298 
X101.9305 Y16.6079 
X101.7670 Y16.6610 
X101.5972 Y16.6879 
X99.4692 
X99.2994 Y16.6610 
X99.1359 Y16.6079 
X98.9827 Y16.5298 
X98.8436 Y16.4288 
X98.7220 Y16.3072 
X98.6210 Y16.1681 
X98.5533 Y16.0353 
X96.0107 
X95.9430 Y16.1681 
X95.8420 Y16.3072 
X95.7204 Y16.4288 
X95.5813 Y16.5298 
X95.4281 Y16.6079 
X95.2646 Y16.6610 
X95.0948 Y16.6879 
X92.9668 
X92.7970 Y16.6610 
X92.6335 Y16.6079 
X92.4803 Y16.5298 
X92.3412 Y16.4288 
X92.2196 Y16.3072 
X92.1186 Y16.1681 
X92.0405 Y16.0149 
X91.9874 Y15.8514 
X91.9605 Y15.6816 
Y15.5096 
X91.9874 Y15.3398 
X92.0405 Y15.1763 
X92.1186 Y15.0231 
X92.2196 Y14.8840 
G00 Z2.5400  
G00 X92.2196 Y17.9828 
G01 Z-0.1778 F254   
G01 X92.3412 Y17.8612 F508   
G01 X92.4803 Y17.7602 
X92.6335 Y17.6821 
X92.7970 Y17.6290 
X92.9668 Y17.6021 
X95.0948 
X95.2646 Y17.6290 
X95.4281 Y17.6821 
X95.5813 Y17.7602 
X95.7204 Y17.8612 
X95.8420 Y17.9828 
X95.9430 Y18.1219 
X96.0211 Y18.2751 
X96.0742 Y18.4386 
X96.1011 Y18.6084 
Y18.7804 
X96.0742 Y18.9502 
X96.0211 Y19.1137 
X95.9430 Y19.2669 
X95.8420 Y19.4060 
X95.7204 Y19.5276 
X95.5813 Y19.6286 
X95.4281 Y19.7067 
X95.2646 Y19.7598 
X95.0948 Y19.7867 
X92.9668 
X92.7970 Y19.7598 
X92.6335 Y19.7067 
X92.4803 Y19.6286 
X92.3412 Y19.5276 
X92.2196 Y19.4060 
X92.1186 Y19.2669 
X92.0405 Y19.1137 
X91.9874 Y18.9502 
X91.9605 Y18.7804 
Y18.6084 
X91.9874 Y18.4386 
X92.0405 Y18.2751 
X92.1186 Y18.1219 
X92.2196 Y17.9828 
G00 Z2.5400  
G00 X92.2196 Y22.5040 
G01 Z-0.1778 F254   
G01 X92.3412 Y22.3824 F508   
G01 X92.4803 Y22.2814 
X92.6335 Y22.2033 
X92.7970 Y22.1502 
X92.9668 Y22.1233 
X95.0948 
X95.2646 Y22.1502 
X95.4281 Y22.2033 
X95.5813 Y22.2814 
X95.7204 Y22.3824 
X95.8420 Y22.5040 
X95.9430 Y22.6431 
X96.0211 Y22.7963 
X96.0742 Y22.9598 
X96.1011 Y23.1296 
Y23.3016 
X96.0742 Y23.4714 
X96.0211 Y23.6349 
X95.9430 Y23.7881 
X95.8420 Y23.9272 
X95.7204 Y24.0488 
X95.5813 Y24.1498 
X95.4281 Y24.2279 
X95.2646 Y24.2810 
X95.0948 Y24.3079 
X93.4990 
X91.7350 Y26.0719 
X91.9227 Y26.2596 
Y27.0804 
X91.3424 Y27.6607 
X90.5216 
X89.9413 Y27.0804 
Y26.2596 
X90.5216 Y25.6793 
X90.9558 
X92.4836 Y24.1515 
X92.4803 
X92.3412 Y24.0488 
X92.2196 Y23.9272 
X92.1186 Y23.7881 
X92.0405 Y23.6349 
X91.9874 Y23.4714 
X91.9605 Y23.3016 
Y23.1296 
X91.9874 Y22.9598 
X92.0405 Y22.7963 
X92.1186 Y22.6431 
X92.2196 Y22.5040 
G00 Z2.5400  
G00 X87.9592 Y21.9823 
G01 Z-0.1778 F254   
G01 X87.8318 Y22.1097 F508   
G01 X87.6821 Y22.2097 
X87.5157 Y22.2787 
X87.3391 Y22.3138 
X87.1589 
X86.9823 Y22.2787 
X86.8159 Y22.2097 
X86.6662 Y22.1097 
X86.5388 Y21.9823 
X86.4388 Y21.8326 
X86.3698 Y21.6662 
X86.3347 Y21.4896 
Y21.3094 
X86.3698 Y21.1328 
X86.4388 Y20.9664 
X86.5388 Y20.8167 
X86.6662 Y20.6893 
X86.8159 Y20.5893 
X86.8299 Y20.5835 
Y18.0806 
X84.4393 Y15.6900 
X84.4313 Y15.7093 
X84.3229 Y15.8715 
X84.1849 Y16.0095 
X84.0227 Y16.1179 
X83.8424 Y16.1926 
X83.6510 Y16.2307 
X81.7030 
X81.5116 Y16.1926 
X81.3313 Y16.1179 
X81.1691 Y16.0095 
X81.0311 Y15.8715 
X80.9227 Y15.7093 
X80.8480 Y15.5290 
X80.8099 Y15.3376 
Y15.1424 
X80.8480 Y14.9510 
X80.9227 Y14.7707 
X81.0311 Y14.6085 
X81.1691 Y14.4705 
X81.3313 Y14.3621 
X81.5116 Y14.2874 
X81.7030 Y14.2493 
X83.6510 
X83.8424 Y14.2874 
X84.0227 Y14.3621 
X84.1849 Y14.4705 
X84.3229 Y14.6085 
X84.4313 Y14.7707 
X84.4521 Y14.8209 
X84.6372 
X84.7438 Y14.8495 
X84.8393 Y14.9046 
X84.9174 Y14.9827 
X87.5063 Y17.5716 
X87.5844 Y17.6497 
X87.6395 Y17.7452 
X87.6681 Y17.8518 
Y20.5835 
X87.6821 Y20.5893 
X87.8318 Y20.6893 
X87.9592 Y20.8167 
X88.0592 Y20.9664 
X88.1282 Y21.1328 
X88.1633 Y21.3094 
Y21.4896 
X88.1282 Y21.6662 
X88.0592 Y21.8326 
X87.9592 Y21.9823 
G00 Z2.5400  
G00 X84.1849 Y22.0905 
G01 Z-0.1778 F254   
G01 X84.3229 Y22.2285 F508   
G01 X84.4313 Y22.3907 
X84.5060 Y22.5710 
X84.5441 Y22.7624 
Y22.9576 
X84.5060 Y23.1490 
X84.4313 Y23.3293 
X84.3229 Y23.4915 
X84.1849 Y23.6295 
X84.0227 Y23.7379 
X83.8424 Y23.8126 
X83.6510 Y23.8507 
X81.7030 
X81.5116 Y23.8126 
X81.3313 Y23.7379 
X81.1691 Y23.6295 
X81.0311 Y23.4915 
X80.9227 Y23.3293 
X80.8480 Y23.1490 
X80.8099 Y22.9576 
Y22.7624 
X80.8480 Y22.5710 
X80.9227 Y22.3907 
X81.0311 Y22.2285 
X81.1691 Y22.0905 
X81.3313 Y21.9821 
X81.5116 Y21.9074 
X81.7030 Y21.8693 
X83.6510 
X83.8424 Y21.9074 
X84.0227 Y21.9821 
X84.1849 Y22.0905 
G00 Z2.5400  
G00 X84.1849 Y21.0895 
G01 Z-0.1778 F254   
G01 X84.0227 Y21.1979 F508   
G01 X83.8424 Y21.2726 
X83.6510 Y21.3107 
X81.7030 
X81.5116 Y21.2726 
X81.3313 Y21.1979 
X81.1691 Y21.0895 
X81.0311 Y20.9515 
X80.9227 Y20.7893 
X80.8480 Y20.6090 
X80.8099 Y20.4176 
Y20.2224 
X80.8480 Y20.0310 
X80.9227 Y19.8507 
X81.0311 Y19.6885 
X81.1691 Y19.5505 
X81.3313 Y19.4421 
X81.5116 Y19.3674 
X81.7030 Y19.3293 
X83.6510 
X83.8424 Y19.3674 
X84.0227 Y19.4421 
X84.1849 Y19.5505 
X84.3229 Y19.6885 
X84.4313 Y19.8507 
X84.5060 Y20.0310 
X84.5441 Y20.2224 
Y20.4176 
X84.5060 Y20.6090 
X84.4313 Y20.7893 
X84.3229 Y20.9515 
X84.1849 Y21.0895 
G00 Z2.5400  
G00 X84.1849 Y18.5495 
G01 Z-0.1778 F254   
G01 X84.0227 Y18.6579 F508   
G01 X83.8424 Y18.7326 
X83.6510 Y18.7707 
X81.7030 
X81.5116 Y18.7326 
X81.3313 Y18.6579 
X81.1691 Y18.5495 
X81.0311 Y18.4115 
X80.9227 Y18.2493 
X80.8480 Y18.0690 
X80.8099 Y17.8776 
Y17.6824 
X80.8480 Y17.4910 
X80.9227 Y17.3107 
X81.0311 Y17.1485 
X81.1691 Y17.0105 
X81.3313 Y16.9021 
X81.5116 Y16.8274 
X81.7030 Y16.7893 
X83.6510 
X83.8424 Y16.8274 
X84.0227 Y16.9021 
X84.1849 Y17.0105 
X84.3229 Y17.1485 
X84.4313 Y17.3107 
X84.5060 Y17.4910 
X84.5441 Y17.6824 
Y17.8776 
X84.5060 Y18.0690 
X84.4313 Y18.2493 
X84.3229 Y18.4115 
X84.1849 Y18.5495 
G00 Z2.5400  
G00 X84.1849 Y13.4695 
G01 Z-0.1778 F254   
G01 X84.0227 Y13.5779 F508   
G01 X83.8424 Y13.6526 
X83.6510 Y13.6907 
X81.7030 
X81.5116 Y13.6526 
X81.3313 Y13.5779 
X81.1691 Y13.4695 
X81.0311 Y13.3315 
X80.9227 Y13.1693 
X80.8480 Y12.9890 
X80.8099 Y12.7976 
Y12.6024 
X80.8480 Y12.4110 
X80.9227 Y12.2307 
X81.0311 Y12.0685 
X81.1691 Y11.9305 
X81.3313 Y11.8221 
X81.5116 Y11.7474 
X81.7030 Y11.7093 
X83.6510 
X83.8424 Y11.7474 
X84.0227 Y11.8221 
X84.1849 Y11.9305 
X84.3229 Y12.0685 
X84.4313 Y12.2307 
X84.4521 Y12.2809 
X85.9072 
X86.0138 Y12.3095 
X86.1093 Y12.3646 
X86.1874 Y12.4427 
X89.4259 Y15.6812 
X89.4810 Y15.7767 
X89.5096 Y15.8833 
Y25.9632 
X89.5048 Y25.9811 
Y31.7054 
X90.3416 Y32.5422 
X103.5630 
X103.6560 Y32.4030 
X103.7770 Y32.2820 
X103.9192 Y32.1870 
X104.0772 Y32.1216 
X104.2450 Y32.0882 
X104.4160 
X104.5838 Y32.1216 
X104.7418 Y32.1870 
X104.8840 Y32.2820 
X105.0049 Y32.4030 
X105.1000 Y32.5452 
X105.1654 Y32.7032 
X105.1988 Y32.8710 
Y33.0420 
X105.1654 Y33.2098 
X105.1000 Y33.3678 
X105.0049 Y33.5100 
X104.8840 Y33.6309 
X104.7418 Y33.7260 
X104.5838 Y33.7914 
X104.4160 Y33.8248 
X104.2450 
X104.0772 Y33.7914 
X103.9192 Y33.7260 
X103.7770 Y33.6309 
X103.6560 Y33.5100 
X103.5630 Y33.3708 
X90.1155 
X90.0101 Y33.3426 
X89.9156 Y33.2880 
X89.8385 Y33.2109 
X88.7590 Y32.1314 
X88.7044 Y32.0369 
X88.6762 Y31.9315 
Y25.9811 
X88.6714 Y25.9632 
Y16.1121 
X85.6784 Y13.1191 
X84.4521 
X84.4313 Y13.1693 
X84.3229 Y13.3315 
X84.1849 Y13.4695 
G00 Z2.5400  
G00 X84.1849 Y24.6305 
G01 Z-0.1778 F254   
G01 X84.3229 Y24.7685 F508   
G01 X84.4313 Y24.9307 
X84.5060 Y25.1110 
X84.5441 Y25.3024 
Y25.4976 
X84.5060 Y25.6890 
X84.4313 Y25.8693 
X84.3229 Y26.0315 
X84.1849 Y26.1695 
X84.0227 Y26.2779 
X83.8424 Y26.3526 
X83.6510 Y26.3907 
X81.7030 
X81.5116 Y26.3526 
X81.3313 Y26.2779 
X81.1691 Y26.1695 
X81.0311 Y26.0315 
X80.9227 Y25.8693 
X80.8480 Y25.6890 
X80.8099 Y25.4976 
Y25.3024 
X80.8480 Y25.1110 
X80.9227 Y24.9307 
X81.0311 Y24.7685 
X81.1691 Y24.6305 
X81.3313 Y24.5221 
X81.5116 Y24.4474 
X81.7030 Y24.4093 
X83.6510 
X83.8424 Y24.4474 
X84.0227 Y24.5221 
X84.1849 Y24.6305 
G00 Z2.5400  
G00 X84.1849 Y27.1705 
G01 Z-0.1778 F254   
G01 X84.3229 Y27.3085 F508   
G01 X84.4313 Y27.4707 
X84.5060 Y27.6510 
X84.5441 Y27.8424 
Y28.0376 
X84.5060 Y28.2290 
X84.4313 Y28.4093 
X84.3229 Y28.5715 
X84.1849 Y28.7095 
X84.0227 Y28.8179 
X83.8424 Y28.8926 
X83.6510 Y28.9307 
X81.7030 
X81.5116 Y28.8926 
X81.3313 Y28.8179 
X81.1691 Y28.7095 
X81.0311 Y28.5715 
X80.9227 Y28.4093 
X80.8480 Y28.2290 
X80.8099 Y28.0376 
Y27.8424 
X80.8480 Y27.6510 
X80.9227 Y27.4707 
X81.0311 Y27.3085 
X81.1691 Y27.1705 
X81.3313 Y27.0621 
X81.5116 Y26.9874 
X81.7030 Y26.9493 
X83.6510 
X83.8424 Y26.9874 
X84.0227 Y27.0621 
X84.1849 Y27.1705 
G00 Z2.5400  
G00 X84.1849 Y29.7105 
G01 Z-0.1778 F254   
G01 X84.3229 Y29.8485 F508   
G01 X84.4313 Y30.0107 
X84.5060 Y30.1910 
X84.5441 Y30.3824 
Y30.5776 
X84.5060 Y30.7690 
X84.4313 Y30.9493 
X84.3229 Y31.1115 
X84.1849 Y31.2495 
X84.0227 Y31.3579 
X83.8424 Y31.4326 
X83.6510 Y31.4707 
X81.7030 
X81.5116 Y31.4326 
X81.3313 Y31.3579 
X81.1691 Y31.2495 
X81.0311 Y31.1115 
X80.9227 Y30.9493 
X80.8480 Y30.7690 
X80.8099 Y30.5776 
Y30.3824 
X80.8480 Y30.1910 
X80.9227 Y30.0107 
X81.0311 Y29.8485 
X81.1691 Y29.7105 
X81.3313 Y29.6021 
X81.5116 Y29.5274 
X81.7030 Y29.4893 
X83.6510 
X83.8424 Y29.5274 
X84.0227 Y29.6021 
X84.1849 Y29.7105 
G00 Z2.5400  
G00 X84.1849 Y32.2505 
G01 Z-0.1778 F254   
G01 X84.3229 Y32.3885 F508   
G01 X84.4313 Y32.5507 
X84.5060 Y32.7310 
X84.5441 Y32.9224 
Y33.1176 
X84.5060 Y33.3090 
X84.4313 Y33.4893 
X84.3229 Y33.6515 
X84.1849 Y33.7895 
X84.0227 Y33.8979 
X83.8424 Y33.9726 
X83.6510 Y34.0107 
X81.7030 
X81.5116 Y33.9726 
X81.3313 Y33.8979 
X81.1691 Y33.7895 
X81.0311 Y33.6515 
X80.9227 Y33.4893 
X80.8480 Y33.3090 
X80.8099 Y33.1176 
Y32.9224 
X80.8480 Y32.7310 
X80.9227 Y32.5507 
X81.0311 Y32.3885 
X81.1691 Y32.2505 
X81.3313 Y32.1421 
X81.5116 Y32.0674 
X81.7030 Y32.0293 
X83.6510 
X83.8424 Y32.0674 
X84.0227 Y32.1421 
X84.1849 Y32.2505 
G00 Z2.5400  
G00 X84.1849 Y34.7905 
G01 Z-0.1778 F254   
G01 X84.3229 Y34.9285 F508   
G01 X84.4313 Y35.0907 
X84.5060 Y35.2710 
X84.5441 Y35.4624 
Y35.6576 
X84.5060 Y35.8490 
X84.4313 Y36.0293 
X84.3229 Y36.1915 
X84.1849 Y36.3295 
X84.0227 Y36.4379 
X83.8424 Y36.5126 
X83.6510 Y36.5507 
X81.7030 
X81.5116 Y36.5126 
X81.3313 Y36.4379 
X81.1691 Y36.3295 
X81.0311 Y36.1915 
X80.9227 Y36.0293 
X80.8480 Y35.8490 
X80.8099 Y35.6576 
Y35.4624 
X80.8480 Y35.2710 
X80.9227 Y35.0907 
X81.0311 Y34.9285 
X81.1691 Y34.7905 
X81.3313 Y34.6821 
X81.5116 Y34.6074 
X81.7030 Y34.5693 
X83.6510 
X83.8424 Y34.6074 
X84.0227 Y34.6821 
X84.1849 Y34.7905 
G00 Z2.5400  
G00 X84.1849 Y37.3305 
G01 Z-0.1778 F254   
G01 X84.3229 Y37.4685 F508   
G01 X84.4313 Y37.6307 
X84.5060 Y37.8110 
X84.5441 Y38.0024 
Y38.1976 
X84.5060 Y38.3890 
X84.4313 Y38.5693 
X84.3229 Y38.7315 
X84.1849 Y38.8695 
X84.0227 Y38.9779 
X83.8424 Y39.0526 
X83.6510 Y39.0907 
X81.7030 
X81.5116 Y39.0526 
X81.3313 Y38.9779 
X81.1691 Y38.8695 
X81.0311 Y38.7315 
X80.9227 Y38.5693 
X80.8480 Y38.3890 
X80.8099 Y38.1976 
Y38.0024 
X80.8480 Y37.8110 
X80.9227 Y37.6307 
X81.0311 Y37.4685 
X81.1691 Y37.3305 
X81.3313 Y37.2221 
X81.5116 Y37.1474 
X81.7030 Y37.1093 
X83.6510 
X83.8424 Y37.1474 
X84.0227 Y37.2221 
X84.1849 Y37.3305 
G00 Z2.5400  
G00 X84.1849 Y39.8705 
G01 Z-0.1778 F254   
G01 X84.3229 Y40.0085 F508   
G01 X84.4313 Y40.1707 
X84.5060 Y40.3510 
X84.5441 Y40.5424 
Y40.7376 
X84.5060 Y40.9290 
X84.4313 Y41.1093 
X84.3229 Y41.2715 
X84.1849 Y41.4095 
X84.0227 Y41.5179 
X83.8424 Y41.5926 
X83.6510 Y41.6307 
X81.7030 
X81.5116 Y41.5926 
X81.3313 Y41.5179 
X81.1691 Y41.4095 
X81.0311 Y41.2715 
X80.9227 Y41.1093 
X80.8480 Y40.9290 
X80.8099 Y40.7376 
Y40.5424 
X80.8480 Y40.3510 
X80.9227 Y40.1707 
X81.0311 Y40.0085 
X81.1691 Y39.8705 
X81.3313 Y39.7621 
X81.5116 Y39.6874 
X81.7030 Y39.6493 
X83.6510 
X83.8424 Y39.6874 
X84.0227 Y39.7621 
X84.1849 Y39.8705 
G00 Z2.5400  
G00 X84.1849 Y42.4105 
G01 Z-0.1778 F254   
G01 X84.3229 Y42.5485 F508   
G01 X84.4313 Y42.7107 
X84.5060 Y42.8910 
X84.5441 Y43.0824 
Y43.2776 
X84.5060 Y43.4690 
X84.4313 Y43.6493 
X84.3229 Y43.8115 
X84.1849 Y43.9495 
X84.0227 Y44.0579 
X83.8424 Y44.1326 
X83.6510 Y44.1707 
X81.7030 
X81.5116 Y44.1326 
X81.3313 Y44.0579 
X81.1691 Y43.9495 
X81.0311 Y43.8115 
X80.9227 Y43.6493 
X80.8480 Y43.4690 
X80.8099 Y43.2776 
Y43.0824 
X80.8480 Y42.8910 
X80.9227 Y42.7107 
X81.0311 Y42.5485 
X81.1691 Y42.4105 
X81.3313 Y42.3021 
X81.5116 Y42.2274 
X81.7030 Y42.1893 
X83.6510 
X83.8424 Y42.2274 
X84.0227 Y42.3021 
X84.1849 Y42.4105 
G00 Z2.5400  
G00 X84.1849 Y44.9505 
G01 Z-0.1778 F254   
G01 X84.3229 Y45.0885 F508   
G01 X84.4313 Y45.2507 
X84.5060 Y45.4310 
X84.5441 Y45.6224 
Y45.8176 
X84.5060 Y46.0090 
X84.4313 Y46.1893 
X84.3229 Y46.3515 
X84.1849 Y46.4895 
X84.0227 Y46.5979 
X83.8424 Y46.6726 
X83.6510 Y46.7107 
X81.7030 
X81.5116 Y46.6726 
X81.3313 Y46.5979 
X81.1691 Y46.4895 
X81.0311 Y46.3515 
X80.9227 Y46.1893 
X80.8480 Y46.0090 
X80.8099 Y45.8176 
Y45.6224 
X80.8480 Y45.4310 
X80.9227 Y45.2507 
X81.0311 Y45.0885 
X81.1691 Y44.9505 
X81.3313 Y44.8421 
X81.5116 Y44.7674 
X81.7030 Y44.7293 
X83.6510 
X83.8424 Y44.7674 
X84.0227 Y44.8421 
X84.1849 Y44.9505 
G00 Z2.5400  
G00 X84.1849 Y47.4905 
G01 Z-0.1778 F254   
G01 X84.3229 Y47.6285 F508   
G01 X84.4313 Y47.7907 
X84.5060 Y47.9710 
X84.5441 Y48.1624 
Y48.3576 
X84.5060 Y48.5490 
X84.4313 Y48.7293 
X84.3229 Y48.8915 
X84.1849 Y49.0295 
X84.0227 Y49.1379 
X83.8424 Y49.2126 
X83.6510 Y49.2507 
X81.7030 
X81.5116 Y49.2126 
X81.3313 Y49.1379 
X81.1691 Y49.0295 
X81.0311 Y48.8915 
X80.9227 Y48.7293 
X80.8480 Y48.5490 
X80.8099 Y48.3576 
Y48.1624 
X80.8480 Y47.9710 
X80.9227 Y47.7907 
X81.0311 Y47.6285 
X81.1691 Y47.4905 
X81.3313 Y47.3821 
X81.5116 Y47.3074 
X81.7030 Y47.2693 
X83.6510 
X83.8424 Y47.3074 
X84.0227 Y47.3821 
X84.1849 Y47.4905 
G00 Z2.5400  
G00 X84.1849 Y50.0305 
G01 Z-0.1778 F254   
G01 X84.3229 Y50.1685 F508   
G01 X84.4313 Y50.3307 
X84.5060 Y50.5110 
X84.5441 Y50.7024 
Y50.8976 
X84.5060 Y51.0890 
X84.4313 Y51.2693 
X84.3229 Y51.4315 
X84.1849 Y51.5695 
X84.0227 Y51.6779 
X83.8424 Y51.7526 
X83.6510 Y51.7907 
X81.7030 
X81.5116 Y51.7526 
X81.3313 Y51.6779 
X81.1691 Y51.5695 
X81.0311 Y51.4315 
X80.9227 Y51.2693 
X80.8480 Y51.0890 
X80.8099 Y50.8976 
Y50.7024 
X80.8480 Y50.5110 
X80.9227 Y50.3307 
X81.0311 Y50.1685 
X81.1691 Y50.0305 
X81.3313 Y49.9221 
X81.5116 Y49.8474 
X81.7030 Y49.8093 
X83.6510 
X83.8424 Y49.8474 
X84.0227 Y49.9221 
X84.1849 Y50.0305 
G00 Z2.5400  
G00 X84.1849 Y52.5705 
G01 Z-0.1778 F254   
G01 X84.3229 Y52.7085 F508   
G01 X84.4313 Y52.8707 
X84.5060 Y53.0510 
X84.5441 Y53.2424 
Y53.4376 
X84.5060 Y53.6290 
X84.4313 Y53.8093 
X84.3229 Y53.9715 
X84.1849 Y54.1095 
X84.0227 Y54.2179 
X83.8424 Y54.2926 
X83.6510 Y54.3307 
X81.7030 
X81.5116 Y54.2926 
X81.3313 Y54.2179 
X81.1691 Y54.1095 
X81.0311 Y53.9715 
X80.9227 Y53.8093 
X80.8480 Y53.6290 
X80.8099 Y53.4376 
Y53.2424 
X80.8480 Y53.0510 
X80.9227 Y52.8707 
X81.0311 Y52.7085 
X81.1691 Y52.5705 
X81.3313 Y52.4621 
X81.5116 Y52.3874 
X81.7030 Y52.3493 
X83.6510 
X83.8424 Y52.3874 
X84.0227 Y52.4621 
X84.1849 Y52.5705 
G00 Z2.5400  
G00 X84.1849 Y55.1105 
G01 Z-0.1778 F254   
G01 X84.3229 Y55.2485 F508   
G01 X84.4313 Y55.4107 
X84.5060 Y55.5910 
X84.5441 Y55.7824 
Y55.9776 
X84.5060 Y56.1690 
X84.4313 Y56.3493 
X84.3229 Y56.5115 
X84.1849 Y56.6495 
X84.0227 Y56.7579 
X83.8424 Y56.8326 
X83.6510 Y56.8707 
X81.7030 
X81.5116 Y56.8326 
X81.3313 Y56.7579 
X81.1691 Y56.6495 
X81.0311 Y56.5115 
X80.9227 Y56.3493 
X80.8480 Y56.1690 
X80.8099 Y55.9776 
Y55.7824 
X80.8480 Y55.5910 
X80.9227 Y55.4107 
X81.0311 Y55.2485 
X81.1691 Y55.1105 
X81.3313 Y55.0021 
X81.5116 Y54.9274 
X81.7030 Y54.8893 
X83.6510 
X83.8424 Y54.9274 
X84.0227 Y55.0021 
X84.1849 Y55.1105 
G00 Z2.5400  
G00 X84.1849 Y57.6505 
G01 Z-0.1778 F254   
G01 X84.3229 Y57.7885 F508   
G01 X84.4313 Y57.9507 
X84.5060 Y58.1310 
X84.5441 Y58.3224 
Y58.5176 
X84.5060 Y58.7090 
X84.4313 Y58.8893 
X84.3229 Y59.0515 
X84.1849 Y59.1895 
X84.0227 Y59.2979 
X83.8424 Y59.3726 
X83.6510 Y59.4107 
X81.7030 
X81.5116 Y59.3726 
X81.3313 Y59.2979 
X81.1691 Y59.1895 
X81.0311 Y59.0515 
X80.9227 Y58.8893 
X80.8480 Y58.7090 
X80.8099 Y58.5176 
Y58.3224 
X80.8480 Y58.1310 
X80.9227 Y57.9507 
X81.0311 Y57.7885 
X81.1691 Y57.6505 
X81.3313 Y57.5421 
X81.5116 Y57.4674 
X81.7030 Y57.4293 
X83.6510 
X83.8424 Y57.4674 
X84.0227 Y57.5421 
X84.1849 Y57.6505 
G00 Z2.5400  
G00 X84.1849 Y60.1905 
G01 Z-0.1778 F254   
G01 X84.3229 Y60.3285 F508   
G01 X84.4313 Y60.4907 
X84.5060 Y60.6710 
X84.5441 Y60.8624 
Y61.0576 
X84.5060 Y61.2490 
X84.4313 Y61.4293 
X84.3229 Y61.5915 
X84.1849 Y61.7295 
X84.0227 Y61.8379 
X83.8424 Y61.9126 
X83.6510 Y61.9507 
X81.7030 
X81.5116 Y61.9126 
X81.3313 Y61.8379 
X81.1691 Y61.7295 
X81.0311 Y61.5915 
X80.9227 Y61.4293 
X80.8480 Y61.2490 
X80.8099 Y61.0576 
Y60.8624 
X80.8480 Y60.6710 
X80.9227 Y60.4907 
X81.0311 Y60.3285 
X81.1691 Y60.1905 
X81.3313 Y60.0821 
X81.5116 Y60.0074 
X81.7030 Y59.9693 
X83.6510 
X83.8424 Y60.0074 
X84.0227 Y60.0821 
X84.1849 Y60.1905 
G00 Z2.5400  
G00 X84.1938 Y71.3619 
G01 Z-0.1778 F254   
G01 X84.3516 Y71.4131 F508   
G01 X84.4995 Y71.4885 
X84.6337 Y71.5860 
X84.7510 Y71.7033 
X84.8485 Y71.8375 
X84.9189 Y71.9757 
X86.9225 
X87.0279 Y72.0039 
X87.1224 Y72.0585 
X87.1995 Y72.1356 
X88.9446 Y73.8807 
X90.3915 
X90.4969 Y73.9089 
X90.5914 Y73.9635 
X90.6685 Y74.0406 
X90.7231 Y74.1351 
X90.7513 Y74.2405 
Y74.3495 
X90.7231 Y74.4549 
X90.6685 Y74.5494 
X90.5914 Y74.6265 
X90.4969 Y74.6811 
X90.3915 Y74.7093 
X88.7185 
X88.6131 Y74.6811 
X88.5186 Y74.6265 
X86.6964 Y72.8043 
X84.9189 
X84.8485 Y72.9425 
X84.7510 Y73.0767 
X84.6337 Y73.1940 
X84.4995 Y73.2915 
X84.3516 Y73.3669 
X84.1938 Y73.4181 
X84.0300 Y73.4441 
X83.8640 
X83.7002 Y73.4181 
X83.5424 Y73.3669 
X83.3945 Y73.2915 
X83.2603 Y73.1940 
X83.1430 Y73.0767 
X83.0455 Y72.9425 
X82.9701 Y72.7946 
X82.9189 Y72.6368 
X82.8929 Y72.4730 
Y72.3070 
X82.9189 Y72.1432 
X82.9701 Y71.9854 
X83.0455 Y71.8375 
X83.1430 Y71.7033 
X83.2603 Y71.5860 
X83.3945 Y71.4885 
X83.5424 Y71.4131 
X83.7002 Y71.3619 
X83.8640 Y71.3359 
X84.0300 
X84.1938 Y71.3619 
G00 Z2.5400  
G00 X82.0937 Y71.5860 
G01 Z-0.1778 F254   
G01 X82.2110 Y71.7033 F508   
G01 X82.3085 Y71.8375 
X82.3839 Y71.9854 
X82.4351 Y72.1432 
X82.4611 Y72.3070 
Y72.4730 
X82.4351 Y72.6368 
X82.3839 Y72.7946 
X82.3085 Y72.9425 
X82.2110 Y73.0767 
X82.0937 Y73.1940 
X81.9595 Y73.2915 
X81.8116 Y73.3669 
X81.6538 Y73.4181 
X81.4900 Y73.4441 
X81.3240 
X81.1602 Y73.4181 
X81.0024 Y73.3669 
X80.8545 Y73.2915 
X80.7203 Y73.1940 
X80.6030 Y73.0767 
X80.5055 Y72.9425 
X80.4301 Y72.7946 
X80.3789 Y72.6368 
X80.3529 Y72.4730 
Y72.3070 
X80.3789 Y72.1432 
X80.4301 Y71.9854 
X80.5055 Y71.8375 
X80.6030 Y71.7033 
X80.7203 Y71.5860 
X80.8545 Y71.4885 
X81.0024 Y71.4131 
X81.1602 Y71.3619 
X81.3240 Y71.3359 
X81.4900 
X81.6538 Y71.3619 
X81.8116 Y71.4131 
X81.9595 Y71.4885 
X82.0937 Y71.5860 
G00 Z2.5400  
G00 X79.5537 Y71.5860 
G01 Z-0.1778 F254   
G01 X79.6710 Y71.7033 F508   
G01 X79.7685 Y71.8375 
X79.8439 Y71.9854 
X79.8951 Y72.1432 
X79.9211 Y72.3070 
Y72.4730 
X79.8951 Y72.6368 
X79.8439 Y72.7946 
X79.8270 Y72.8276 
X82.1501 Y75.1507 
X90.0915 
X90.3915 
X90.4969 Y75.1789 
X90.5914 Y75.2335 
X90.6685 Y75.3106 
X90.7231 Y75.4051 
X90.7513 Y75.5105 
Y75.6195 
X90.7231 Y75.7249 
X90.6685 Y75.8194 
X90.5914 Y75.8965 
X90.4969 Y75.9511 
X90.3915 Y75.9793 
X81.9240 
X81.8186 Y75.9511 
X81.7241 Y75.8965 
X79.2134 Y73.3858 
X79.1138 Y73.4181 
X78.9500 Y73.4441 
X78.7840 
X78.6202 Y73.4181 
X78.4624 Y73.3669 
X78.3145 Y73.2915 
X78.1803 Y73.1940 
X78.0630 Y73.0767 
X77.9655 Y72.9425 
X77.8901 Y72.7946 
X77.8389 Y72.6368 
X77.8129 Y72.4730 
Y72.3070 
X77.8389 Y72.1432 
X77.8901 Y71.9854 
X77.9655 Y71.8375 
X78.0630 Y71.7033 
X78.1803 Y71.5860 
X78.3145 Y71.4885 
X78.4624 Y71.4131 
X78.6202 Y71.3619 
X78.7840 Y71.3359 
X78.9500 
X79.1138 Y71.3619 
X79.2716 Y71.4131 
X79.4195 Y71.4885 
X79.5537 Y71.5860 
G00 Z2.5400  
G00 X79.4389 Y76.1860 
G01 Z-0.1778 F254   
G01 X79.5160 Y76.2631 F508   
G01 X79.7371 Y76.4842 
X89.5045 
X89.5656 Y76.4489 
X89.6710 Y76.4207 
X89.6825 
X90.3915 
X90.4969 Y76.4489 
X90.5914 Y76.5035 
X90.6685 Y76.5806 
X90.7231 Y76.6751 
X90.7513 Y76.7805 
Y76.8895 
X90.7231 Y76.9949 
X90.6685 Y77.0894 
X90.5914 Y77.1665 
X90.4969 Y77.2211 
X90.3915 Y77.2493 
X89.8830 
X89.8219 Y77.2846 
X89.7165 Y77.3128 
X79.5110 
X79.4056 Y77.2846 
X79.3111 Y77.2300 
X79.0129 Y76.9318 
X77.4058 
X77.4318 Y77.0624 
Y77.2425 
X77.3967 Y77.4192 
X77.3277 Y77.5856 
X77.2277 Y77.7353 
X77.1003 Y77.8627 
X76.9506 Y77.9627 
X76.7842 Y78.0317 
X76.6076 Y78.0668 
X76.4274 
X76.2508 Y78.0317 
X76.0844 Y77.9627 
X75.9347 Y77.8627 
X75.8073 Y77.7353 
X75.7073 Y77.5856 
X75.6383 Y77.4192 
X75.6032 Y77.2425 
Y77.0624 
X75.6383 Y76.8858 
X75.7073 Y76.7194 
X75.8073 Y76.5697 
X75.9347 Y76.4423 
X76.0844 Y76.3423 
X76.2508 Y76.2733 
X76.4274 Y76.2382 
X76.6076 
X76.7842 Y76.2733 
X76.8030 Y76.2811 
X76.8981 Y76.1860 
X76.9926 Y76.1314 
X77.0980 Y76.1032 
X79.2390 
X79.3444 Y76.1314 
X79.4389 Y76.1860 
G00 Z2.5400  
G00 X79.0688 Y77.4583 
G01 Z-0.1778 F254   
G01 X79.1962 Y77.5857 F508   
G01 X79.2962 Y77.7354 
X79.3040 Y77.7542 
X89.5045 
X89.5656 Y77.7189 
X89.6710 Y77.6907 
X89.6825 
X90.3915 
X90.4969 Y77.7189 
X90.5914 Y77.7735 
X90.6685 Y77.8506 
X90.7231 Y77.9451 
X90.7513 Y78.0505 
Y78.1595 
X90.7231 Y78.2649 
X90.6685 Y78.3594 
X90.5914 Y78.4365 
X90.4969 Y78.4911 
X90.3915 Y78.5193 
X89.8830 
X89.8219 Y78.5546 
X89.7165 Y78.5828 
X79.3040 
X79.2962 Y78.6016 
X79.1962 Y78.7513 
X79.0688 Y78.8787 
X78.9191 Y78.9787 
X78.7527 Y79.0477 
X78.5760 Y79.0828 
X78.3959 
X78.2193 Y79.0477 
X78.0529 Y78.9787 
X77.9032 Y78.8787 
X77.7758 Y78.7513 
X77.6758 Y78.6016 
X77.6068 Y78.4352 
X77.5717 Y78.2585 
Y78.0784 
X77.6068 Y77.9018 
X77.6758 Y77.7354 
X77.7758 Y77.5857 
X77.9032 Y77.4583 
X78.0529 Y77.3583 
X78.2193 Y77.2893 
X78.3959 Y77.2542 
X78.5760 
X78.7527 Y77.2893 
X78.9191 Y77.3583 
X79.0688 Y77.4583 
G00 Z2.5400  
G00 X72.9784 Y77.2541 
G01 Z-0.1778 F254   
G01 X71.3763 Y77.2541 F508   
G01 X71.2865 Y77.3885 
X71.1655 Y77.5095 
X71.0233 Y77.6045 
X70.8653 Y77.6699 
X70.6975 Y77.7033 
X70.5265 
X70.3587 Y77.6699 
X70.2007 Y77.6045 
X70.0585 Y77.5095 
X69.9375 Y77.3885 
X69.8425 Y77.2463 
X69.7771 Y77.0883 
X69.7437 Y76.9205 
Y76.7495 
X69.7771 Y76.5817 
X69.8425 Y76.4237 
X69.9375 Y76.2815 
X70.0585 Y76.1605 
X70.2007 Y76.0655 
X70.3587 Y76.0001 
X70.5265 Y75.9667 
X70.6975 
X70.8653 Y76.0001 
X71.0233 Y76.0655 
X71.1655 Y76.1605 
X71.2865 Y76.2815 
X71.3763 Y76.4159 
X73.2072 
X73.3138 Y76.4445 
X73.4093 Y76.4996 
X73.4874 Y76.5777 
X81.4536 Y84.5439 
X82.9862 
X83.0041 Y84.5487 
X93.5544 
X94.9227 Y83.1804 
Y83.1305 
X94.9509 Y83.0251 
X95.0055 Y82.9306 
X95.0826 Y82.8535 
X95.1771 Y82.7989 
X95.2825 Y82.7707 
X95.5970 
X95.6112 Y82.7679 
X95.6513 Y82.7707 
X95.9915 
X96.0969 Y82.7989 
X96.1914 Y82.8535 
X96.2685 Y82.9306 
X96.3231 Y83.0251 
X96.3513 Y83.1305 
Y83.2395 
X96.3231 Y83.3449 
X96.2685 Y83.4394 
X96.1914 Y83.5165 
X96.0969 Y83.5711 
X95.9915 Y83.5993 
X95.7328 
X95.6210 Y83.6539 
X93.9804 Y85.2945 
X93.8859 Y85.3491 
X93.7805 Y85.3773 
X83.0041 
X82.9862 Y85.3821 
X81.2248 
X81.1182 Y85.3535 
X81.0227 Y85.2984 
X72.9784 Y77.2541 
G00 Z2.5400  
G00 X73.0500 Y79.5273 
G01 Z-0.1778 F254   
G01 X73.2140 Y79.5273 F508   
G01 X73.3759 Y79.5529 
X73.5318 Y79.6036 
X73.6779 Y79.6780 
X73.8105 Y79.7744 
X73.9264 Y79.8903 
X74.0228 Y80.0229 
X74.0972 Y80.1690 
X74.1479 Y80.3249 
X74.1735 Y80.4868 
Y80.6508 
X74.1479 Y80.8127 
X74.0972 Y80.9686 
X74.0228 Y81.1147 
X73.9264 Y81.2473 
X73.8105 Y81.3632 
X73.6779 Y81.4596 
X73.5318 Y81.5340 
X73.4536 Y81.5594
X70.3104 Y81.5594 
X73.5318 Y81.5848 
X73.6779 Y81.6592 
X73.8105 Y81.7556 
X73.9264 Y81.8715 
X74.0228 Y82.0041 
X74.0972 Y82.1502 
X74.1479 Y82.3061 
X74.1735 Y82.4680 
Y82.6320 
X74.1479 Y82.7939 
X74.0972 Y82.9498 
X74.0228 Y83.0959 
X73.9264 Y83.2285 
X73.8105 Y83.3444 
X73.6779 Y83.4408 
X73.5318 Y83.5152 
X73.3759 Y83.5659 
X73.2140 Y83.5915 
X73.0500 
X72.8881 Y83.5659 
X72.7322 Y83.5152 
X72.5861 Y83.4408 
X72.4535 Y83.3444 
X72.3376 Y83.2285 
X72.2412 Y83.0959 
X72.1668 Y82.9498 
X72.1161 Y82.7939 
X72.0905 Y82.6320 
Y82.4680 
X72.1161 Y82.3061 
X72.1668 Y82.1502 
X72.2412 Y82.0041 
X72.3376 Y81.8715 
X72.4535 Y81.7556 
X72.5861 Y81.6592 
X72.7322 Y81.5848 
X72.8104 Y81.5594 
X72.7322 Y81.5340 
X72.5861 Y81.4596 
X72.4535 Y81.3632 
X72.3376 Y81.2473 
X72.2412 Y81.1147 
X72.1668 Y80.9686 
X72.1161 Y80.8127 
X72.0905 Y80.6508 
Y80.4868 
X72.1161 Y80.3249 
X72.1668 Y80.1690 
X72.2412 Y80.0229 
X72.3376 Y79.8903 
X72.4535 Y79.7744 
X72.5861 Y79.6780 
X72.7322 Y79.6036 
X72.8881 Y79.5529 
X73.0500 Y79.5273 
G00 Z2.5400  
G00 X71.3105 Y79.7744 
G01 Z-0.1778 F254   
G01 X71.4264 Y79.8903 F508   
G01 X71.5228 Y80.0229 
X71.5972 Y80.1690 
X71.6479 Y80.3249 
X71.6735 Y80.4868 
Y80.6508 
X71.6479 Y80.8127 
X71.5972 Y80.9686 
X71.5228 Y81.1147 
X71.4264 Y81.2473 
X71.3105 Y81.3632 
X71.1779 Y81.4596 
X71.0318 Y81.5340 
X70.9536 Y81.5594 
X71.0318 Y81.5848 
X71.1779 Y81.6592 
X71.3105 Y81.7556 
X71.4264 Y81.8715 
X71.5228 Y82.0041 
X71.5972 Y82.1502 
X71.6479 Y82.3061 
X71.6735 Y82.4680 
Y82.6320 
X71.6479 Y82.7939 
X71.5972 Y82.9498 
X71.5228 Y83.0959 
X71.4264 Y83.2285 
X71.3105 Y83.3444 
X71.1779 Y83.4408 
X71.0318 Y83.5152 
X70.8759 Y83.5659 
X70.7140 Y83.5915 
X70.5500 
X70.3881 Y83.5659 
X70.2322 Y83.5152 
X70.0861 Y83.4408 
X69.9535 Y83.3444 
X69.8376 Y83.2285 
X69.7412 Y83.0959 
X69.6668 Y82.9498 
X69.6161 Y82.7939 
X69.5905 Y82.6320 
Y82.4680 
X69.6161 Y82.3061 
X69.6668 Y82.1502 
X69.7412 Y82.0041 
X69.8376 Y81.8715 
X69.9535 Y81.7556 
X70.0861 Y81.6592 
X70.2322 Y81.5848 
X70.3104 Y81.5594 
X70.2322 Y81.5340 
X70.0861 Y81.4596 
X69.9535 Y81.3632 
X69.8376 Y81.2473 
X69.7412 Y81.1147 
X69.6668 Y80.9686 
X69.6161 Y80.8127 
X69.5905 Y80.6508 
Y80.4868 
X69.6161 Y80.3249 
X69.6668 Y80.1690 
X69.7412 Y80.0229 
X69.8376 Y79.8903 
X69.9535 Y79.7744 
X70.0861 Y79.6780 
X70.2322 Y79.6036 
X70.3881 Y79.5529 
X70.5500 Y79.5273 
X70.7140 
X70.8759 Y79.5529 
X71.0318 Y79.6036 
X71.1779 Y79.6780 
X71.3105 Y79.7744 
G00 Z2.5400  
G00 X67.0234 Y83.9438 
G01 Z-0.1778 F254   
G01 X67.1862 Y84.1066 F508   
G01 X67.3265 Y84.2894 
X67.4417 Y84.4889 
X67.5298 Y84.7017 
X67.5894 Y84.9242 
X67.6195 Y85.1526 
Y85.3830 
X67.5894 Y85.6114 
X67.5298 Y85.8339 
X67.4417 Y86.0467 
X67.3265 Y86.2462 
X67.1862 Y86.4290 
X67.0234 Y86.5918 
X66.8406 Y86.7321 
X66.6411 Y86.8473 
X66.4283 Y86.9354 
X66.2058 Y86.9950 
X65.9774 Y87.0251 
X65.7470 
X65.5186 Y86.9950 
X65.2961 Y86.9354 
X65.0833 Y86.8473 
X64.8838 Y86.7321 
X64.7010 Y86.5918 
X64.5382 Y86.4290 
X64.3979 Y86.2462 
X64.2827 Y86.0467 
X64.1946 Y85.8339 
X64.1350 Y85.6114 
X64.1049 Y85.3830 
Y85.1526 
X64.1350 Y84.9242 
X64.1946 Y84.7017 
X64.2827 Y84.4889 
X64.3979 Y84.2894 
X64.5382 Y84.1066 
X64.7010 Y83.9438 
X64.8838 Y83.8035 
X65.0833 Y83.6883 
X65.2961 Y83.6002 
X65.5186 Y83.5406 
X65.7470 Y83.5105 
X65.9774 
X66.2058 Y83.5406 
X66.4283 Y83.6002 
X66.6411 Y83.6883 
X66.8406 Y83.8035 
X67.0234 Y83.9438 
G00 Z2.5400  
G00 X61.1584 Y85.0709 
G01 Z-0.1778 F254   
G01 X61.2791 Y85.1916 F508   
G01 X61.3794 Y85.3297 
X61.4569 Y85.4818 
X61.5096 Y85.6441 
X61.5363 Y85.8127 
Y87.9233 
X61.5096 Y88.0919 
X61.4569 Y88.2542 
X61.3794 Y88.4063 
X61.2791 Y88.5444 
X61.1584 Y88.6651 
X61.0203 Y88.7654 
X60.8682 Y88.8429 
X60.7059 Y88.8956 
X60.5373 Y88.9223 
X60.3667 
X60.1981 Y88.8956 
X60.0358 Y88.8429 
X59.8837 Y88.7654 
X59.7456 Y88.6651 
X59.6249 Y88.5444 
X59.5246 Y88.4063 
X59.4471 Y88.2542 
X59.3944 Y88.0919 
X59.3677 Y87.9233 
Y85.8127 
X59.3944 Y85.6441 
X59.4471 Y85.4818 
X59.5246 Y85.3297 
X59.6249 Y85.1916 
X59.7456 Y85.0709 
X59.8837 Y84.9706 
X60.0358 Y84.8931 
X60.1981 Y84.8404 
X60.3667 Y84.8137 
X60.5373 
X60.7059 Y84.8404 
X60.8682 Y84.8931 
X61.0203 Y84.9706 
X61.1584 Y85.0709 
G00 Z2.5400  
G00 X58.6184 Y85.0709 
G01 Z-0.1778 F254   
G01 X58.7391 Y85.1916 F508   
G01 X58.8394 Y85.3297 
X58.9169 Y85.4818 
X58.9696 Y85.6441 
X58.9963 Y85.8127 
Y87.9233 
X58.9696 Y88.0919 
X58.9169 Y88.2542 
X58.8394 Y88.4063 
X58.7391 Y88.5444 
X58.6184 Y88.6651 
X58.4803 Y88.7654 
X58.3282 Y88.8429 
X58.1659 Y88.8956 
X57.9973 Y88.9223 
X57.8267 
X57.6581 Y88.8956 
X57.4958 Y88.8429 
X57.3437 Y88.7654 
X57.2056 Y88.6651 
X57.0849 Y88.5444 
X56.9846 Y88.4063 
X56.9071 Y88.2542 
X56.8544 Y88.0919 
X56.8277 Y87.9233 
Y85.8127 
X56.8544 Y85.6441 
X56.9071 Y85.4818 
X56.9846 Y85.3297 
X57.0849 Y85.1916 
X57.2056 Y85.0709 
X57.3437 Y84.9706 
X57.4958 Y84.8931 
X57.6581 Y84.8404 
X57.8267 Y84.8137 
X57.9973 
X58.1659 Y84.8404 
X58.3282 Y84.8931 
X58.4803 Y84.9706 
X58.6184 Y85.0709 
G00 Z2.5400  
G00 X56.0784 Y85.0709 
G01 Z-0.1778 F254   
G01 X56.1991 Y85.1916 F508   
G01 X56.2994 Y85.3297 
X56.3769 Y85.4818 
X56.4296 Y85.6441 
X56.4563 Y85.8127 
Y87.9233 
X56.4296 Y88.0919 
X56.3769 Y88.2542 
X56.2994 Y88.4063 
X56.1991 Y88.5444 
X56.0784 Y88.6651 
X55.9403 Y88.7654 
X55.7882 Y88.8429 
X55.6259 Y88.8956 
X55.4573 Y88.9223 
X55.2867 
X55.1181 Y88.8956 
X54.9558 Y88.8429 
X54.8037 Y88.7654 
X54.6656 Y88.6651 
X54.5449 Y88.5444 
X54.4446 Y88.4063 
X54.3671 Y88.2542 
X54.3144 Y88.0919 
X54.2877 Y87.9233 
Y85.8127 
X54.3144 Y85.6441 
X54.3671 Y85.4818 
X54.4446 Y85.3297 
X54.5449 Y85.1916 
X54.6656 Y85.0709 
X54.8037 Y84.9706 
X54.9558 Y84.8931 
X55.1181 Y84.8404 
X55.2867 Y84.8137 
X55.4573 
X55.6259 Y84.8404 
X55.7882 Y84.8931 
X55.9403 Y84.9706 
X56.0784 Y85.0709 
G00 Z2.5400  
G00 X53.5384 Y85.0709 
G01 Z-0.1778 F254   
G01 X53.6591 Y85.1916 F508   
G01 X53.7594 Y85.3297 
X53.8369 Y85.4818 
X53.8896 Y85.6441 
X53.9163 Y85.8127 
Y87.9233 
X53.8896 Y88.0919 
X53.8369 Y88.2542 
X53.7594 Y88.4063 
X53.6591 Y88.5444 
X53.5384 Y88.6651 
X53.4003 Y88.7654 
X53.2482 Y88.8429 
X53.0859 Y88.8956 
X52.9173 Y88.9223 
X52.7467 
X52.5781 Y88.8956 
X52.4158 Y88.8429 
X52.2637 Y88.7654 
X52.1256 Y88.6651 
X52.0049 Y88.5444 
X51.9046 Y88.4063 
X51.8271 Y88.2542 
X51.7744 Y88.0919 
X51.7477 Y87.9233 
Y85.8127 
X51.7744 Y85.6441 
X51.8271 Y85.4818 
X51.9046 Y85.3297 
X52.0049 Y85.1916 
X52.1256 Y85.0709 
X52.2637 Y84.9706 
X52.4158 Y84.8931 
X52.5781 Y84.8404 
X52.7467 Y84.8137 
X52.9173 
X53.0859 Y84.8404 
X53.2482 Y84.8931 
X53.4003 Y84.9706 
X53.5384 Y85.0709 
G00 Z2.5400  
G00 X53.5295 Y81.7952 
G01 Z-0.1778 F254   
G01 X53.3904 Y81.6942 F508   
G01 X53.2688 Y81.5726 
X53.1678 Y81.4335 
X53.0897 Y81.2803 
X53.0366 Y81.1168 
X53.0097 Y80.9470 
Y78.8190 
X53.0366 Y78.6492 
X53.0897 Y78.4857 
X53.1678 Y78.3325 
X53.2688 Y78.1934 
X53.3904 Y78.0718 
X53.5295 Y77.9708 
X53.6827 Y77.8927 
X53.8462 Y77.8396 
X54.0160 Y77.8127 
X54.1880 
X54.3578 Y77.8396 
X54.5213 Y77.8927 
X54.6745 Y77.9708 
X54.8136 Y78.0718 
X54.9352 Y78.1934 
X55.0362 Y78.3325 
X55.1143 Y78.4857 
X55.1674 Y78.6492 
X55.1943 Y78.8190 
Y80.9470 
X55.1674 Y81.1168 
X55.1143 Y81.2803 
X55.0362 Y81.4335 
X54.9352 Y81.5726 
X54.8136 Y81.6942 
X54.6745 Y81.7952 
X54.5213 Y81.8733 
X54.3578 Y81.9264 
X54.1880 Y81.9533 
X54.0160 
X53.8462 Y81.9264 
X53.6827 Y81.8733 
X53.5295 Y81.7952 
G00 Z2.5400  
G00 X55.9304 Y81.6942 
G01 Z-0.1778 F254   
G01 X55.8088 Y81.5726 F508   
G01 X55.7078 Y81.4335 
X55.6297 Y81.2803 
X55.5766 Y81.1168 
X55.5497 Y80.9470 
Y78.8190 
X55.5766 Y78.6492 
X55.6297 Y78.4857 
X55.7078 Y78.3325 
X55.8088 Y78.1934 
X55.9304 Y78.0718 
X56.0695 Y77.9708 
X56.2227 Y77.8927 
X56.3862 Y77.8396 
X56.5560 Y77.8127 
X56.7280 
X56.8978 Y77.8396 
X57.0613 Y77.8927 
X57.2145 Y77.9708 
X57.3536 Y78.0718 
X57.4752 Y78.1934 
X57.5762 Y78.3325 
X57.6543 Y78.4857 
X57.7074 Y78.6492 
X57.7343 Y78.8190 
Y80.9470 
X57.7074 Y81.1168 
X57.6543 Y81.2803 
X57.5762 Y81.4335 
X57.4752 Y81.5726 
X57.3536 Y81.6942 
X57.2145 Y81.7952 
X57.0613 Y81.8733 
X56.8978 Y81.9264 
X56.7280 Y81.9533 
X56.5560 
X56.3862 Y81.9264 
X56.2227 Y81.8733 
X56.0695 Y81.7952 
X55.9304 Y81.6942 
G00 Z2.5400  
G00 X58.4704 Y81.6942 
G01 Z-0.1778 F254   
G01 X58.3488 Y81.5726 F508   
G01 X58.2478 Y81.4335 
X58.1697 Y81.2803 
X58.1166 Y81.1168 
X58.0897 Y80.9470 
Y78.8190 
X58.1166 Y78.6492 
X58.1697 Y78.4857 
X58.2478 Y78.3325 
X58.3488 Y78.1934 
X58.4704 Y78.0718 
X58.6095 Y77.9708 
X58.7627 Y77.8927 
X58.9262 Y77.8396 
X59.0960 Y77.8127 
X59.2680 
X59.4378 Y77.8396 
X59.6013 Y77.8927 
X59.7545 Y77.9708 
X59.8936 Y78.0718 
X60.0152 Y78.1934 
X60.1162 Y78.3325 
X60.1943 Y78.4857 
X60.2474 Y78.6492 
X60.2743 Y78.8190 
Y80.9470 
X60.2474 Y81.1168 
X60.1943 Y81.2803 
X60.1162 Y81.4335 
X60.0152 Y81.5726 
X59.8936 Y81.6942 
X59.7545 Y81.7952 
X59.6013 Y81.8733 
X59.4378 Y81.9264 
X59.2680 Y81.9533 
X59.0960 
X58.9262 Y81.9264 
X58.7627 Y81.8733 
X58.6095 Y81.7952 
X58.4704 Y81.6942 
G00 Z2.5400  
G00 X58.6446 Y75.6667 
G01 Z-0.1778 F254   
G01 X58.0643 Y75.0864 F508   
G01 X58.0643 Y74.2656 
X58.6446 Y73.6853 
X59.4654 
X60.0457 Y74.2656 
Y75.0864 
X59.4654 Y75.6667 
X58.6446 
G00 Z2.5400  
G00 X54.3389 Y75.5477 
G01 Z-0.1778 F254   
G01 X54.2117 Y75.6749 F508   
G01 X54.0661 Y75.7807 
X53.9058 Y75.8624 
X53.7347 Y75.9180 
X53.5570 Y75.9461 
X53.3770 
X53.1993 Y75.9180 
X53.0282 Y75.8624 
X52.8679 Y75.7807 
X52.7223 Y75.6749 
X52.5951 Y75.5477 
X52.4893 Y75.4021 
X52.4076 Y75.2418 
X52.3520 Y75.0707 
X52.3239 Y74.8930 
Y74.7130 
X52.3520 Y74.5353 
X52.4076 Y74.3642 
X52.4893 Y74.2039 
X52.5951 Y74.0583 
X52.7223 Y73.9311 
X52.8679 Y73.8253 
X53.0282 Y73.7436 
X53.1993 Y73.6880 
X53.3770 Y73.6599 
X53.5570 
X53.7347 Y73.6880 
X53.9058 Y73.7436 
X54.0661 Y73.8253 
X54.2117 Y73.9311 
X54.3389 Y74.0583 
X54.4447 Y74.2039 
X54.5264 Y74.3642 
X54.5819 Y74.5353 
X54.6101 Y74.7130 
Y74.8930 
X54.5819 Y75.0707 
X54.5264 Y75.2418 
X54.4447 Y75.4021 
X54.3389 Y75.5477 
G00 Z2.5400  
G00 X48.8061 Y75.5098 
G01 Z-0.1778 F254   
G01 X48.8061 Y89.5902 F508   
G01 X48.7775 Y89.6968 
X48.7224 Y89.7923 
X48.6443 Y89.8704 
X48.5488 Y89.9255 
X48.4422 Y89.9541 
X48.3318 
X48.2252 Y89.9255 
X48.1297 Y89.8704 
X48.0516 Y89.7923 
X47.9965 Y89.6968 
X47.9679 Y89.5902 
Y75.7386 
X44.4034 Y72.1741 
X0.0718  
X-0.0348 Y72.1455 
X-0.1303 Y72.0904 
X-0.2084 Y72.0123 
X-0.2635 Y71.9168 
X-0.2921 Y71.8102 
Y71.6998 
X-0.2635 Y71.5932 
X-0.2084 Y71.4977 
X-0.1303 Y71.4196 
X-0.0348 Y71.3645 
X0.0718  Y71.3359 
X44.6322 
X44.7388 Y71.3645 
X44.8343 Y71.4196 
X48.6443 Y75.2296 
X48.7224 Y75.3077 
X48.7775 Y75.4032 
X48.8061 Y75.5098 
G00 Z2.5400  
G00 X48.8341 Y71.5645 
G01 Z-0.1778 F254   
G01 X47.9399 Y71.5645 F508   
G01 X47.3075 Y70.9321 
Y70.0379 
X47.9399 Y69.4055 
X48.8341 
X49.4665 Y70.0379 
Y70.9321 
X48.8341 Y71.5645 
G00 Z2.5400  
G00 X44.6679 Y73.4451 
G01 Z-0.1778 F254   
G01 X44.7919 Y73.5691 F508   
G01 X44.8950 Y73.7110 
X44.9747 Y73.8673 
X45.0289 Y74.0341 
X45.0563 Y74.2073 
Y74.3827 
X45.0289 Y74.5559 
X44.9747 Y74.7227 
X44.8950 Y74.8790 
X44.7919 Y75.0209 
X44.6679 Y75.1449 
X44.5260 Y75.2480 
X44.3697 Y75.3277 
X44.2029 Y75.3819 
X44.0297 Y75.4093 
X43.8543 
X43.6811 Y75.3819 
X43.5143 Y75.3277 
X43.3580 Y75.2480 
X43.2161 Y75.1449 
X43.0921 Y75.0209 
X42.9890 Y74.8790 
X42.9093 Y74.7227 
X42.8551 Y74.5559 
X42.8277 Y74.3827 
Y74.2073 
X42.8551 Y74.0341 
X42.9093 Y73.8673 
X42.9890 Y73.7110 
X43.0921 Y73.5691 
X43.2161 Y73.4451 
X43.3580 Y73.3420 
X43.5143 Y73.2623 
X43.6811 Y73.2081 
X43.8543 Y73.1807 
X44.0297 
X44.2029 Y73.2081 
X44.3697 Y73.2623 
X44.5260 Y73.3420 
X44.6679 Y73.4451 
G00 Z2.5400  
G00 X44.6679 Y78.5251 
G01 Z-0.1778 F254   
G01 X44.7919 Y78.6491 F508   
G01 X44.8950 Y78.7910 
X44.9747 Y78.9473 
X45.0289 Y79.1141 
X45.0563 Y79.2873 
Y79.4627 
X45.0289 Y79.6359 
X44.9747 Y79.8027 
X44.8950 Y79.9590 
X44.7919 Y80.1009 
X44.6679 Y80.2249 
X44.5260 Y80.3280 
X44.3697 Y80.4077 
X44.2029 Y80.4619 
X44.0297 Y80.4893 
X43.8543 
X43.6811 Y80.4619 
X43.5143 Y80.4077 
X43.3580 Y80.3280 
X43.2161 Y80.2249 
X43.0921 Y80.1009 
X42.9890 Y79.9590 
X42.9093 Y79.8027 
X42.8551 Y79.6359 
X42.8277 Y79.4627 
Y79.2873 
X42.8551 Y79.1141 
X42.9093 Y78.9473 
X42.9890 Y78.7910 
X43.0921 Y78.6491 
X43.2161 Y78.5251 
X43.3580 Y78.4220 
X43.5143 Y78.3423 
X43.6811 Y78.2881 
X43.8543 Y78.2607 
X44.0297 
X44.2029 Y78.2881 
X44.3697 Y78.3423 
X44.5260 Y78.4220 
X44.6679 Y78.5251 
G00 Z2.5400  
G00 X44.6536 Y81.0818 
G01 Z-0.1778 F254   
G01 X44.7752 Y81.2034 F508   
G01 X44.8762 Y81.3425 
X44.9543 Y81.4957 
X45.0074 Y81.6592 
X45.0343 Y81.8290 
Y82.0010 
X45.0074 Y82.1708 
X44.9543 Y82.3343 
X44.8762 Y82.4875 
X44.7752 Y82.6266 
X44.6536 Y82.7482 
X44.5145 Y82.8492 
X44.3613 Y82.9273 
X44.1978 Y82.9804 
X44.0280 Y83.0073 
X43.8560 
X43.6862 Y82.9804 
X43.5227 Y82.9273 
X43.3695 Y82.8492 
X43.2304 Y82.7482 
X43.1088 Y82.6266 
X43.0078 Y82.4875 
X42.9297 Y82.3343 
X42.8766 Y82.1708 
X42.8497 Y82.0010 
Y81.8290 
X42.8766 Y81.6592 
X42.9297 Y81.4957 
X43.0078 Y81.3425 
X43.1088 Y81.2034 
X43.2304 Y81.0818 
X43.3695 Y80.9808 
X43.5227 Y80.9027 
X43.6862 Y80.8496 
X43.8560 Y80.8227 
X44.0280 
X44.1978 Y80.8496 
X44.3613 Y80.9027 
X44.5145 Y80.9808 
X44.6536 Y81.0818 
G00 Z2.5400  
G00 X44.6437 Y85.0976 
G01 Z-0.1778 F254   
G01 X44.7958 Y85.0201 F508   
G01 X44.9581 Y84.9674 
X45.1267 Y84.9407 
X45.2973 
X45.4659 Y84.9674 
X45.6282 Y85.0201 
X45.7803 Y85.0976 
X45.9184 Y85.1979 
X46.0391 Y85.3186 
X46.1394 Y85.4567 
X46.2169 Y85.6088 
X46.2696 Y85.7711 
X46.2963 Y85.9397 
Y88.0503 
X46.2696 Y88.2189 
X46.2169 Y88.3812 
X46.1394 Y88.5333 
X46.0391 Y88.6714 
X45.9184 Y88.7921 
X45.7803 Y88.8924 
X45.6282 Y88.9699 
X45.4659 Y89.0226 
X45.2973 Y89.0493 
X45.1267 
X44.9581 Y89.0226 
X44.7958 Y88.9699 
X44.6437 Y88.8924 
X44.5056 Y88.7921 
X44.3849 Y88.6714 
X44.2846 Y88.5333 
X44.2071 Y88.3812 
X44.1544 Y88.2189 
X44.1277 Y88.0503 
Y85.9397 
X44.1544 Y85.7711 
X44.2071 Y85.6088 
X44.2846 Y85.4567 
X44.3849 Y85.3186 
X44.5056 Y85.1979 
X44.6437 Y85.0976 
G00 Z2.5400  
G00 X43.3784 Y85.1979 
G01 Z-0.1778 F254   
G01 X43.4991 Y85.3186 F508   
G01 X43.5994 Y85.4567 
X43.6769 Y85.6088 
X43.7296 Y85.7711 
X43.7563 Y85.9397 
Y88.0503 
X43.7296 Y88.2189 
X43.6769 Y88.3812 
X43.5994 Y88.5333 
X43.4991 Y88.6714 
X43.3784 Y88.7921 
X43.2403 Y88.8924 
X43.0882 Y88.9699 
X42.9259 Y89.0226 
X42.7573 Y89.0493 
X42.5867 
X42.4181 Y89.0226 
X42.2558 Y88.9699 
X42.1037 Y88.8924 
X41.9656 Y88.7921 
X41.8449 Y88.6714 
X41.7446 Y88.5333 
X41.6671 Y88.3812 
X41.6144 Y88.2189 
X41.5877 Y88.0503 
Y85.9397 
X41.6144 Y85.7711 
X41.6671 Y85.6088 
X41.7446 Y85.4567 
X41.8449 Y85.3186 
X41.9656 Y85.1979 
X42.1037 Y85.0976 
X42.2558 Y85.0201 
X42.4181 Y84.9674 
X42.5867 Y84.9407 
X42.7573 
X42.9259 Y84.9674 
X43.0882 Y85.0201 
X43.2403 Y85.0976 
X43.3784 Y85.1979 
G00 Z2.5400  
G00 X38.2984 Y85.1979 
G01 Z-0.1778 F254   
G01 X38.4191 Y85.3186 F508   
G01 X38.5194 Y85.4567 
X38.5969 Y85.6088 
X38.6496 Y85.7711 
X38.6763 Y85.9397 
Y88.0503 
X38.6496 Y88.2189 
X38.5969 Y88.3812 
X38.5194 Y88.5333 
X38.4191 Y88.6714 
X38.2984 Y88.7921 
X38.1603 Y88.8924 
X38.0082 Y88.9699 
X37.8459 Y89.0226 
X37.6773 Y89.0493 
X37.5067 
X37.3381 Y89.0226 
X37.1758 Y88.9699 
X37.0237 Y88.8924 
X36.8856 Y88.7921 
X36.7649 Y88.6714 
X36.6646 Y88.5333 
X36.5871 Y88.3812 
X36.5344 Y88.2189 
X36.5077 Y88.0503 
Y85.9397 
X36.5344 Y85.7711 
X36.5871 Y85.6088 
X36.6646 Y85.4567 
X36.7649 Y85.3186 
X36.8856 Y85.1979 
X37.0237 Y85.0976 
X37.1758 Y85.0201 
X37.3381 Y84.9674 
X37.5067 Y84.9407 
X37.6773 
X37.8459 Y84.9674 
X38.0082 Y85.0201 
X38.1603 Y85.0976 
X38.2984 Y85.1979 
G00 Z2.5400  
G00 X35.7584 Y85.1979 
G01 Z-0.1778 F254   
G01 X35.8791 Y85.3186 F508   
G01 X35.9794 Y85.4567 
X36.0569 Y85.6088 
X36.1096 Y85.7711 
X36.1363 Y85.9397 
Y88.0503 
X36.1096 Y88.2189 
X36.0569 Y88.3812 
X35.9794 Y88.5333 
X35.8791 Y88.6714 
X35.7584 Y88.7921 
X35.6203 Y88.8924 
X35.4682 Y88.9699 
X35.3059 Y89.0226 
X35.1373 Y89.0493 
X34.9667 
X34.7981 Y89.0226 
X34.6358 Y88.9699 
X34.4837 Y88.8924 
X34.3456 Y88.7921 
X34.2249 Y88.6714 
X34.1246 Y88.5333 
X34.0471 Y88.3812 
X33.9944 Y88.2189 
X33.9677 Y88.0503 
Y85.9397 
X33.9944 Y85.7711 
X34.0471 Y85.6088 
X34.1246 Y85.4567 
X34.2249 Y85.3186 
X34.3456 Y85.1979 
X34.4837 Y85.0976 
X34.6358 Y85.0201 
X34.7981 Y84.9674 
X34.9667 Y84.9407 
X35.1373 
X35.3059 Y84.9674 
X35.4682 Y85.0201 
X35.6203 Y85.0976 
X35.7584 Y85.1979 
G00 Z2.5400  
G00 X35.7495 Y82.8492 
G01 Z-0.1778 F254   
G01 X35.6104 Y82.7482 F508   
G01 X35.4888 Y82.6266 
X35.3878 Y82.4875 
X35.3097 Y82.3343 
X35.2566 Y82.1708 
X35.2297 Y82.0010 
Y81.8290 
X35.2566 Y81.6592 
X35.3097 Y81.4957 
X35.3878 Y81.3425 
X35.4888 Y81.2034 
X35.6104 Y81.0818 
X35.7495 Y80.9808 
X35.9027 Y80.9027 
X36.0662 Y80.8496 
X36.2360 Y80.8227 
X36.4080 
X36.5778 Y80.8496 
X36.7413 Y80.9027 
X36.8945 Y80.9808 
X37.0336 Y81.0818 
X37.1552 Y81.2034 
X37.2562 Y81.3425 
X37.3343 Y81.4957 
X37.3874 Y81.6592 
X37.4143 Y81.8290 
Y82.0010 
X37.3874 Y82.1708 
X37.3343 Y82.3343 
X37.2562 Y82.4875 
X37.1552 Y82.6266 
X37.0336 Y82.7482 
X36.8945 Y82.8492 
X36.7413 Y82.9273 
X36.5778 Y82.9804 
X36.4080 Y83.0073 
X36.2360 
X36.0662 Y82.9804 
X35.9027 Y82.9273 
X35.7495 Y82.8492 
G00 Z2.5400  
G00 X35.7380 Y80.3280 
G01 Z-0.1778 F254   
G01 X35.5961 Y80.2249 F508   
G01 X35.4721 Y80.1009 
X35.3690 Y79.9590 
X35.2893 Y79.8027 
X35.2351 Y79.6359 
X35.2077 Y79.4627 
Y79.2873 
X35.2351 Y79.1141 
X35.2893 Y78.9473 
X35.3690 Y78.7910 
X35.4721 Y78.6491 
X35.5961 Y78.5251 
X35.7380 Y78.4220 
X35.8943 Y78.3423 
X36.0611 Y78.2881 
X36.2343 Y78.2607 
X36.4097 
X36.5829 Y78.2881 
X36.7497 Y78.3423 
X36.9060 Y78.4220 
X37.0479 Y78.5251 
X37.1719 Y78.6491 
X37.2750 Y78.7910 
X37.3547 Y78.9473 
X37.4089 Y79.1141 
X37.4363 Y79.2873 
Y79.4627 
X37.4089 Y79.6359 
X37.3547 Y79.8027 
X37.2750 Y79.9590 
X37.1719 Y80.1009 
X37.0479 Y80.2249 
X36.9060 Y80.3280 
X36.7497 Y80.4077 
X36.5829 Y80.4619 
X36.4097 Y80.4893 
X36.2343 
X36.0611 Y80.4619 
X35.8943 Y80.4077 
X35.7380 Y80.3280 
G00 Z2.5400  
G00 X35.7380 Y75.2480 
G01 Z-0.1778 F254   
G01 X35.5961 Y75.1449 F508   
G01 X35.4721 Y75.0209 
X35.3690 Y74.8790 
X35.2893 Y74.7227 
X35.2351 Y74.5559 
X35.2077 Y74.3827 
Y74.2073 
X35.2351 Y74.0341 
X35.2893 Y73.8673 
X35.3690 Y73.7110 
X35.4721 Y73.5691 
X35.5961 Y73.4451 
X35.7380 Y73.3420 
X35.8943 Y73.2623 
X36.0611 Y73.2081 
X36.2343 Y73.1807 
X36.4097 
X36.5829 Y73.2081 
X36.7497 Y73.2623 
X36.9060 Y73.3420 
X37.0479 Y73.4451 
X37.1719 Y73.5691 
X37.2750 Y73.7110 
X37.3547 Y73.8673 
X37.4089 Y74.0341 
X37.4363 Y74.2073 
Y74.3827 
X37.4089 Y74.5559 
X37.3547 Y74.7227 
X37.2750 Y74.8790 
X37.1719 Y75.0209 
X37.0479 Y75.1449 
X36.9060 Y75.2480 
X36.7497 Y75.3277 
X36.5829 Y75.3819 
X36.4097 Y75.4093 
X36.2343 
X36.0611 Y75.3819 
X35.8943 Y75.3277 
X35.7380 Y75.2480 
G00 Z2.5400  
G00 X29.5519 Y75.0209 
G01 Z-0.1778 F254   
G01 X29.4279 Y75.1449 F508   
G01 X29.2860 Y75.2480 
X29.1297 Y75.3277 
X28.9629 Y75.3819 
X28.7897 Y75.4093 
X28.6143 
X28.4411 Y75.3819 
X28.2743 Y75.3277 
X28.1180 Y75.2480 
X27.9761 Y75.1449 
X27.8521 Y75.0209 
X27.7490 Y74.8790 
X27.6693 Y74.7227 
X27.6151 Y74.5559 
X27.5877 Y74.3827 
Y74.2073 
X27.6151 Y74.0341 
X27.6693 Y73.8673 
X27.7490 Y73.7110 
X27.8521 Y73.5691 
X27.9761 Y73.4451 
X28.1180 Y73.3420 
X28.2743 Y73.2623 
X28.4411 Y73.2081 
X28.6143 Y73.1807 
X28.7897 
X28.9629 Y73.2081 
X29.1297 Y73.2623 
X29.2860 Y73.3420 
X29.4279 Y73.4451 
X29.5519 Y73.5691 
X29.6550 Y73.7110 
X29.7347 Y73.8673 
X29.7889 Y74.0341 
X29.8163 Y74.2073 
Y74.3827 
X29.7889 Y74.5559 
X29.7347 Y74.7227 
X29.6550 Y74.8790 
X29.5519 Y75.0209 
G00 Z2.5400  
G00 X29.4279 Y78.5251 
G01 Z-0.1778 F254   
G01 X29.5519 Y78.6491 F508   
G01 X29.6550 Y78.7910 
X29.7347 Y78.9473 
X29.7889 Y79.1141 
X29.8163 Y79.2873 
Y79.4627 
X29.7889 Y79.6359 
X29.7347 Y79.8027 
X29.6550 Y79.9590 
X29.5519 Y80.1009 
X29.4279 Y80.2249 
X29.2860 Y80.3280 
X29.1297 Y80.4077 
X28.9629 Y80.4619 
X28.7897 Y80.4893 
X28.6143 
X28.4411 Y80.4619 
X28.2743 Y80.4077 
X28.1180 Y80.3280 
X27.9761 Y80.2249 
X27.8521 Y80.1009 
X27.7490 Y79.9590 
X27.6693 Y79.8027 
X27.6151 Y79.6359 
X27.5877 Y79.4627 
Y79.2873 
X27.6151 Y79.1141 
X27.6693 Y78.9473 
X27.7490 Y78.7910 
X27.8521 Y78.6491 
X27.9761 Y78.5251 
X28.1180 Y78.4220 
X28.2743 Y78.3423 
X28.4411 Y78.2881 
X28.6143 Y78.2607 
X28.7897 
X28.9629 Y78.2881 
X29.1297 Y78.3423 
X29.2860 Y78.4220 
X29.4279 Y78.5251 
G00 Z2.5400  
G00 X29.4136 Y81.0818 
G01 Z-0.1778 F254   
G01 X29.5352 Y81.2034 F508   
G01 X29.6362 Y81.3425 
X29.7143 Y81.4957 
X29.7674 Y81.6592 
X29.7943 Y81.8290 
Y82.0010 
X29.7674 Y82.1708 
X29.7143 Y82.3343 
X29.6362 Y82.4875 
X29.5352 Y82.6266 
X29.4136 Y82.7482 
X29.2745 Y82.8492 
X29.1213 Y82.9273 
X28.9578 Y82.9804 
X28.7880 Y83.0073 
X28.6160 
X28.4462 Y82.9804 
X28.2827 Y82.9273 
X28.1295 Y82.8492 
X27.9904 Y82.7482 
X27.8688 Y82.6266 
X27.7678 Y82.4875 
X27.6897 Y82.3343 
X27.6366 Y82.1708 
X27.6097 Y82.0010 
Y81.8290 
X27.6366 Y81.6592 
X27.6897 Y81.4957 
X27.7678 Y81.3425 
X27.8688 Y81.2034 
X27.9904 Y81.0818 
X28.1295 Y80.9808 
X28.2827 Y80.9027 
X28.4462 Y80.8496 
X28.6160 Y80.8227 
X28.7880 
X28.9578 Y80.8496 
X29.1213 Y80.9027 
X29.2745 Y80.9808 
X29.4136 Y81.0818 
G00 Z2.5400  
G00 X29.4037 Y85.0976 
G01 Z-0.1778 F254   
G01 X29.5558 Y85.0201 F508   
G01 X29.7181 Y84.9674 
X29.8867 Y84.9407 
X30.0573 
X30.2259 Y84.9674 
X30.3882 Y85.0201 
X30.5403 Y85.0976 
X30.6784 Y85.1979 
X30.7991 Y85.3186 
X30.8994 Y85.4567 
X30.9769 Y85.6088 
X31.0296 Y85.7711 
X31.0563 Y85.9397 
Y88.0503 
X31.0296 Y88.2189 
X30.9769 Y88.3812 
X30.8994 Y88.5333 
X30.7991 Y88.6714 
X30.6784 Y88.7921 
X30.5403 Y88.8924 
X30.3882 Y88.9699 
X30.2259 Y89.0226 
X30.0573 Y89.0493 
X29.8867 
X29.7181 Y89.0226 
X29.5558 Y88.9699 
X29.4037 Y88.8924 
X29.2656 Y88.7921 
X29.1449 Y88.6714 
X29.0446 Y88.5333 
X28.9671 Y88.3812 
X28.9144 Y88.2189 
X28.8877 Y88.0503 
Y85.9397 
X28.9144 Y85.7711 
X28.9671 Y85.6088 
X29.0446 Y85.4567 
X29.1449 Y85.3186 
X29.2656 Y85.1979 
X29.4037 Y85.0976 
G00 Z2.5400  
G00 X28.1384 Y85.1979 
G01 Z-0.1778 F254   
G01 X28.2591 Y85.3186 F508   
G01 X28.3594 Y85.4567 
X28.4369 Y85.6088 
X28.4896 Y85.7711 
X28.5163 Y85.9397 
Y88.0503 
X28.4896 Y88.2189 
X28.4369 Y88.3812 
X28.3594 Y88.5333 
X28.2591 Y88.6714 
X28.1384 Y88.7921 
X28.0003 Y88.8924 
X27.8482 Y88.9699 
X27.6859 Y89.0226 
X27.5173 Y89.0493 
X27.3467 
X27.1781 Y89.0226 
X27.0158 Y88.9699 
X26.8637 Y88.8924 
X26.7256 Y88.7921 
X26.6049 Y88.6714 
X26.5046 Y88.5333 
X26.4271 Y88.3812 
X26.3744 Y88.2189 
X26.3477 Y88.0503 
Y85.9397 
X26.3744 Y85.7711 
X26.4271 Y85.6088 
X26.5046 Y85.4567 
X26.6049 Y85.3186 
X26.7256 Y85.1979 
X26.8637 Y85.0976 
X27.0158 Y85.0201 
X27.1781 Y84.9674 
X27.3467 Y84.9407 
X27.5173 
X27.6859 Y84.9674 
X27.8482 Y85.0201 
X28.0003 Y85.0976 
X28.1384 Y85.1979 
G00 Z2.5400  
G00 X23.0584 Y85.1979 
G01 Z-0.1778 F254   
G01 X23.1791 Y85.3186 F508   
G01 X23.2794 Y85.4567 
X23.3569 Y85.6088 
X23.4096 Y85.7711 
X23.4363 Y85.9397 
Y88.0503 
X23.4096 Y88.2189 
X23.3569 Y88.3812 
X23.2794 Y88.5333 
X23.1791 Y88.6714 
X23.0584 Y88.7921 
X22.9203 Y88.8924 
X22.7682 Y88.9699 
X22.6059 Y89.0226 
X22.4373 Y89.0493 
X22.2667 
X22.0981 Y89.0226 
X21.9358 Y88.9699 
X21.7837 Y88.8924 
X21.6456 Y88.7921 
X21.5249 Y88.6714 
X21.4246 Y88.5333 
X21.3471 Y88.3812 
X21.2944 Y88.2189 
X21.2677 Y88.0503 
Y85.9397 
X21.2944 Y85.7711 
X21.3471 Y85.6088 
X21.4246 Y85.4567 
X21.5249 Y85.3186 
X21.6456 Y85.1979 
X21.7837 Y85.0976 
X21.9358 Y85.0201 
X22.0981 Y84.9674 
X22.2667 Y84.9407 
X22.4373 
X22.6059 Y84.9674 
X22.7682 Y85.0201 
X22.9203 Y85.0976 
X23.0584 Y85.1979 
G00 Z2.5400  
G00 X20.5184 Y85.1979 
G01 Z-0.1778 F254   
G01 X20.6391 Y85.3186 F508   
G01 X20.7394 Y85.4567 
X20.8169 Y85.6088 
X20.8696 Y85.7711 
X20.8963 Y85.9397 
Y88.0503 
X20.8696 Y88.2189 
X20.8169 Y88.3812 
X20.7394 Y88.5333 
X20.6391 Y88.6714 
X20.5184 Y88.7921 
X20.3803 Y88.8924 
X20.2282 Y88.9699 
X20.0659 Y89.0226 
X19.8973 Y89.0493 
X19.7267 
X19.5581 Y89.0226 
X19.3958 Y88.9699 
X19.2437 Y88.8924 
X19.1056 Y88.7921 
X18.9849 Y88.6714 
X18.8846 Y88.5333 
X18.8071 Y88.3812 
X18.7544 Y88.2189 
X18.7277 Y88.0503 
Y85.9397 
X18.7544 Y85.7711 
X18.8071 Y85.6088 
X18.8846 Y85.4567 
X18.9849 Y85.3186 
X19.1056 Y85.1979 
X19.2437 Y85.0976 
X19.3958 Y85.0201 
X19.5581 Y84.9674 
X19.7267 Y84.9407 
X19.8973 
X20.0659 Y84.9674 
X20.2282 Y85.0201 
X20.3803 Y85.0976 
X20.5184 Y85.1979 
G00 Z2.5400  
G00 X20.5095 Y82.8492 
G01 Z-0.1778 F254   
G01 X20.3704 Y82.7482 F508   
G01 X20.2488 Y82.6266 
X20.1478 Y82.4875 
X20.0697 Y82.3343 
X20.0166 Y82.1708 
X19.9897 Y82.0010 
Y81.8290 
X20.0166 Y81.6592 
X20.0697 Y81.4957 
X20.1478 Y81.3425 
X20.2488 Y81.2034 
X20.3704 Y81.0818 
X20.5095 Y80.9808 
X20.6627 Y80.9027 
X20.8262 Y80.8496 
X20.9960 Y80.8227 
X21.1680 
X21.3378 Y80.8496 
X21.5013 Y80.9027 
X21.6545 Y80.9808 
X21.7936 Y81.0818 
X21.9152 Y81.2034 
X22.0162 Y81.3425 
X22.0943 Y81.4957 
X22.1474 Y81.6592 
X22.1743 Y81.8290 
Y82.0010 
X22.1474 Y82.1708 
X22.0943 Y82.3343 
X22.0162 Y82.4875 
X21.9152 Y82.6266 
X21.7936 Y82.7482 
X21.6545 Y82.8492 
X21.5013 Y82.9273 
X21.3378 Y82.9804 
X21.1680 Y83.0073 
X20.9960 
X20.8262 Y82.9804 
X20.6627 Y82.9273 
X20.5095 Y82.8492 
G00 Z2.5400  
G00 X20.4980 Y80.3280 
G01 Z-0.1778 F254   
G01 X20.3561 Y80.2249 F508   
G01 X20.2321 Y80.1009 
X20.1290 Y79.9590 
X20.0493 Y79.8027 
X19.9951 Y79.6359 
X19.9677 Y79.4627 
Y79.2873 
X19.9951 Y79.1141 
X20.0493 Y78.9473 
X20.1290 Y78.7910 
X20.2321 Y78.6491 
X20.3561 Y78.5251 
X20.4980 Y78.4220 
X20.6543 Y78.3423 
X20.8211 Y78.2881 
X20.9943 Y78.2607 
X21.1697 
X21.3429 Y78.2881 
X21.5097 Y78.3423 
X21.6660 Y78.4220 
X21.8079 Y78.5251 
X21.9319 Y78.6491 
X22.0350 Y78.7910 
X22.1147 Y78.9473 
X22.1689 Y79.1141 
X22.1963 Y79.2873 
Y79.4627 
X22.1689 Y79.6359 
X22.1147 Y79.8027 
X22.0350 Y79.9590 
X21.9319 Y80.1009 
X21.8079 Y80.2249 
X21.6660 Y80.3280 
X21.5097 Y80.4077 
X21.3429 Y80.4619 
X21.1697 Y80.4893 
X20.9943 
X20.8211 Y80.4619 
X20.6543 Y80.4077 
X20.4980 Y80.3280 
G00 Z2.5400  
G00 X20.4980 Y75.2480 
G01 Z-0.1778 F254   
G01 X20.3561 Y75.1449 F508   
G01 X20.2321 Y75.0209 
X20.1290 Y74.8790 
X20.0493 Y74.7227 
X19.9951 Y74.5559 
X19.9677 Y74.3827 
Y74.2073 
X19.9951 Y74.0341 
X20.0493 Y73.8673 
X20.1290 Y73.7110 
X20.2321 Y73.5691 
X20.3561 Y73.4451 
X20.4980 Y73.3420 
X20.6543 Y73.2623 
X20.8211 Y73.2081 
X20.9943 Y73.1807 
X21.1697 
X21.3429 Y73.2081 
X21.5097 Y73.2623 
X21.6660 Y73.3420 
X21.8079 Y73.4451 
X21.9319 Y73.5691 
X22.0350 Y73.7110 
X22.1147 Y73.8673 
X22.1689 Y74.0341 
X22.1963 Y74.2073 
Y74.3827 
X22.1689 Y74.5559 
X22.1147 Y74.7227 
X22.0350 Y74.8790 
X21.9319 Y75.0209 
X21.8079 Y75.1449 
X21.6660 Y75.2480 
X21.5097 Y75.3277 
X21.3429 Y75.3819 
X21.1697 Y75.4093 
X20.9943 
X20.8211 Y75.3819 
X20.6543 Y75.3277 
X20.4980 Y75.2480 
G00 Z2.5400  
G00 X14.3119 Y75.0209 
G01 Z-0.1778 F254   
G01 X14.1879 Y75.1449 F508   
G01 X14.0460 Y75.2480 
X13.8897 Y75.3277 
X13.7229 Y75.3819 
X13.5497 Y75.4093 
X13.3743 
X13.2011 Y75.3819 
X13.0343 Y75.3277 
X12.8780 Y75.2480 
X12.7361 Y75.1449 
X12.6121 Y75.0209 
X12.5090 Y74.8790 
X12.4293 Y74.7227 
X12.3751 Y74.5559 
X12.3477 Y74.3827 
Y74.2073 
X12.3751 Y74.0341 
X12.4293 Y73.8673 
X12.5090 Y73.7110 
X12.6121 Y73.5691 
X12.7361 Y73.4451 
X12.8780 Y73.3420 
X13.0343 Y73.2623 
X13.2011 Y73.2081 
X13.3743 Y73.1807 
X13.5497 
X13.7229 Y73.2081 
X13.8897 Y73.2623 
X14.0460 Y73.3420 
X14.1879 Y73.4451 
X14.3119 Y73.5691 
X14.4150 Y73.7110 
X14.4947 Y73.8673 
X14.5489 Y74.0341 
X14.5763 Y74.2073 
Y74.3827 
X14.5489 Y74.5559 
X14.4947 Y74.7227 
X14.4150 Y74.8790 
X14.3119 Y75.0209 
G00 Z2.5400  
G00 X14.1879 Y78.5251 
G01 Z-0.1778 F254   
G01 X14.3119 Y78.6491 F508   
G01 X14.4150 Y78.7910 
X14.4947 Y78.9473 
X14.5489 Y79.1141 
X14.5763 Y79.2873 
Y79.4627 
X14.5489 Y79.6359 
X14.4947 Y79.8027 
X14.4150 Y79.9590 
X14.3119 Y80.1009 
X14.1879 Y80.2249 
X14.0460 Y80.3280 
X13.8897 Y80.4077 
X13.7229 Y80.4619 
X13.5497 Y80.4893 
X13.3743 
X13.2011 Y80.4619 
X13.0343 Y80.4077 
X12.8780 Y80.3280 
X12.7361 Y80.2249 
X12.6121 Y80.1009 
X12.5090 Y79.9590 
X12.4293 Y79.8027 
X12.3751 Y79.6359 
X12.3477 Y79.4627 
Y79.2873 
X12.3751 Y79.1141 
X12.4293 Y78.9473 
X12.5090 Y78.7910 
X12.6121 Y78.6491 
X12.7361 Y78.5251 
X12.8780 Y78.4220 
X13.0343 Y78.3423 
X13.2011 Y78.2881 
X13.3743 Y78.2607 
X13.5497 
X13.7229 Y78.2881 
X13.8897 Y78.3423 
X14.0460 Y78.4220 
X14.1879 Y78.5251 
G00 Z2.5400  
G00 X14.1736 Y81.0818 
G01 Z-0.1778 F254   
G01 X14.2952 Y81.2034 F508   
G01 X14.3962 Y81.3425 
X14.4743 Y81.4957 
X14.5274 Y81.6592 
X14.5543 Y81.8290 
Y82.0010 
X14.5274 Y82.1708 
X14.4743 Y82.3343 
X14.3962 Y82.4875 
X14.2952 Y82.6266 
X14.1736 Y82.7482 
X14.0345 Y82.8492 
X13.8813 Y82.9273 
X13.7178 Y82.9804 
X13.5480 Y83.0073 
X13.3760 
X13.2062 Y82.9804 
X13.0427 Y82.9273 
X12.8895 Y82.8492 
X12.7504 Y82.7482 
X12.6288 Y82.6266 
X12.5278 Y82.4875 
X12.4497 Y82.3343 
X12.3966 Y82.1708 
X12.3697 Y82.0010 
Y81.8290 
X12.3966 Y81.6592 
X12.4497 Y81.4957 
X12.5278 Y81.3425 
X12.6288 Y81.2034 
X12.7504 Y81.0818 
X12.8895 Y80.9808 
X13.0427 Y80.9027 
X13.2062 Y80.8496 
X13.3760 Y80.8227 
X13.5480 
X13.7178 Y80.8496 
X13.8813 Y80.9027 
X14.0345 Y80.9808 
X14.1736 Y81.0818 
G00 Z2.5400  
G00 X14.1637 Y85.0976 
G01 Z-0.1778 F254   
G01 X14.3158 Y85.0201 F508   
G01 X14.4781 Y84.9674 
X14.6467 Y84.9407 
X14.8173 
X14.9859 Y84.9674 
X15.1482 Y85.0201 
X15.3003 Y85.0976 
X15.4384 Y85.1979 
X15.5591 Y85.3186 
X15.6594 Y85.4567 
X15.7369 Y85.6088 
X15.7896 Y85.7711 
X15.8163 Y85.9397 
Y88.0503 
X15.7896 Y88.2189 
X15.7369 Y88.3812 
X15.6594 Y88.5333 
X15.5591 Y88.6714 
X15.4384 Y88.7921 
X15.3003 Y88.8924 
X15.1482 Y88.9699 
X14.9859 Y89.0226 
X14.8173 Y89.0493 
X14.6467 
X14.4781 Y89.0226 
X14.3158 Y88.9699 
X14.1637 Y88.8924 
X14.0256 Y88.7921 
X13.9049 Y88.6714 
X13.8046 Y88.5333 
X13.7271 Y88.3812 
X13.6744 Y88.2189 
X13.6477 Y88.0503 
Y85.9397 
X13.6744 Y85.7711 
X13.7271 Y85.6088 
X13.8046 Y85.4567 
X13.9049 Y85.3186 
X14.0256 Y85.1979 
X14.1637 Y85.0976 
G00 Z2.5400  
G00 X12.8984 Y85.1979 
G01 Z-0.1778 F254   
G01 X13.0191 Y85.3186 F508   
G01 X13.1194 Y85.4567 
X13.1969 Y85.6088 
X13.2496 Y85.7711 
X13.2763 Y85.9397 
Y88.0503 
X13.2496 Y88.2189 
X13.1969 Y88.3812 
X13.1194 Y88.5333 
X13.0191 Y88.6714 
X12.8984 Y88.7921 
X12.7603 Y88.8924 
X12.6082 Y88.9699 
X12.4459 Y89.0226 
X12.2773 Y89.0493 
X12.1067 
X11.9381 Y89.0226 
X11.7758 Y88.9699 
X11.6237 Y88.8924 
X11.4856 Y88.7921 
X11.3649 Y88.6714 
X11.2646 Y88.5333 
X11.1871 Y88.3812 
X11.1344 Y88.2189 
X11.1077 Y88.0503 
Y85.9397 
X11.1344 Y85.7711 
X11.1871 Y85.6088 
X11.2646 Y85.4567 
X11.3649 Y85.3186 
X11.4856 Y85.1979 
X11.6237 Y85.0976 
X11.7758 Y85.0201 
X11.9381 Y84.9674 
X12.1067 Y84.9407 
X12.2773 
X12.4459 Y84.9674 
X12.6082 Y85.0201 
X12.7603 Y85.0976 
X12.8984 Y85.1979 
G00 Z2.5400  
G00 X7.8184  Y85.1979 
G01 Z-0.1778 F254   
G01 X7.9391  Y85.3186 F508   
G01 X8.0394  Y85.4567 
X8.1169  Y85.6088 
X8.1696  Y85.7711 
X8.1963  Y85.9397 
Y88.0503 
X8.1696  Y88.2189 
X8.1169  Y88.3812 
X8.0394  Y88.5333 
X7.9391  Y88.6714 
X7.8184  Y88.7921 
X7.6803  Y88.8924 
X7.5282  Y88.9699 
X7.3659  Y89.0226 
X7.1973  Y89.0493 
X7.0267  
X6.8581  Y89.0226 
X6.6958  Y88.9699 
X6.5437  Y88.8924 
X6.4056  Y88.7921 
X6.2849  Y88.6714 
X6.1846  Y88.5333 
X6.1071  Y88.3812 
X6.0544  Y88.2189 
X6.0277  Y88.0503 
Y85.9397 
X6.0544  Y85.7711 
X6.1071  Y85.6088 
X6.1846  Y85.4567 
X6.2849  Y85.3186 
X6.4056  Y85.1979 
X6.5437  Y85.0976 
X6.6958  Y85.0201 
X6.8581  Y84.9674 
X7.0267  Y84.9407 
X7.1973  
X7.3659  Y84.9674 
X7.5282  Y85.0201 
X7.6803  Y85.0976 
X7.8184  Y85.1979 
G00 Z2.5400  
G00 X5.2784  Y85.1979 
G01 Z-0.1778 F254   
G01 X5.3991  Y85.3186 F508   
