(.../pcb-gcode-3.6.2.4/pcb-gcode.ulp)
(Copyright 2005 - 2012 by John Johnson)
(See readme.txt for licensing terms.)
(This file generated from the board:)
(.../3K_valdiklis_v1/3K_valdiklis_v1.brd)
(Current profile is .../pcb-gcode-3.6.2.4/profiles/mach.pp  )
(This file generated 2016.10.12 22:36:22)
(Settings from pcb-machine.h)
(spindle on time = 3.0000)
(  Tool Size)
(0.1778  )
(spindle speed = 30000.0000)
(tool change at 0.0000  0.0000  25.4000 )
(feed rate xy = F508   )
(feed rate z  = F254   )
(Z Axis Settings)
(  High     Up        Down     Drill)
(12.7000 	2.5400  	-0.1778 	-0.8128 )
(Settings from pcb-defaults.h)
(isolate min = 0.0254)
(isolate max = 0.5080)
(isolate step = 0.1270)
(Generated top outlines, top drill, bottom outlines, )
(Unit of measure: mm)
(Metric Mode)
G21
(Absolute Coordinates)
G90
S30000
G00 Z12.7000 
G00 X0.0000  Y0.0000  
M03
G04 P3.000000
G00 Z2.5400  
G00 X-8.1936 Y4.5038  
G01 Z-0.1778 F254   
G01 X-8.0937 Y4.6412  F508   
G01 X-8.0166 Y4.7926  
X-7.9641 Y4.9542  
X-7.9375 Y5.1220  
Y5.2920  
X-7.9641 Y5.4598  
X-8.0166 Y5.6214  
X-8.0937 Y5.7728  
X-8.1936 Y5.9102  
X-8.3138 Y6.0304  
X-8.4512 Y6.1303  
X-8.6026 Y6.2074  
X-8.7642 Y6.2599  
X-8.9320 Y6.2865  
X-9.1020 
X-9.2698 Y6.2599  
X-9.4314 Y6.2074  
X-9.5828 Y6.1303  
X-9.7202 Y6.0304  
X-9.8404 Y5.9102  
X-9.9403 Y5.7728  
X-10.0174 Y5.6214  
X-10.0337 Y5.5713  
X-11.9776 
X-13.0534 Y6.6471  
X-13.0169 Y6.7189  
X-12.9582 Y6.8995  
X-12.9285 Y7.0870  
Y7.2770  
X-12.9582 Y7.4645  
X-13.0169 Y7.6451  
X-13.1031 Y7.8143  
X-13.2147 Y7.9680  
X-13.3490 Y8.1023  
X-13.5027 Y8.2139  
X-13.6719 Y8.3001  
X-13.8525 Y8.3588  
X-14.0400 Y8.3885  
X-14.2300 
X-14.4175 Y8.3588  
X-14.5981 Y8.3001  
X-14.7673 Y8.2139  
X-14.9210 Y8.1023  
X-15.0553 Y7.9680  
X-15.1669 Y7.8143  
X-15.2531 Y7.6451  
X-15.3118 Y7.4645  
X-15.3415 Y7.2770  
Y7.0870  
X-15.3118 Y6.8995  
X-15.2531 Y6.7189  
X-15.1669 Y6.5497  
X-15.0553 Y6.3960  
X-14.9210 Y6.2617  
X-14.7673 Y6.1501  
X-14.5981 Y6.0639  
X-14.4175 Y6.0052  
X-14.2300 Y5.9755  
X-14.0400 
X-13.8525 Y6.0052  
X-13.6719 Y6.0639  
X-13.5584 Y6.1217  
X-12.3522 Y4.9155  
X-12.2691 Y4.8675  
X-12.1765 Y4.8427  
X-10.0337 
X-10.0174 Y4.7926  
X-9.9403 Y4.6412  
X-9.8404 Y4.5038  
X-9.7202 Y4.3836  
X-9.5828 Y4.2837  
X-9.4314 Y4.2066  
X-9.2698 Y4.1541  
X-9.1020 Y4.1275  
X-8.9320 
X-8.7642 Y4.1541  
X-8.6026 Y4.2066  
X-8.4512 Y4.2837  
X-8.3138 Y4.3836  
X-8.1936 Y4.5038  
G00 Z2.5400  
G00 X-8.1936 Y8.3138  
G01 Z-0.1778 F254   
G01 X-8.0937 Y8.4512  F508   
G01 X-8.0166 Y8.6026  
X-7.9641 Y8.7642  
X-7.9375 Y8.9320  
Y9.1020  
X-7.9641 Y9.2698  
X-8.0166 Y9.4314  
X-8.0504 Y9.4977  
X-8.0425 Y9.5114  
X-8.0177 Y9.6040  
Y13.4068 
X-7.8745 Y13.4661 
X-7.7084 Y13.5771 
X-7.5671 Y13.7184 
X-7.4561 Y13.8845 
X-7.3797 Y14.0691 
X-7.3407 Y14.2651 
Y14.4649 
X-7.3797 Y14.6609 
X-7.4561 Y14.8454 
X-7.5671 Y15.0116 
X-7.7084 Y15.1529 
X-7.8745 Y15.2639 
X-8.0591 Y15.3403 
X-8.2551 Y15.3793 
X-8.4549 
X-8.6509 Y15.3403 
X-8.8354 Y15.2639 
X-9.0016 Y15.1529 
X-9.1429 Y15.0116 
X-9.2539 Y14.8454 
X-9.3303 Y14.6609 
X-9.3693 Y14.4649 
Y14.2651 
X-9.3303 Y14.0691 
X-9.2539 Y13.8845 
X-9.1429 Y13.7184 
X-9.0016 Y13.5771 
X-8.8354 Y13.4661 
X-8.7463 Y13.4292 
Y10.0641 
X-8.7642 Y10.0699 
X-8.9320 Y10.0965 
X-9.1020 
X-9.2698 Y10.0699 
X-9.4314 Y10.0174 
X-9.5828 Y9.9403  
X-9.7202 Y9.8404  
X-9.8404 Y9.7202  
X-9.9403 Y9.5828  
X-10.0174 Y9.4314  
X-10.0699 Y9.2698  
X-10.0965 Y9.1020  
Y8.9320  
X-10.0699 Y8.7642  
X-10.0174 Y8.6026  
X-9.9403 Y8.4512  
X-9.8404 Y8.3138  
X-9.7202 Y8.1936  
X-9.5828 Y8.0937  
X-9.4314 Y8.0166  
X-9.2698 Y7.9641  
X-9.1020 Y7.9375  
X-8.9320 
X-8.7642 Y7.9641  
X-8.6026 Y8.0166  
X-8.4512 Y8.0937  
X-8.3138 Y8.1936  
X-8.1936 Y8.3138  
G00 Z2.5400  
G00 X-13.1070 Y11.2063 
G01 Z-0.1778 F254   
G01 X-13.0590 Y11.2894 F508   
G01 X-13.0342 Y11.3820 
Y13.4000 
X-12.8745 Y13.4661 
X-12.7084 Y13.5771 
X-12.5671 Y13.7184 
X-12.4561 Y13.8845 
X-12.3797 Y14.0691 
X-12.3407 Y14.2651 
Y14.4649 
X-12.3797 Y14.6609 
X-12.4561 Y14.8454 
X-12.5671 Y15.0116 
X-12.7084 Y15.1529 
X-12.8745 Y15.2639 
X-13.0591 Y15.3403 
X-13.2551 Y15.3793 
X-13.4549 
X-13.6509 Y15.3403 
X-13.8354 Y15.2639 
X-14.0016 Y15.1529 
X-14.1429 Y15.0116 
X-14.2539 Y14.8454 
X-14.3303 Y14.6609 
X-14.3693 Y14.4649 
Y14.2651 
X-14.3303 Y14.0691 
X-14.2539 Y13.8845 
X-14.1429 Y13.7184 
X-14.0016 Y13.5771 
X-13.8354 Y13.4661 
X-13.7628 Y13.4360 
Y11.5809 
X-17.0869 Y8.2568  
X-17.1719 Y8.3001  
X-17.3525 Y8.3588  
X-17.5400 Y8.3885  
X-17.7300 
X-17.9175 Y8.3588  
X-18.0981 Y8.3001  
X-18.2673 Y8.2139  
X-18.4210 Y8.1023  
X-18.5553 Y7.9680  
X-18.6669 Y7.8143  
X-18.7531 Y7.6451  
X-18.8118 Y7.4645  
X-18.8415 Y7.2770  
Y7.0870  
X-18.8118 Y6.8995  
X-18.7531 Y6.7189  
X-18.6669 Y6.5497  
X-18.5553 Y6.3960  
X-18.4210 Y6.2617  
X-18.2673 Y6.1501  
X-18.0981 Y6.0639  
X-17.9175 Y6.0052  
X-17.7300 Y5.9755  
X-17.5400 
X-17.3525 Y6.0052  
X-17.1719 Y6.0639  
X-17.0027 Y6.1501  
X-16.8490 Y6.2617  
X-16.7147 Y6.3960  
X-16.6031 Y6.5497  
X-16.5169 Y6.7189  
X-16.4582 Y6.8995  
X-16.4285 Y7.0870  
Y7.2770  
X-16.4582 Y7.4645  
X-16.5169 Y7.6451  
X-16.5680 Y7.7453  
X-13.1070 Y11.2063 
G00 Z2.5400  
G00 X-24.1467 Y13.1290 
G01 Z-0.1778 F254   
G01 X-24.1715 Y13.2216 F508   
G01 X-24.2195 Y13.3047 
X-25.6676 Y14.7528 
X-25.6373 Y14.8123 
X-25.5831 Y14.9791 
X-25.5557 Y15.1523 
Y15.3277 
X-25.5831 Y15.5009 
X-25.6373 Y15.6677 
X-25.7170 Y15.8240 
X-25.8201 Y15.9659 
X-25.9441 Y16.0899 
X-26.0860 Y16.1930 
X-26.2423 Y16.2727 
X-26.4091 Y16.3269 
X-26.5823 Y16.3543 
X-26.7577 
X-26.9309 Y16.3269 
X-27.0977 Y16.2727 
X-27.2540 Y16.1930 
X-27.3959 Y16.0899 
X-27.5199 Y15.9659 
X-27.6230 Y15.8240 
X-27.7027 Y15.6677 
X-27.7569 Y15.5009 
X-27.7843 Y15.3277 
Y15.1523 
X-27.7569 Y14.9791 
X-27.7027 Y14.8123 
X-27.6230 Y14.6560 
X-27.5199 Y14.5141 
X-27.3959 Y14.3901 
X-27.2540 Y14.2870 
X-27.0977 Y14.2073 
X-26.9309 Y14.1531 
X-26.7577 Y14.1257 
X-26.5823 
X-26.4091 Y14.1531 
X-26.2423 Y14.2073 
X-26.1828 Y14.2376 
X-24.8753 Y12.9301 
Y9.4219  
X-25.6915 Y8.6057  
X-25.7395 Y8.5226  
X-25.7643 Y8.4300  
Y3.4870  
X-25.8804 Y3.4389  
X-26.0466 Y3.3279  
X-26.1879 Y3.1866  
X-26.2989 Y3.0204  
X-26.3753 Y2.8359  
X-26.4143 Y2.6399  
Y2.4401  
X-26.3753 Y2.2441  
X-26.2989 Y2.0595  
X-26.1879 Y1.8934  
X-26.0466 Y1.7521  
X-25.8804 Y1.6411  
X-25.6959 Y1.5647  
X-25.4999 Y1.5257  
X-25.3001 
X-25.1041 Y1.5647  
X-24.9195 Y1.6411  
X-24.7534 Y1.7521  
X-24.6121 Y1.8934  
X-24.5011 Y2.0595  
X-24.4247 Y2.2441  
X-24.3857 Y2.4401  
Y2.6399  
X-24.4247 Y2.8359  
X-24.5011 Y3.0204  
X-24.6121 Y3.1866  
X-24.7534 Y3.3279  
X-24.9195 Y3.4389  
X-25.0357 Y3.4870  
Y8.2311  
X-24.2873 Y8.9795  
X-24.2195 Y9.0473  
X-24.1715 Y9.1304  
X-24.1467 Y9.2230  
Y13.1290 
G00 Z2.5400  
G00 X-25.9441 Y11.0099 
G01 Z-0.1778 F254   
G01 X-26.0860 Y11.1130 F508   
G01 X-26.2423 Y11.1927 
X-26.4091 Y11.2469 
X-26.5823 Y11.2743 
X-26.7577 
X-26.9309 Y11.2469 
X-27.0977 Y11.1927 
X-27.2540 Y11.1130 
X-27.3959 Y11.0099 
X-27.5199 Y10.8859 
X-27.6230 Y10.7440 
X-27.7027 Y10.5877 
X-27.7569 Y10.4209 
X-27.7843 Y10.2477 
Y10.0723 
X-27.7569 Y9.8991  
X-27.7027 Y9.7323  
X-27.6724 Y9.6728  
X-28.2315 Y9.1137  
X-28.2795 Y9.0306  
X-28.3043 Y8.9380  
Y3.4870  
X-28.4204 Y3.4389  
X-28.5866 Y3.3279  
X-28.7279 Y3.1866  
X-28.8389 Y3.0204  
X-28.9153 Y2.8359  
X-28.9543 Y2.6399  
Y2.4401  
X-28.9153 Y2.2441  
X-28.8389 Y2.0595  
X-28.7279 Y1.8934  
X-28.5866 Y1.7521  
X-28.4204 Y1.6411  
X-28.2359 Y1.5647  
X-28.0399 Y1.5257  
X-27.8401 
X-27.6441 Y1.5647  
X-27.4595 Y1.6411  
X-27.2934 Y1.7521  
X-27.1521 Y1.8934  
X-27.0411 Y2.0595  
X-26.9647 Y2.2441  
X-26.9257 Y2.4401  
Y2.6399  
X-26.9647 Y2.8359  
X-27.0411 Y3.0204  
X-27.1521 Y3.1866  
X-27.2934 Y3.3279  
X-27.4595 Y3.4389  
X-27.5757 Y3.4870  
Y8.7391  
X-27.1572 Y9.1576  
X-27.0977 Y9.1273  
X-26.9309 Y9.0731  
X-26.7577 Y9.0457  
X-26.5823 
X-26.4091 Y9.0731  
X-26.2423 Y9.1273  
X-26.0860 Y9.2070  
X-25.9441 Y9.3101  
X-25.8201 Y9.4341  
X-25.7170 Y9.5760  
X-25.6373 Y9.7323  
X-25.5831 Y9.8991  
X-25.5557 Y10.0723 
Y10.2477 
X-25.5831 Y10.4209 
X-25.6373 Y10.5877 
X-25.7170 Y10.7440 
X-25.8201 Y10.8859 
X-25.9441 Y11.0099 
G00 Z2.5400  
G00 X-33.5641 Y11.0099 
G01 Z-0.1778 F254   
G01 X-33.7060 Y11.1130 F508   
G01 X-33.8623 Y11.1927 
X-34.0291 Y11.2469 
X-34.2023 Y11.2743 
X-34.3777 
X-34.5509 Y11.2469 
X-34.7177 Y11.1927 
X-34.8740 Y11.1130 
X-35.0159 Y11.0099 
X-35.1399 Y10.8859 
X-35.2430 Y10.7440 
X-35.3227 Y10.5877 
X-35.3769 Y10.4209 
X-35.4043 Y10.2477 
Y10.0723 
X-35.3769 Y9.8991  
X-35.3227 Y9.7323  
X-35.2924 Y9.6728  
X-35.8515 Y9.1137  
X-35.8995 Y9.0306  
X-35.9243 Y8.9380  
Y3.4870  
X-36.0404 Y3.4389  
X-36.2066 Y3.3279  
X-36.3479 Y3.1866  
X-36.4589 Y3.0204  
X-36.5353 Y2.8359  
X-36.5743 Y2.6399  
Y2.4401  
X-36.5353 Y2.2441  
X-36.4589 Y2.0595  
X-36.3479 Y1.8934  
X-36.2066 Y1.7521  
X-36.0404 Y1.6411  
X-35.8559 Y1.5647  
X-35.6599 Y1.5257  
X-35.4601 
X-35.2641 Y1.5647  
X-35.0795 Y1.6411  
X-34.9134 Y1.7521  
X-34.7721 Y1.8934  
X-34.6611 Y2.0595  
X-34.5847 Y2.2441  
X-34.5457 Y2.4401  
Y2.6399  
X-34.5847 Y2.8359  
X-34.6611 Y3.0204  
X-34.7721 Y3.1866  
X-34.9134 Y3.3279  
X-35.0795 Y3.4389  
X-35.1957 Y3.4870  
Y8.7391  
X-34.7772 Y9.1576  
X-34.7177 Y9.1273  
X-34.5509 Y9.0731  
X-34.3777 Y9.0457  
X-34.2023 
X-34.0291 Y9.0731  
X-33.8623 Y9.1273  
X-33.7060 Y9.2070  
X-33.5641 Y9.3101  
X-33.4401 Y9.4341  
X-33.3370 Y9.5760  
X-33.2573 Y9.7323  
X-33.2031 Y9.8991  
X-33.1757 Y10.0723 
Y10.2477 
X-33.2031 Y10.4209 
X-33.2573 Y10.5877 
X-33.3370 Y10.7440 
X-33.4401 Y10.8859 
X-33.5641 Y11.0099 
G00 Z2.5400  
G00 X-32.3683 Y12.8031 
G01 Z-0.1778 F254   
G01 X-32.3683 Y8.0884  F508   
G01 X-33.2437 Y7.2130  
X-33.3115 Y7.1452  
X-33.3595 Y7.0621  
X-33.3843 Y6.9695  
Y3.4870  
X-33.5005 Y3.4389  
X-33.6666 Y3.3279  
X-33.8079 Y3.1866  
X-33.9189 Y3.0204  
X-33.9953 Y2.8359  
X-34.0343 Y2.6399  
Y2.4401  
X-33.9953 Y2.2441  
X-33.9189 Y2.0595  
X-33.8079 Y1.8934  
X-33.6666 Y1.7521  
X-33.5005 Y1.6411  
X-33.3159 Y1.5647  
X-33.1199 Y1.5257  
X-32.9201 
X-32.7241 Y1.5647  
X-32.5395 Y1.6411  
X-32.3734 Y1.7521  
X-32.2321 Y1.8934  
X-32.1211 Y2.0595  
X-32.0447 Y2.2441  
X-32.0057 Y2.4401  
Y2.6399  
X-32.0447 Y2.8359  
X-32.1211 Y3.0204  
X-32.2321 Y3.1866  
X-32.3734 Y3.3279  
X-32.5395 Y3.4389  
X-32.6557 Y3.4870  
Y6.7706  
X-31.7803 Y7.6460  
X-31.7125 Y7.7138  
X-31.6645 Y7.7969  
X-31.6397 Y7.8895  
Y13.0020 
X-31.6645 Y13.0946 
X-31.7125 Y13.1777 
X-33.2876 Y14.7528 
X-33.2573 Y14.8123 
X-33.2031 Y14.9791 
X-33.1757 Y15.1523 
Y15.3277 
X-33.2031 Y15.5009 
X-33.2573 Y15.6677 
X-33.3370 Y15.8240 
X-33.4401 Y15.9659 
X-33.5641 Y16.0899 
X-33.7060 Y16.1930 
X-33.8623 Y16.2727 
X-34.0291 Y16.3269 
X-34.2023 Y16.3543 
X-34.3777 
X-34.5509 Y16.3269 
X-34.7177 Y16.2727 
X-34.8740 Y16.1930 
X-35.0159 Y16.0899 
X-35.1399 Y15.9659 
X-35.2430 Y15.8240 
X-35.3227 Y15.6677 
X-35.3769 Y15.5009 
X-35.4043 Y15.3277 
Y15.1523 
X-35.3769 Y14.9791 
X-35.3227 Y14.8123 
X-35.2430 Y14.6560 
X-35.1399 Y14.5141 
X-35.0159 Y14.3901 
X-34.8740 Y14.2870 
X-34.7177 Y14.2073 
X-34.5509 Y14.1531 
X-34.3777 Y14.1257 
X-34.2023 
X-34.0291 Y14.1531 
X-33.8623 Y14.2073 
X-33.8028 Y14.2376 
X-32.3683 Y12.8031 
G00 Z2.5400  
G00 X-39.2597 Y13.0020 
G01 Z-0.1778 F254   
G01 X-39.2845 Y13.0946 F508   
G01 X-39.3325 Y13.1777 
X-40.9076 Y14.7528 
X-40.8773 Y14.8123 
X-40.8231 Y14.9791 
X-40.7957 Y15.1523 
Y15.3277 
X-40.8231 Y15.5009 
X-40.8773 Y15.6677 
X-40.9570 Y15.8240 
X-41.0601 Y15.9659 
X-41.1841 Y16.0899 
X-41.3260 Y16.1930 
X-41.4823 Y16.2727 
X-41.6491 Y16.3269 
X-41.8223 Y16.3543 
X-41.9977 
X-42.1709 Y16.3269 
X-42.3377 Y16.2727 
X-42.4940 Y16.1930 
X-42.6359 Y16.0899 
X-42.7599 Y15.9659 
X-42.8630 Y15.8240 
X-42.9427 Y15.6677 
X-42.9969 Y15.5009 
X-43.0243 Y15.3277 
Y15.1523 
X-42.9969 Y14.9791 
X-42.9427 Y14.8123 
X-42.8630 Y14.6560 
X-42.7599 Y14.5141 
X-42.6359 Y14.3901 
X-42.4940 Y14.2870 
X-42.3377 Y14.2073 
X-42.1709 Y14.1531 
X-41.9977 Y14.1257 
X-41.8223 
X-41.6491 Y14.1531 
X-41.4823 Y14.2073 
X-41.4228 Y14.2376 
X-39.9883 Y12.8031 
Y8.0884  
X-40.9315 Y7.1452  
X-40.9795 Y7.0621  
X-41.0043 Y6.9695  
Y3.4870  
X-41.1204 Y3.4389  
X-41.2866 Y3.3279  
X-41.4279 Y3.1866  
X-41.5389 Y3.0204  
X-41.6153 Y2.8359  
X-41.6543 Y2.6399  
Y2.4401  
X-41.6153 Y2.2441  
X-41.5389 Y2.0595  
X-41.4279 Y1.8934  
X-41.2866 Y1.7521  
X-41.1204 Y1.6411  
X-40.9359 Y1.5647  
X-40.7399 Y1.5257  
X-40.5401 
X-40.3441 Y1.5647  
X-40.1595 Y1.6411  
X-39.9934 Y1.7521  
X-39.8521 Y1.8934  
X-39.7411 Y2.0595  
X-39.6647 Y2.2441  
X-39.6257 Y2.4401  
Y2.6399  
X-39.6647 Y2.8359  
X-39.7411 Y3.0204  
X-39.8521 Y3.1866  
X-39.9934 Y3.3279  
X-40.1595 Y3.4389  
X-40.2757 Y3.4870  
Y6.7706  
X-39.4003 Y7.6460  
X-39.3325 Y7.7138  
X-39.2845 Y7.7969  
X-39.2597 Y7.8895  
Y13.0020 
G00 Z2.5400  
G00 X-41.1841 Y11.0099 
G01 Z-0.1778 F254   
G01 X-41.3260 Y11.1130 F508   
G01 X-41.4823 Y11.1927 
X-41.6491 Y11.2469 
X-41.8223 Y11.2743 
X-41.9977 
X-42.1709 Y11.2469 
X-42.3377 Y11.1927 
X-42.4940 Y11.1130 
X-42.6359 Y11.0099 
X-42.7599 Y10.8859 
X-42.8630 Y10.7440 
X-42.9427 Y10.5877 
X-42.9969 Y10.4209 
X-43.0243 Y10.2477 
Y10.0723 
X-42.9969 Y9.8991  
X-42.9427 Y9.7323  
X-42.9124 Y9.6728  
X-43.4715 Y9.1137  
X-43.5195 Y9.0306  
X-43.5443 Y8.9380  
Y3.4870  
X-43.6604 Y3.4389  
X-43.8266 Y3.3279  
X-43.9679 Y3.1866  
X-44.0789 Y3.0204  
X-44.1553 Y2.8359  
X-44.1943 Y2.6399  
Y2.4401  
X-44.1553 Y2.2441  
X-44.0789 Y2.0595  
X-43.9679 Y1.8934  
X-43.8266 Y1.7521  
X-43.6604 Y1.6411  
X-43.4759 Y1.5647  
X-43.2799 Y1.5257  
X-43.0801 
X-42.8841 Y1.5647  
X-42.6995 Y1.6411  
X-42.5334 Y1.7521  
X-42.3921 Y1.8934  
X-42.2811 Y2.0595  
X-42.2047 Y2.2441  
X-42.1657 Y2.4401  
Y2.6399  
X-42.2047 Y2.8359  
X-42.2811 Y3.0204  
X-42.3921 Y3.1866  
X-42.5334 Y3.3279  
X-42.6995 Y3.4389  
X-42.8157 Y3.4870  
Y8.7391  
X-42.3972 Y9.1576  
X-42.3377 Y9.1273  
X-42.1709 Y9.0731  
X-41.9977 Y9.0457  
X-41.8223 
X-41.6491 Y9.0731  
X-41.4823 Y9.1273  
X-41.3260 Y9.2070  
X-41.1841 Y9.3101  
X-41.0601 Y9.4341  
X-40.9570 Y9.5760  
X-40.8773 Y9.7323  
X-40.8231 Y9.8991  
X-40.7957 Y10.0723 
Y10.2477 
X-40.8231 Y10.4209 
X-40.8773 Y10.5877 
X-40.9570 Y10.7440 
X-41.0601 Y10.8859 
X-41.1841 Y11.0099 
G00 Z2.5400  
G00 X-48.8041 Y11.0099 
G01 Z-0.1778 F254   
G01 X-48.9460 Y11.1130 F508   
G01 X-49.1023 Y11.1927 
X-49.2691 Y11.2469 
X-49.4423 Y11.2743 
X-49.6177 
X-49.7909 Y11.2469 
X-49.9577 Y11.1927 
X-50.1140 Y11.1130 
X-50.2559 Y11.0099 
X-50.3799 Y10.8859 
X-50.4830 Y10.7440 
X-50.5627 Y10.5877 
X-50.6169 Y10.4209 
X-50.6443 Y10.2477 
Y10.0723 
X-50.6169 Y9.8991  
X-50.5627 Y9.7323  
X-50.5324 Y9.6728  
X-51.0915 Y9.1137  
X-51.1395 Y9.0306  
X-51.1643 Y8.9380  
Y3.4870  
X-51.2805 Y3.4389  
X-51.4466 Y3.3279  
X-51.5879 Y3.1866  
X-51.6989 Y3.0204  
X-51.7753 Y2.8359  
X-51.8143 Y2.6399  
Y2.4401  
X-51.7753 Y2.2441  
X-51.6989 Y2.0595  
X-51.5879 Y1.8934  
X-51.4466 Y1.7521  
X-51.2805 Y1.6411  
X-51.0959 Y1.5647  
X-50.8999 Y1.5257  
X-50.7001 
X-50.5041 Y1.5647  
X-50.3195 Y1.6411  
X-50.1534 Y1.7521  
X-50.0121 Y1.8934  
X-49.9011 Y2.0595  
X-49.8247 Y2.2441  
X-49.7857 Y2.4401  
Y2.6399  
X-49.8247 Y2.8359  
X-49.9011 Y3.0204  
X-50.0121 Y3.1866  
X-50.1534 Y3.3279  
X-50.3195 Y3.4389  
X-50.4357 Y3.4870  
Y8.7391  
X-50.0172 Y9.1576  
X-49.9577 Y9.1273  
X-49.7909 Y9.0731  
X-49.6177 Y9.0457  
X-49.4423 
X-49.2691 Y9.0731  
X-49.1023 Y9.1273  
X-48.9460 Y9.2070  
X-48.8041 Y9.3101  
X-48.6801 Y9.4341  
X-48.5770 Y9.5760  
X-48.4973 Y9.7323  
X-48.4431 Y9.8991  
X-48.4157 Y10.0723 
Y10.2477 
X-48.4431 Y10.4209 
X-48.4973 Y10.5877 
X-48.5770 Y10.7440 
X-48.6801 Y10.8859 
X-48.8041 Y11.0099 
G00 Z2.5400  
G00 X-47.6083 Y12.8031 
G01 Z-0.1778 F254   
G01 X-47.6083 Y8.0884  F508   
G01 X-48.5515 Y7.1452  
X-48.5995 Y7.0621  
X-48.6243 Y6.9695  
Y3.4870  
X-48.7405 Y3.4389  
X-48.9066 Y3.3279  
X-49.0479 Y3.1866  
X-49.1589 Y3.0204  
X-49.2353 Y2.8359  
X-49.2743 Y2.6399  
Y2.4401  
X-49.2353 Y2.2441  
X-49.1589 Y2.0595  
X-49.0479 Y1.8934  
X-48.9066 Y1.7521  
X-48.7405 Y1.6411  
X-48.5559 Y1.5647  
X-48.3599 Y1.5257  
X-48.1601 
X-47.9641 Y1.5647  
X-47.7795 Y1.6411  
X-47.6134 Y1.7521  
X-47.4721 Y1.8934  
X-47.3611 Y2.0595  
X-47.2847 Y2.2441  
X-47.2457 Y2.4401  
Y2.6399  
X-47.2847 Y2.8359  
X-47.3611 Y3.0204  
X-47.4721 Y3.1866  
X-47.6134 Y3.3279  
X-47.7795 Y3.4389  
X-47.8957 Y3.4870  
Y6.7706  
X-47.0203 Y7.6460  
X-46.9525 Y7.7138  
X-46.9045 Y7.7969  
X-46.8797 Y7.8895  
Y13.0020 
X-46.9045 Y13.0946 
X-46.9525 Y13.1777 
X-48.5276 Y14.7528 
X-48.4973 Y14.8123 
X-48.4431 Y14.9791 
X-48.4157 Y15.1523 
Y15.3277 
X-48.4431 Y15.5009 
X-48.4973 Y15.6677 
X-48.5770 Y15.8240 
X-48.6801 Y15.9659 
X-48.8041 Y16.0899 
X-48.9460 Y16.1930 
X-49.1023 Y16.2727 
X-49.2691 Y16.3269 
X-49.4423 Y16.3543 
X-49.6177 
X-49.7909 Y16.3269 
X-49.9577 Y16.2727 
X-50.1140 Y16.1930 
X-50.2559 Y16.0899 
X-50.3799 Y15.9659 
X-50.4830 Y15.8240 
X-50.5627 Y15.6677 
X-50.6169 Y15.5009 
X-50.6443 Y15.3277 
Y15.1523 
X-50.6169 Y14.9791 
X-50.5627 Y14.8123 
X-50.4830 Y14.6560 
X-50.3799 Y14.5141 
X-50.2559 Y14.3901 
X-50.1140 Y14.2870 
X-49.9577 Y14.2073 
X-49.7909 Y14.1531 
X-49.6177 Y14.1257 
X-49.4423 
X-49.2691 Y14.1531 
X-49.1023 Y14.2073 
X-49.0428 Y14.2376 
X-47.6083 Y12.8031 
G00 Z2.5400  
G00 X-54.4997 Y13.0020 
G01 Z-0.1778 F254   
G01 X-54.5245 Y13.0946 F508   
G01 X-54.5725 Y13.1777 
X-56.1476 Y14.7528 
X-56.1173 Y14.8123 
X-56.0631 Y14.9791 
X-56.0357 Y15.1523 
Y15.3277 
X-56.0631 Y15.5009 
X-56.1173 Y15.6677 
X-56.1970 Y15.8240 
X-56.3001 Y15.9659 
X-56.4241 Y16.0899 
X-56.5660 Y16.1930 
X-56.7223 Y16.2727 
X-56.8891 Y16.3269 
X-57.0623 Y16.3543 
X-57.2377 
X-57.4109 Y16.3269 
X-57.5777 Y16.2727 
X-57.7340 Y16.1930 
X-57.8759 Y16.0899 
X-57.9999 Y15.9659 
X-58.1030 Y15.8240 
X-58.1827 Y15.6677 
X-58.2369 Y15.5009 
X-58.2643 Y15.3277 
Y15.1523 
X-58.2369 Y14.9791 
X-58.1827 Y14.8123 
X-58.1030 Y14.6560 
X-57.9999 Y14.5141 
X-57.8759 Y14.3901 
X-57.7340 Y14.2870 
X-57.5777 Y14.2073 
X-57.4109 Y14.1531 
X-57.2377 Y14.1257 
X-57.0623 
X-56.8891 Y14.1531 
X-56.7223 Y14.2073 
X-56.6628 Y14.2376 
X-55.2283 Y12.8031 
Y8.0884  
X-56.1715 Y7.1452  
X-56.2195 Y7.0621  
X-56.2443 Y6.9695  
Y3.4870  
X-56.3605 Y3.4389  
X-56.5266 Y3.3279  
X-56.6679 Y3.1866  
X-56.7789 Y3.0204  
X-56.8553 Y2.8359  
X-56.8943 Y2.6399  
Y2.4401  
X-56.8553 Y2.2441  
X-56.7789 Y2.0595  
X-56.6679 Y1.8934  
X-56.5266 Y1.7521  
X-56.3605 Y1.6411  
X-56.1759 Y1.5647  
X-55.9799 Y1.5257  
X-55.7801 
X-55.5841 Y1.5647  
X-55.3995 Y1.6411  
X-55.2334 Y1.7521  
X-55.0921 Y1.8934  
X-54.9811 Y2.0595  
X-54.9047 Y2.2441  
X-54.8657 Y2.4401  
Y2.6399  
X-54.9047 Y2.8359  
X-54.9811 Y3.0204  
X-55.0921 Y3.1866  
X-55.2334 Y3.3279  
X-55.3995 Y3.4389  
X-55.5157 Y3.4870  
Y6.7706  
X-54.6403 Y7.6460  
X-54.5725 Y7.7138  
X-54.5245 Y7.7969  
X-54.4997 Y7.8895  
Y13.0020 
G00 Z2.5400  
G00 X-56.4241 Y11.0099 
G01 Z-0.1778 F254   
G01 X-56.5660 Y11.1130 F508   
G01 X-56.7223 Y11.1927 
X-56.8891 Y11.2469 
X-57.0623 Y11.2743 
X-57.2377 
X-57.4109 Y11.2469 
X-57.5777 Y11.1927 
X-57.7340 Y11.1130 
X-57.8759 Y11.0099 
X-57.9999 Y10.8859 
X-58.1030 Y10.7440 
X-58.1827 Y10.5877 
X-58.2369 Y10.4209 
X-58.2643 Y10.2477 
Y10.0723 
X-58.2369 Y9.8991  
X-58.1827 Y9.7323  
X-58.1524 Y9.6728  
X-58.7115 Y9.1137  
X-58.7595 Y9.0306  
X-58.7843 Y8.9380  
Y3.4870  
X-58.9004 Y3.4389  
X-59.0666 Y3.3279  
X-59.2079 Y3.1866  
X-59.3189 Y3.0204  
X-59.3953 Y2.8359  
X-59.4343 Y2.6399  
Y2.4401  
X-59.3953 Y2.2441  
X-59.3189 Y2.0595  
X-59.2079 Y1.8934  
X-59.0666 Y1.7521  
X-58.9004 Y1.6411  
X-58.7159 Y1.5647  
X-58.5199 Y1.5257  
X-58.3201 
X-58.1241 Y1.5647  
X-57.9395 Y1.6411  
X-57.7734 Y1.7521  
X-57.6321 Y1.8934  
X-57.5211 Y2.0595  
X-57.4447 Y2.2441  
X-57.4057 Y2.4401  
Y2.6399  
X-57.4447 Y2.8359  
X-57.5211 Y3.0204  
X-57.6321 Y3.1866  
X-57.7734 Y3.3279  
X-57.9395 Y3.4389  
X-58.0557 Y3.4870  
Y8.7391  
X-57.6372 Y9.1576  
X-57.5777 Y9.1273  
X-57.4109 Y9.0731  
X-57.2377 Y9.0457  
X-57.0623 
X-56.8891 Y9.0731  
X-56.7223 Y9.1273  
X-56.5660 Y9.2070  
X-56.4241 Y9.3101  
X-56.3001 Y9.4341  
X-56.1970 Y9.5760  
X-56.1173 Y9.7323  
X-56.0631 Y9.8991  
X-56.0357 Y10.0723 
Y10.2477 
X-56.0631 Y10.4209 
X-56.1173 Y10.5877 
X-56.1970 Y10.7440 
X-56.3001 Y10.8859 
X-56.4241 Y11.0099 
G00 Z2.5400  
G00 X-64.0441 Y11.0099 
G01 Z-0.1778 F254   
G01 X-64.1860 Y11.1130 F508   
G01 X-64.3423 Y11.1927 
X-64.5091 Y11.2469 
X-64.6823 Y11.2743 
X-64.8577 
X-65.0309 Y11.2469 
X-65.1977 Y11.1927 
X-65.3540 Y11.1130 
X-65.4959 Y11.0099 
X-65.6199 Y10.8859 
X-65.7230 Y10.7440 
X-65.8027 Y10.5877 
X-65.8569 Y10.4209 
X-65.8843 Y10.2477 
Y10.0723 
X-65.8569 Y9.8991  
X-65.8027 Y9.7323  
X-65.7724 Y9.6728  
X-66.3315 Y9.1137  
X-66.3795 Y9.0306  
X-66.4043 Y8.9380  
Y3.4870  
X-66.5204 Y3.4389  
X-66.6866 Y3.3279  
X-66.8279 Y3.1866  
X-66.9389 Y3.0204  
X-67.0153 Y2.8359  
X-67.0543 Y2.6399  
Y2.4401  
X-67.0153 Y2.2441  
X-66.9389 Y2.0595  
X-66.8279 Y1.8934  
X-66.6866 Y1.7521  
X-66.5204 Y1.6411  
X-66.3359 Y1.5647  
X-66.1399 Y1.5257  
X-65.9401 
X-65.7441 Y1.5647  
X-65.5595 Y1.6411  
X-65.3934 Y1.7521  
X-65.2521 Y1.8934  
X-65.1411 Y2.0595  
X-65.0647 Y2.2441  
X-65.0257 Y2.4401  
Y2.6399  
X-65.0647 Y2.8359  
X-65.1411 Y3.0204  
X-65.2521 Y3.1866  
X-65.3934 Y3.3279  
X-65.5595 Y3.4389  
X-65.6757 Y3.4870  
Y8.7391  
X-65.2572 Y9.1576  
X-65.1977 Y9.1273  
X-65.0309 Y9.0731  
X-64.8577 Y9.0457  
X-64.6823 
X-64.5091 Y9.0731  
X-64.3423 Y9.1273  
X-64.1860 Y9.2070  
X-64.0441 Y9.3101  
X-63.9201 Y9.4341  
X-63.8170 Y9.5760  
X-63.7373 Y9.7323  
X-63.6831 Y9.8991  
X-63.6557 Y10.0723 
Y10.2477 
X-63.6831 Y10.4209 
X-63.7373 Y10.5877 
X-63.8170 Y10.7440 
X-63.9201 Y10.8859 
X-64.0441 Y11.0099 
G00 Z2.5400  
G00 X-62.8483 Y12.8031 
G01 Z-0.1778 F254   
G01 X-62.8483 Y8.0884  F508   
G01 X-63.7915 Y7.1452  
X-63.8395 Y7.0621  
X-63.8643 Y6.9695  
Y3.4870  
X-63.9804 Y3.4389  
X-64.1466 Y3.3279  
X-64.2879 Y3.1866  
X-64.3989 Y3.0204  
X-64.4753 Y2.8359  
X-64.5143 Y2.6399  
Y2.4401  
X-64.4753 Y2.2441  
X-64.3989 Y2.0595  
X-64.2879 Y1.8934  
X-64.1466 Y1.7521  
X-63.9804 Y1.6411  
X-63.7959 Y1.5647  
X-63.5999 Y1.5257  
X-63.4001 
X-63.2041 Y1.5647  
X-63.0195 Y1.6411  
X-62.8534 Y1.7521  
X-62.7121 Y1.8934  
X-62.6011 Y2.0595  
X-62.5247 Y2.2441  
X-62.4857 Y2.4401  
Y2.6399  
X-62.5247 Y2.8359  
X-62.6011 Y3.0204  
X-62.7121 Y3.1866  
X-62.8534 Y3.3279  
X-63.0195 Y3.4389  
X-63.1357 Y3.4870  
Y6.7706  
X-62.2603 Y7.6460  
X-62.1925 Y7.7138  
X-62.1445 Y7.7969  
X-62.1197 Y7.8895  
Y13.0020 
X-62.1445 Y13.0946 
X-62.1925 Y13.1777 
X-63.7676 Y14.7528 
X-63.7373 Y14.8123 
X-63.6831 Y14.9791 
X-63.6557 Y15.1523 
Y15.3277 
X-63.6831 Y15.5009 
X-63.7373 Y15.6677 
X-63.8170 Y15.8240 
X-63.9201 Y15.9659 
X-64.0441 Y16.0899 
X-64.1860 Y16.1930 
X-64.3423 Y16.2727 
X-64.5091 Y16.3269 
X-64.6823 Y16.3543 
X-64.8577 
X-65.0309 Y16.3269 
X-65.1977 Y16.2727 
X-65.3540 Y16.1930 
X-65.4959 Y16.0899 
X-65.6199 Y15.9659 
X-65.7230 Y15.8240 
X-65.8027 Y15.6677 
X-65.8569 Y15.5009 
X-65.8843 Y15.3277 
Y15.1523 
X-65.8569 Y14.9791 
X-65.8027 Y14.8123 
X-65.7230 Y14.6560 
X-65.6199 Y14.5141 
X-65.4959 Y14.3901 
X-65.3540 Y14.2870 
X-65.1977 Y14.2073 
X-65.0309 Y14.1531 
X-64.8577 Y14.1257 
X-64.6823 
X-64.5091 Y14.1531 
X-64.3423 Y14.2073 
X-64.2828 Y14.2376 
X-62.8483 Y12.8031 
G00 Z2.5400  
G00 X-61.6632 Y20.7666 
G01 Z-0.1778 F254   
G01 X-61.5258 Y20.6667 F508   
G01 X-61.3744 Y20.5896 
X-61.2128 Y20.5371 
X-61.0450 Y20.5105 
X-60.8750 
X-60.7072 Y20.5371 
X-60.5456 Y20.5896 
X-60.3942 Y20.6667 
X-60.2568 Y20.7666 
X-60.1366 Y20.8868 
X-60.0367 Y21.0242 
X-59.9596 Y21.1756 
X-59.9071 Y21.3372 
X-59.8805 Y21.5050 
Y21.6750 
X-59.9071 Y21.8428 
X-59.9596 Y22.0044 
X-60.0367 Y22.1558 
X-60.1366 Y22.2932 
X-60.2568 Y22.4134 
X-60.3942 Y22.5133 
X-60.5456 Y22.5904 
X-60.7072 Y22.6429 
X-60.8750 Y22.6695 
X-61.0450 
X-61.2128 Y22.6429 
X-61.3744 Y22.5904 
X-61.4682 Y22.5426 
X-63.7915 Y24.8660 
X-63.7373 Y24.9723 
X-63.6831 Y25.1391 
X-63.6557 Y25.3123 
Y25.4877 
X-63.6831 Y25.6609 
X-63.7373 Y25.8277 
X-63.8170 Y25.9840 
X-63.9201 Y26.1259 
X-64.0441 Y26.2499 
X-64.1860 Y26.3530 
X-64.3423 Y26.4327 
X-64.5091 Y26.4869 
X-64.6823 Y26.5143 
X-64.8577 
X-65.0309 Y26.4869 
X-65.1977 Y26.4327 
X-65.3540 Y26.3530 
X-65.4959 Y26.2499 
X-65.6199 Y26.1259 
X-65.7230 Y25.9840 
X-65.8027 Y25.8277 
X-65.8569 Y25.6609 
X-65.8843 Y25.4877 
Y25.3123 
X-65.8569 Y25.1391 
X-65.8027 Y24.9723 
X-65.7230 Y24.8160 
X-65.6199 Y24.6741 
X-65.4959 Y24.5501 
X-65.3540 Y24.4470 
X-65.1977 Y24.3673 
X-65.0309 Y24.3131 
X-64.8577 Y24.2857 
X-64.6823 
X-64.5091 Y24.3131 
X-64.3423 Y24.3673 
X-64.2360 Y24.4215 
X-61.9126 Y22.0982 
X-61.9604 Y22.0044 
X-62.0129 Y21.8428 
X-62.0395 Y21.6750 
Y21.5050 
X-62.0129 Y21.3372 
X-61.9604 Y21.1756 
X-61.8833 Y21.0242 
X-61.7834 Y20.8868 
X-61.6632 Y20.7666 
G00 Z2.5400  
G00 X-57.8759 Y24.5501 
G01 Z-0.1778 F254   
G01 X-57.7340 Y24.4470 F508   
G01 X-57.5777 Y24.3673 
X-57.4109 Y24.3131 
X-57.2377 Y24.2857 
X-57.0623 
X-56.8891 Y24.3131 
X-56.7223 Y24.3673 
X-56.6160 Y24.4215 
X-54.4195 Y22.2250 
Y22.1400 
X-54.3929 Y21.9722 
X-54.3404 Y21.8106 
X-54.2633 Y21.6592 
X-54.1634 Y21.5218 
X-54.0432 Y21.4016 
X-53.9058 Y21.3017 
X-53.7544 Y21.2246 
X-53.5928 Y21.1721 
X-53.4250 Y21.1455 
X-53.2550 
X-53.0872 Y21.1721 
X-52.9256 Y21.2246 
X-52.7742 Y21.3017 
X-52.6368 Y21.4016 
X-52.5166 Y21.5218 
X-52.4167 Y21.6592 
X-52.3396 Y21.8106 
X-52.2871 Y21.9722 
X-52.2605 Y22.1400 
Y22.3100 
X-52.2871 Y22.4778 
X-52.3396 Y22.6394 
X-52.4167 Y22.7908 
X-52.5166 Y22.9282 
X-52.6368 Y23.0484 
X-52.7742 Y23.1483 
X-52.9256 Y23.2254 
X-53.0872 Y23.2779 
X-53.2550 Y23.3045 
X-53.4250 
X-53.5928 Y23.2779 
X-53.7544 Y23.2254 
X-53.9058 Y23.1483 
X-54.0432 Y23.0484 
X-54.1634 Y22.9282 
X-54.1930 Y22.8875 
X-56.1715 Y24.8660 
X-56.1173 Y24.9723 
X-56.0631 Y25.1391 
X-56.0357 Y25.3123 
Y25.4877 
X-56.0631 Y25.6609 
X-56.1173 Y25.8277 
X-56.1970 Y25.9840 
X-56.3001 Y26.1259 
X-56.4241 Y26.2499 
X-56.5660 Y26.3530 
X-56.7223 Y26.4327 
X-56.8891 Y26.4869 
X-57.0623 Y26.5143 
X-57.2377 
X-57.4109 Y26.4869 
X-57.5777 Y26.4327 
X-57.7340 Y26.3530 
X-57.8759 Y26.2499 
X-57.9999 Y26.1259 
X-58.1030 Y25.9840 
X-58.1827 Y25.8277 
X-58.2369 Y25.6609 
X-58.2643 Y25.4877 
Y25.3123 
X-58.2369 Y25.1391 
X-58.1827 Y24.9723 
X-58.1030 Y24.8160 
X-57.9999 Y24.6741 
X-57.8759 Y24.5501 
G00 Z2.5400  
G00 X-57.8759 Y27.0901 
G01 Z-0.1778 F254   
G01 X-57.7340 Y26.9870 F508   
G01 X-57.5777 Y26.9073 
X-57.4109 Y26.8531 
X-57.2377 Y26.8257 
X-57.0623 
X-56.8891 Y26.8531 
X-56.7223 Y26.9073 
X-56.5660 Y26.9870 
X-56.4241 Y27.0901 
X-56.3001 Y27.2141 
X-56.1970 Y27.3560 
X-56.1173 Y27.5123 
X-56.0967 Y27.5757 
X-50.5833 
X-50.5627 Y27.5123 
X-50.4830 Y27.3560 
X-50.3799 Y27.2141 
X-50.2559 Y27.0901 
X-50.1140 Y26.9870 
X-49.9577 Y26.9073 
X-49.7909 Y26.8531 
X-49.6177 Y26.8257 
X-49.4423 
X-49.2691 Y26.8531 
X-49.1023 Y26.9073 
X-48.9460 Y26.9870 
X-48.8041 Y27.0901 
X-48.6801 Y27.2141 
X-48.5770 Y27.3560 
X-48.4973 Y27.5123 
X-48.4767 Y27.5757 
X-42.9633 
X-42.9427 Y27.5123 
X-42.8630 Y27.3560 
X-42.7599 Y27.2141 
X-42.6359 Y27.0901 
X-42.4940 Y26.9870 
X-42.3377 Y26.9073 
X-42.1709 Y26.8531 
X-41.9977 Y26.8257 
X-41.8223 
X-41.6491 Y26.8531 
X-41.4823 Y26.9073 
X-41.3260 Y26.9870 
X-41.1841 Y27.0901 
X-41.0601 Y27.2141 
X-40.9570 Y27.3560 
X-40.8773 Y27.5123 
X-40.8567 Y27.5757 
X-35.3433 
X-35.3227 Y27.5123 
X-35.2430 Y27.3560 
X-35.1399 Y27.2141 
X-35.0159 Y27.0901 
X-34.8740 Y26.9870 
X-34.7177 Y26.9073 
X-34.5509 Y26.8531 
X-34.3777 Y26.8257 
X-34.2023 
X-34.0291 Y26.8531 
X-33.8623 Y26.9073 
X-33.7060 Y26.9870 
X-33.5641 Y27.0901 
X-33.4401 Y27.2141 
X-33.3370 Y27.3560 
X-33.2573 Y27.5123 
X-33.2367 Y27.5757 
X-27.7233 
X-27.7027 Y27.5123 
X-27.6230 Y27.3560 
X-27.5199 Y27.2141 
X-27.3959 Y27.0901 
X-27.2540 Y26.9870 
X-27.0977 Y26.9073 
X-26.9309 Y26.8531 
X-26.7577 Y26.8257 
X-26.5823 
X-26.4091 Y26.8531 
X-26.2423 Y26.9073 
X-26.0860 Y26.9870 
X-25.9441 Y27.0901 
X-25.8201 Y27.2141 
X-25.7170 Y27.3560 
X-25.6373 Y27.5123 
X-25.5831 Y27.6791 
X-25.5557 Y27.8523 
Y28.0277 
X-25.5831 Y28.2009 
X-25.6373 Y28.3677 
X-25.7170 Y28.5240 
X-25.8201 Y28.6659 
X-25.9441 Y28.7899 
X-26.0860 Y28.8930 
X-26.2423 Y28.9727 
X-26.4091 Y29.0269 
X-26.5823 Y29.0543 
X-26.7577 
X-26.9309 Y29.0269 
X-27.0977 Y28.9727 
X-27.2540 Y28.8930 
X-27.3959 Y28.7899 
X-27.5199 Y28.6659 
X-27.6230 Y28.5240 
X-27.7027 Y28.3677 
X-27.7233 Y28.3043 
X-28.0202 
Y34.2754 
X-27.8952 Y34.3067 
X-27.8920 
X-27.8487 Y34.3183 
X-27.8051 Y34.3292 
X-27.8024 
X-27.7994 
X-27.7605 Y34.3540 
X-27.7212 Y34.3758 
X-27.7163 Y34.3795 
X-27.6846 Y34.4112 
X-27.6523 Y34.4424 
Y34.4451 
X-26.0746 Y36.0212 
X-22.8120 
X-22.7194 Y36.0460 
X-22.6363 Y36.0940 
X-22.5685 Y36.1618 
X-15.6304 Y43.0999 
X-15.5636 Y43.1225 
X-15.5476 Y43.1332 
X-14.0061 
X-13.9944 
X-13.9583 
X-13.9220 
X-13.9106 Y43.1363 
X-13.8987 
X-13.8644 Y43.1487 
X-13.8294 Y43.1580 
X-13.8191 Y43.1640 
X-13.8078 Y43.1678 
X-13.7777 Y43.1879 
X-13.7463 Y43.2060 
X-13.7379 Y43.2144 
X-13.6692 Y43.2602 
X-4.1484 
X-4.1080 Y43.1810 
X-4.0049 Y43.0391 
X-3.8809 Y42.9151 
X-3.7390 Y42.8120 
X-3.5827 Y42.7323 
X-3.4159 Y42.6781 
X-3.2427 Y42.6507 
X-3.0673 
X-2.8941 Y42.6781 
X-2.7273 Y42.7323 
X-2.5710 Y42.8120 
X-2.4291 Y42.9151 
X-2.3051 Y43.0391 
X-2.2020 Y43.1810 
X-2.1223 Y43.3373 
X-2.0681 Y43.5041 
X-2.0407 Y43.6773 
Y43.8527 
X-2.0681 Y44.0259 
X-2.1223 Y44.1927 
X-2.2020 Y44.3490 
X-2.3051 Y44.4909 
X-2.4291 Y44.6149 
X-2.5710 Y44.7180 
X-2.7273 Y44.7977 
X-2.8107 Y44.8248 
Y48.3080 
X-2.8355 Y48.4006 
X-2.8835 Y48.4837 
X-4.1035 Y49.7037 
X-4.0796 Y49.7506 
X-4.0271 Y49.9122 
X-4.0005 Y50.0800 
Y50.2500 
X-4.0271 Y50.4178 
X-4.0796 Y50.5794 
Y57.4300 
X-4.0404 Y57.4431 
X-3.8925 Y57.5185 
X-3.7583 Y57.6160 
X-3.6410 Y57.7333 
X-3.5435 Y57.8675 
X-3.4681 Y58.0154 
X-3.4169 Y58.1732 
X-3.3909 Y58.3370 
Y58.5030 
X-3.4169 Y58.6668 
X-3.4681 Y58.8246 
X-3.5435 Y58.9725 
X-3.6410 Y59.1067 
X-3.7583 Y59.2240 
X-3.8925 Y59.3215 
X-4.0404 Y59.3969 
X-4.1577 Y59.4350 
Y61.2050 
X-4.1859 Y61.3104 
X-4.2405 Y61.4049 
X-5.8722 Y63.0366 
Y67.7508 
X-5.7307 Y67.8454 
X-5.5954 Y67.9807 
X-5.4891 Y68.1398 
X-5.4158 Y68.3166 
X-5.3785 Y68.5043 
Y68.6957 
X-5.4022 Y68.8149 
X-4.1770 Y70.0401 
X-4.1224 Y70.1346 
X-4.0942 Y70.2400 
Y71.8730 
X-4.1224 Y71.9784 
X-4.1770 Y72.0729 
X-4.2541 Y72.1500 
X-5.8087 Y73.7046 
Y76.7269 
X-3.4785 Y79.0571 
X-3.4239 Y79.1516 
X-3.3957 Y79.2570 
Y80.4344 
X-3.3648 Y80.4472 
X-3.2109 Y80.5500 
X-3.0800 Y80.6809 
X-2.9772 Y80.8348 
X-2.9063 Y81.0059 
X-2.8702 Y81.1874 
Y81.3726 
X-2.9063 Y81.5541 
X-2.9772 Y81.7252 
X-3.0800 Y81.8791 
X-3.2109 Y82.0100 
X-3.3648 Y82.1128 
X-3.5359 Y82.1837 
X-3.7174 Y82.2198 
X-3.9026 
X-4.0841 Y82.1837 
X-4.2552 Y82.1128 
X-4.4091 Y82.0100 
X-4.5400 Y81.8791 
X-4.6428 Y81.7252 
X-4.7137 Y81.5541 
X-4.7498 Y81.3726 
Y81.1874 
X-4.7137 Y81.0059 
X-4.6428 Y80.8348 
X-4.5400 Y80.6809 
X-4.4091 Y80.5500 
X-4.2552 Y80.4472 
X-4.2243 Y80.4344 
Y79.4831 
X-6.2865 Y77.4209 
X-7.9371 Y79.0715 
X-8.0316 Y79.1261 
X-8.1370 Y79.1543 
X-14.2681 
X-14.3385 Y79.2925 
X-14.4360 Y79.4267 
X-14.5533 Y79.5440 
X-14.6875 Y79.6415 
X-14.8354 Y79.7169 
X-14.9932 Y79.7681 
X-15.1570 Y79.7941 
X-15.3230 
X-15.4868 Y79.7681 
X-15.6446 Y79.7169 
X-15.7925 Y79.6415 
X-15.9267 Y79.5440 
X-16.0440 Y79.4267 
X-16.1415 Y79.2925 
X-16.2169 Y79.1446 
X-16.2681 Y78.9868 
X-16.2941 Y78.8230 
Y78.6570 
X-16.2681 Y78.4932 
X-16.2169 Y78.3354 
X-16.1415 Y78.1875 
X-16.0440 Y78.0533 
X-15.9267 Y77.9360 
X-15.7925 Y77.8385 
X-15.6446 Y77.7631 
X-15.4868 Y77.7119 
X-15.3230 Y77.6859 
X-15.1570 
X-14.9932 Y77.7119 
X-14.8354 Y77.7631 
X-14.6875 Y77.8385 
X-14.5533 Y77.9360 
X-14.4360 Y78.0533 
X-14.3385 Y78.1875 
X-14.2681 Y78.3257 
X-8.3631 
X-6.7996 Y76.7622 
X-6.7927 Y76.7517 
X-6.7611 Y76.7237 
X-6.7314 Y76.6940 
X-6.7205 Y76.6877 
X-6.7111 Y76.6793 
X-6.6734 Y76.6605 
X-6.6373 Y76.6397 
Y73.4785 
X-6.6091 Y73.3731 
X-6.5545 Y73.2786 
X-4.9228 Y71.6469 
Y70.4661 
X-5.9168 Y69.4721 
X-6.0666 Y69.5342 
X-6.2543 Y69.5715 
X-6.4457 
X-6.6334 Y69.5342 
X-6.8102 Y69.4609 
X-6.9693 Y69.3546 
X-7.1046 Y69.2193 
X-7.2109 Y69.0602 
X-7.2842 Y68.8834 
X-7.3215 Y68.6957 
Y68.5043 
X-7.2842 Y68.3166 
X-7.2109 Y68.1398 
X-7.1046 Y67.9807 
X-6.9693 Y67.8454 
X-6.8102 Y67.7391 
X-6.7008 Y67.6938 
Y62.8105 
X-6.6726 Y62.7051 
X-6.6180 Y62.6106 
X-6.5409 Y62.5335 
X-4.9863 Y60.9789 
Y59.3272 
X-4.9975 Y59.3215 
X-5.1317 Y59.2240 
X-5.2490 Y59.1067 
X-5.3465 Y58.9725 
X-5.4219 Y58.8246 
X-5.4731 Y58.6668 
X-5.4991 Y58.5030 
Y58.3370 
X-5.4731 Y58.1732 
X-5.4219 Y58.0154 
X-5.3465 Y57.8675 
X-5.2490 Y57.7333 
X-5.1317 Y57.6160 
X-4.9975 Y57.5185 
X-4.8496 Y57.4431 
X-4.8093 Y57.4300 
Y51.2121 
X-4.8272 Y51.2179 
X-4.9950 Y51.2445 
X-5.1650 
X-5.3328 Y51.2179 
X-5.4944 Y51.1654 
X-5.6458 Y51.0883 
X-5.7832 Y50.9884 
X-5.9034 Y50.8682 
X-6.0033 Y50.7308 
X-6.0804 Y50.5794 
X-6.1329 Y50.4178 
X-6.1595 Y50.2500 
Y50.0800 
X-6.1329 Y49.9122 
X-6.0804 Y49.7506 
X-6.0033 Y49.5992 
X-5.9034 Y49.4618 
X-5.7832 Y49.3416 
X-5.6458 Y49.2417 
X-5.4944 Y49.1646 
X-5.3328 Y49.1121 
X-5.1650 Y49.0855 
X-4.9950 
X-4.8272 Y49.1121 
X-4.6656 Y49.1646 
X-4.6187 Y49.1885 
X-3.5393 Y48.1091 
Y44.8118 
X-3.5827 Y44.7977 
X-3.7390 Y44.7180 
X-3.8809 Y44.6149 
X-4.0049 Y44.4909 
X-4.1080 Y44.3490 
X-4.1877 Y44.1927 
X-4.2419 Y44.0259 
X-4.2477 Y43.9888 
X-13.7434 
X-13.7551 
X-13.7912 
X-13.8275 
X-13.8389 Y43.9857 
X-13.8508 
X-13.8851 Y43.9733 
X-13.9201 Y43.9640 
X-13.9304 Y43.9580 
X-13.9417 Y43.9542 
X-13.9718 Y43.9341 
X-14.0032 Y43.9160 
X-14.0116 Y43.9076 
X-14.0803 Y43.8618 
X-15.4607 
Y51.5530 
X-15.4889 Y51.6584 
X-15.5435 Y51.7529 
X-15.6206 Y51.8300 
X-18.5416 Y54.7510 
X-18.6361 Y54.8056 
X-18.6683 Y54.8142 
X-18.7455 Y54.8914 
X-18.7203 Y54.9523 
X-18.6817 Y55.1462 
Y55.3438 
X-18.7203 Y55.5376 
X-18.7959 Y55.7202 
X-18.9057 Y55.8846 
X-19.0454 Y56.0243 
X-19.2098 Y56.1341 
X-19.3923 Y56.2097 
X-19.5862 Y56.2483 
X-19.7838 
X-19.9777 Y56.2097 
X-20.1602 Y56.1341 
X-20.3246 Y56.0243 
X-20.4643 Y55.8846 
X-20.5741 Y55.7202 
X-20.6497 Y55.5376 
X-20.6883 Y55.3438 
Y55.1462 
X-20.6497 Y54.9523 
X-20.5741 Y54.7698 
X-20.4643 Y54.6054 
X-20.3246 Y54.4657 
X-20.1602 Y54.3559 
X-19.9777 Y54.2803 
X-19.7838 Y54.2417 
X-19.5862 
X-19.3923 Y54.2803 
X-19.3314 Y54.3055 
X-19.1910 Y54.1651 
X-19.1139 Y54.0880 
X-19.0194 Y54.0334 
X-18.9872 Y54.0248 
X-16.2893 Y51.3269 
Y43.7290 
X-16.2919 Y43.7158 
X-16.2893 Y43.6747 
Y43.6335 
X-16.2858 Y43.6204 
Y43.6069 
X-16.2717 Y43.5679 
X-16.2611 Y43.5281 
X-16.2543 Y43.5164 
Y43.5089 
X-23.0109 Y36.7498 
X-26.2735 
X-26.3661 Y36.7250 
X-26.4492 Y36.6770 
X-28.1262 Y34.9999 
X-28.2504 Y34.9689 
X-28.2653 
X-28.2967 Y34.9573 
X-28.3289 Y34.9493 
X-28.3348 Y34.9460 
X-31.3857 Y37.9969 
Y39.7737 
X-31.3048 Y39.8072 
X-31.1509 Y39.9100 
X-31.0200 Y40.0409 
X-30.9172 Y40.1948 
X-30.8463 Y40.3659 
X-30.8102 Y40.5474 
Y40.7326 
X-30.8463 Y40.9141 
X-30.9172 Y41.0852 
X-31.0200 Y41.2391 
X-31.1509 Y41.3700 
X-31.3048 Y41.4728 
X-31.4759 Y41.5437 
X-31.6574 Y41.5798 
X-31.8426 
X-32.0241 Y41.5437 
X-32.1952 Y41.4728 
X-32.3491 Y41.3700 
X-32.4800 Y41.2391 
X-32.5828 Y41.0852 
X-32.6537 Y40.9141 
X-32.6898 Y40.7326 
Y40.5474 
X-32.6537 Y40.3659 
X-32.5828 Y40.1948 
X-32.4800 Y40.0409 
X-32.3491 Y39.9100 
X-32.1952 Y39.8072 
X-32.1143 Y39.7737 
Y37.7980 
X-32.0895 Y37.7054 
X-32.0415 Y37.6223 
X-28.7488 Y34.3296 
Y28.3043 
X-33.2367 
X-33.2573 Y28.3677 
X-33.3370 Y28.5240 
X-33.4401 Y28.6659 
X-33.5641 Y28.7899 
X-33.7060 Y28.8930 
X-33.8623 Y28.9727 
X-34.0291 Y29.0269 
X-34.2023 Y29.0543 
X-34.3777 
X-34.5509 Y29.0269 
X-34.7177 Y28.9727 
X-34.8740 Y28.8930 
X-35.0159 Y28.7899 
X-35.1399 Y28.6659 
X-35.2430 Y28.5240 
X-35.3227 Y28.3677 
X-35.3433 Y28.3043 
X-40.8567 
X-40.8773 Y28.3677 
X-40.9570 Y28.5240 
X-41.0601 Y28.6659 
X-41.1841 Y28.7899 
X-41.3260 Y28.8930 
X-41.4823 Y28.9727 
X-41.6491 Y29.0269 
X-41.8223 Y29.0543 
X-41.9977 
X-42.1709 Y29.0269 
X-42.3377 Y28.9727 
X-42.4940 Y28.8930 
X-42.6359 Y28.7899 
X-42.7599 Y28.6659 
X-42.8630 Y28.5240 
X-42.9427 Y28.3677 
X-42.9633 Y28.3043 
X-48.4767 
X-48.4973 Y28.3677 
X-48.5770 Y28.5240 
X-48.6801 Y28.6659 
X-48.8041 Y28.7899 
X-48.9460 Y28.8930 
X-49.1023 Y28.9727 
X-49.2691 Y29.0269 
X-49.4423 Y29.0543 
X-49.6177 
X-49.7909 Y29.0269 
X-49.9577 Y28.9727 
X-50.1140 Y28.8930 
X-50.2559 Y28.7899 
X-50.3799 Y28.6659 
X-50.4830 Y28.5240 
X-50.5627 Y28.3677 
X-50.5833 Y28.3043 
X-56.0967 
X-56.1173 Y28.3677 
X-56.1970 Y28.5240 
X-56.3001 Y28.6659 
X-56.4241 Y28.7899 
X-56.5660 Y28.8930 
X-56.7223 Y28.9727 
X-56.8891 Y29.0269 
X-57.0623 Y29.0543 
X-57.2377 
X-57.4109 Y29.0269 
X-57.5777 Y28.9727 
X-57.7340 Y28.8930 
X-57.8759 Y28.7899 
X-57.9999 Y28.6659 
X-58.1030 Y28.5240 
X-58.1827 Y28.3677 
X-58.2033 Y28.3043 
X-63.7167 
X-63.7373 Y28.3677 
X-63.8170 Y28.5240 
X-63.9201 Y28.6659 
X-64.0441 Y28.7899 
X-64.1860 Y28.8930 
X-64.3423 Y28.9727 
X-64.5091 Y29.0269 
X-64.6823 Y29.0543 
X-64.8577 
X-65.0309 Y29.0269 
X-65.1977 Y28.9727 
X-65.2151 Y28.9638 
X-68.2157 Y31.9644 
Y39.7737 
X-68.1348 Y39.8072 
X-67.9809 Y39.9100 
X-67.8500 Y40.0409 
X-67.7472 Y40.1948 
X-67.6763 Y40.3659 
X-67.6402 Y40.5474 
Y40.7326 
X-67.6763 Y40.9141 
X-67.7472 Y41.0852 
X-67.8500 Y41.2391 
X-67.9809 Y41.3700 
X-68.1348 Y41.4728 
X-68.3059 Y41.5437 
X-68.4874 Y41.5798 
X-68.6726 
X-68.8541 Y41.5437 
X-69.0252 Y41.4728 
X-69.1791 Y41.3700 
X-69.3100 Y41.2391 
X-69.4128 Y41.0852 
X-69.4837 Y40.9141 
X-69.5198 Y40.7326 
Y40.5474 
X-69.4837 Y40.3659 
X-69.4128 Y40.1948 
X-69.3100 Y40.0409 
X-69.1791 Y39.9100 
X-69.0252 Y39.8072 
X-68.9443 Y39.7737 
Y32.0508 
X-77.3275 
X-77.4201 Y32.0260 
X-77.5032 Y31.9780 
X-88.6699 Y20.8113 
X-88.6893 
X-88.7191 Y20.8831 
X-88.8198 Y21.0339 
X-88.9481 Y21.1622 
X-89.0989 Y21.2629 
X-89.2664 Y21.3323 
X-89.4443 Y21.3677 
X-89.6257 
X-89.8036 Y21.3323 
X-89.9711 Y21.2629 
X-90.1219 Y21.1622 
X-90.2502 Y21.0339 
X-90.3509 Y20.8831 
X-90.4203 Y20.7156 
X-90.4557 Y20.5377 
Y20.3563 
X-90.4203 Y20.1784 
X-90.3509 Y20.0109 
X-90.2502 Y19.8601 
X-90.1219 Y19.7318 
X-89.9711 Y19.6311 
X-89.8036 Y19.5617 
X-89.6257 Y19.5263 
X-89.4443 
X-89.2664 Y19.5617 
X-89.0989 Y19.6311 
X-88.9481 Y19.7318 
X-88.8198 Y19.8601 
X-88.7191 Y20.0109 
X-88.6893 Y20.0827 
X-88.4710 
X-88.3784 Y20.1075 
X-88.2953 Y20.1555 
X-88.2275 Y20.2233 
X-77.1286 Y31.3222 
X-68.8066 
X-68.7949 
X-68.7588 
X-68.7225 
X-68.7111 Y31.3253 
X-68.6992 
X-68.6649 Y31.3377 
X-68.6299 Y31.3470 
X-65.7509 Y28.4692 
X-65.8027 Y28.3677 
X-65.8569 Y28.2009 
X-65.8843 Y28.0277 
Y27.8523 
X-65.8569 Y27.6791 
X-65.8027 Y27.5123 
X-65.7230 Y27.3560 
X-65.6199 Y27.2141 
X-65.4959 Y27.0901 
X-65.3540 Y26.9870 
X-65.1977 Y26.9073 
X-65.0309 Y26.8531 
X-64.8577 Y26.8257 
X-64.6823 
X-64.5091 Y26.8531 
X-64.3423 Y26.9073 
X-64.1860 Y26.9870 
X-64.0441 Y27.0901 
X-63.9201 Y27.2141 
X-63.8170 Y27.3560 
X-63.7373 Y27.5123 
X-63.7167 Y27.5757 
X-58.2033 
X-58.1827 Y27.5123 
X-58.1030 Y27.3560 
X-57.9999 Y27.2141 
X-57.8759 Y27.0901 
G00 Z2.5400  
G00 X-56.7911 Y31.4357 
G01 Z-0.1778 F254   
G01 X-56.7112 Y31.4571 F508   
G01 X-56.6395 Y31.4985 
X-54.0353 Y34.1027 
X-48.1648 
X-48.1555 
X-48.1236 
X-48.0916 
X-48.0824 
X-48.0729 
X-48.0426 Y34.1159 
X-48.0117 Y34.1241 
X-48.0034 Y34.1289 
X-47.8520 Y34.1793 
X-47.8212 Y34.1876 
X-47.8129 Y34.1924 
X-47.8039 Y34.1954 
X-47.7772 Y34.2130 
X-47.7495 Y34.2290 
X-47.7428 Y34.2357 
X-47.7348 Y34.2410 
X-47.7136 Y34.2649 
X-45.5679 Y36.4106 
X-45.5440 Y36.4318 
X-45.5387 Y36.4398 
X-45.5320 Y36.4465 
X-45.5160 Y36.4742 
X-45.4984 Y36.5009 
X-45.4954 Y36.5099 
X-45.4906 Y36.5182 
X-45.4823 Y36.5490 
X-45.4319 Y36.7004 
X-45.4271 Y36.7087 
X-45.4188 Y36.7396 
X-45.4087 Y36.7699 
Y36.7794 
Y36.7886 
Y36.8206 
Y36.8525 
Y36.8618 
Y37.9977 
X-45.3174 
X-45.1504 Y38.0309 
X-44.9931 Y38.0961 
X-44.8515 Y38.1907 
X-44.7312 Y38.3110 
X-44.6366 Y38.4526 
X-44.5714 Y38.6099 
X-44.5382 Y38.7769 
Y38.9471 
X-44.5714 Y39.1141 
X-44.6366 Y39.2714 
X-44.7312 Y39.4130 
X-44.8515 Y39.5333 
X-44.9931 Y39.6279 
X-45.1504 Y39.6931 
X-45.3174 Y39.7263 
X-45.4057 
Y43.5836 
X-45.2839 Y43.6341 
X-45.1331 Y43.7348 
X-45.0048 Y43.8631 
X-44.9041 Y44.0139 
X-44.8347 Y44.1814 
X-44.7993 Y44.3593 
Y44.5407 
X-44.8347 Y44.7186 
X-44.9041 Y44.8861 
X-45.0048 Y45.0369 
X-45.1331 Y45.1652 
X-45.2839 Y45.2659 
X-45.4514 Y45.3353 
X-45.6293 Y45.3707 
X-45.8107 
X-45.9886 Y45.3353 
X-46.1561 Y45.2659 
X-46.3069 Y45.1652 
X-46.4352 Y45.0369 
X-46.5359 Y44.8861 
X-46.6053 Y44.7186 
X-46.6407 Y44.5407 
Y44.3593 
X-46.6053 Y44.1814 
X-46.5359 Y44.0139 
X-46.4352 Y43.8631 
X-46.3069 Y43.7348 
X-46.1561 Y43.6341 
X-46.0343 Y43.5836 
Y39.4525 
X-46.0738 Y39.4130 
X-46.1684 Y39.2714 
X-46.2336 Y39.1141 
X-46.2668 Y38.9471 
Y38.7769 
X-46.2336 Y38.6099 
X-46.1684 Y38.4526 
X-46.0738 Y38.3110 
X-46.0343 Y38.2715 
Y36.8810 
X-46.0582 Y36.8093 
X-48.1123 Y34.7552 
X-48.1840 Y34.7313 
X-54.2069 
X-54.2868 Y34.7099 
X-54.3585 Y34.6685 
X-54.4170 Y34.6100 
X-56.9627 Y32.0643 
X-59.9271 
X-59.9596 Y32.1644 
X-60.0367 Y32.3158 
X-60.1366 Y32.4532 
X-60.2568 Y32.5734 
X-60.3942 Y32.6733 
X-60.5456 Y32.7504 
X-60.7072 Y32.8029 
X-60.8750 Y32.8295 
X-61.0450 
X-61.2128 Y32.8029 
X-61.3744 Y32.7504 
X-61.5258 Y32.6733 
X-61.6632 Y32.5734 
X-61.7834 Y32.4532 
X-61.8833 Y32.3158 
X-61.9604 Y32.1644 
X-62.0129 Y32.0028 
X-62.0395 Y31.8350 
Y31.6650 
X-62.0129 Y31.4972 
X-61.9604 Y31.3356 
X-61.8833 Y31.1842 
X-61.7834 Y31.0468 
X-61.6632 Y30.9266 
X-61.5258 Y30.8267 
X-61.3744 Y30.7496 
X-61.2128 Y30.6971 
X-61.0450 Y30.6705 
X-60.8750 
X-60.7072 Y30.6971 
X-60.5456 Y30.7496 
X-60.3942 Y30.8267 
X-60.2568 Y30.9266 
X-60.1366 Y31.0468 
X-60.0367 Y31.1842 
X-59.9596 Y31.3356 
X-59.9271 Y31.4357 
X-56.7911 
G00 Z2.5400  
G00 X-54.0432 Y31.5616 
G01 Z-0.1778 F254   
G01 X-53.9058 Y31.4617 F508   
G01 X-53.7544 Y31.3846 
X-53.5928 Y31.3321 
X-53.4250 Y31.3055 
X-53.2550 
X-53.0872 Y31.3321 
X-52.9256 Y31.3846 
X-52.7742 Y31.4617 
X-52.6368 Y31.5616 
X-52.5166 Y31.6818 
X-52.4167 Y31.8192 
X-52.3396 Y31.9706 
X-52.3071 Y32.0707 
X-47.9011 
X-47.8212 Y32.0921 
X-47.7495 Y32.1335 
X-42.9870 Y36.8960 
X-42.9285 Y36.9545 
X-42.8871 Y37.0262 
X-42.8657 Y37.1061 
Y43.5836 
X-42.7439 Y43.6341 
X-42.5931 Y43.7348 
X-42.4648 Y43.8631 
X-42.3641 Y44.0139 
X-42.2947 Y44.1814 
X-42.2593 Y44.3593 
Y44.5407 
X-42.2947 Y44.7186 
X-42.3641 Y44.8861 
X-42.4648 Y45.0369 
X-42.5931 Y45.1652 
X-42.7439 Y45.2659 
X-42.9114 Y45.3353 
X-43.0893 Y45.3707 
X-43.2707 
X-43.4486 Y45.3353 
X-43.6161 Y45.2659 
X-43.7669 Y45.1652 
X-43.8952 Y45.0369 
X-43.9959 Y44.8861 
X-44.0653 Y44.7186 
X-44.1007 Y44.5407 
Y44.3593 
X-44.0653 Y44.1814 
X-43.9959 Y44.0139 
X-43.8952 Y43.8631 
X-43.7669 Y43.7348 
X-43.6161 Y43.6341 
X-43.4943 Y43.5836 
Y37.2777 
X-48.0727 Y32.6993 
X-52.3071 
X-52.3396 Y32.7994 
X-52.4167 Y32.9508 
X-52.5166 Y33.0882 
X-52.6368 Y33.2084 
X-52.7742 Y33.3083 
X-52.9256 Y33.3854 
X-53.0872 Y33.4379 
X-53.2550 Y33.4645 
X-53.4250 
X-53.5928 Y33.4379 
X-53.7544 Y33.3854 
X-53.9058 Y33.3083 
X-54.0432 Y33.2084 
X-54.1634 Y33.0882 
X-54.2633 Y32.9508 
X-54.3404 Y32.7994 
X-54.3929 Y32.6378 
X-54.4195 Y32.4700 
Y32.3000 
X-54.3929 Y32.1322 
X-54.3404 Y31.9706 
X-54.2633 Y31.8192 
X-54.1634 Y31.6818 
X-54.0432 Y31.5616 
G00 Z2.5400  
G00 X-53.8812 Y36.4115 
G01 Z-0.1778 F254   
G01 X-53.7981 Y36.3635 F508   
G01 X-53.7055 Y36.3387 
X-49.6343 
X-49.6008 Y36.2578 
X-49.4980 Y36.1039 
X-49.3671 Y35.9730 
X-49.2132 Y35.8702 
X-49.0421 Y35.7993 
X-48.8606 Y35.7632 
X-48.6754 
X-48.4939 Y35.7993 
X-48.3228 Y35.8702 
X-48.1689 Y35.9730 
X-48.0380 Y36.1039 
X-47.9352 Y36.2578 
X-47.8643 Y36.4289 
X-47.8282 Y36.6104 
Y36.7956 
X-47.8643 Y36.9771 
X-47.9352 Y37.1482 
X-48.0380 Y37.3021 
X-48.1689 Y37.4330 
X-48.3228 Y37.5358 
X-48.4939 Y37.6067 
X-48.6754 Y37.6428 
X-48.8606 
X-49.0421 Y37.6067 
X-49.2132 Y37.5358 
X-49.3671 Y37.4330 
X-49.4980 Y37.3021 
X-49.6008 Y37.1482 
X-49.6343 Y37.0673 
X-53.5066 
X-54.3287 Y37.8894 
X-54.3052 Y38.0074 
Y38.1926 
X-54.3413 Y38.3741 
X-54.4122 Y38.5452 
X-54.5150 Y38.6991 
X-54.6459 Y38.8300 
X-54.7998 Y38.9328 
X-54.9709 Y39.0037 
X-55.1524 Y39.0398 
X-55.3376 
X-55.5191 Y39.0037 
X-55.6902 Y38.9328 
X-55.8441 Y38.8300 
X-55.9750 Y38.6991 
X-56.0470 Y38.5913 
X-56.9356 
X-58.1825 Y39.8382 
X-58.0749 Y39.9100 
X-57.9440 Y40.0409 
X-57.8412 Y40.1948 
X-57.7703 Y40.3659 
X-57.7342 Y40.5474 
Y40.7326 
X-57.7703 Y40.9141 
X-57.8412 Y41.0852 
X-57.9440 Y41.2391 
X-58.0749 Y41.3700 
X-58.2288 Y41.4728 
X-58.3097 Y41.5063 
Y43.5332 
X-58.1514 Y43.5647 
X-57.9839 Y43.6341 
X-57.8331 Y43.7348 
X-57.7048 Y43.8631 
X-57.6041 Y44.0139 
X-57.5347 Y44.1814 
X-57.4993 Y44.3593 
Y44.5407 
X-57.5347 Y44.7186 
X-57.6041 Y44.8861 
X-57.7048 Y45.0369 
X-57.8331 Y45.1652 
X-57.9839 Y45.2659 
X-58.1514 Y45.3353 
X-58.3293 Y45.3707 
X-58.5107 
X-58.6886 Y45.3353 
X-58.8561 Y45.2659 
X-59.0069 Y45.1652 
X-59.1352 Y45.0369 
X-59.2359 Y44.8861 
X-59.3053 Y44.7186 
X-59.3407 Y44.5407 
Y44.3593 
X-59.3053 Y44.1814 
X-59.2359 Y44.0139 
X-59.1352 Y43.8631 
X-59.0383 Y43.7662 
Y41.5063 
X-59.1192 Y41.4728 
X-59.2731 Y41.3700 
X-59.4040 Y41.2391 
X-59.5068 Y41.0852 
X-59.5777 Y40.9141 
X-59.6138 Y40.7326 
Y40.5474 
X-59.5777 Y40.3659 
X-59.5068 Y40.1948 
X-59.4040 Y40.0409 
X-59.2731 Y39.9100 
X-59.1192 Y39.8072 
X-58.9481 Y39.7363 
X-58.9113 Y39.7290 
Y39.6395 
X-58.8865 Y39.5469 
X-58.8385 Y39.4638 
X-58.7707 Y39.3960 
X-57.3102 Y37.9355 
X-57.2271 Y37.8875 
X-57.1345 Y37.8627 
X-56.1560 
X-56.1487 Y37.8259 
X-56.0778 Y37.6548 
X-55.9750 Y37.5009 
X-55.8441 Y37.3700 
X-55.6902 Y37.2672 
X-55.5191 Y37.1963 
X-55.3376 Y37.1602 
X-55.1524 
X-54.9709 Y37.1963 
X-54.7998 Y37.2672 
X-54.7621 Y37.2924 
X-53.8812 Y36.4115 
G00 Z2.5400  
G00 X-54.5150 Y40.0409 
G01 Z-0.1778 F254   
G01 X-54.4122 Y40.1948 F508   
G01 X-54.3413 Y40.3659 
X-54.3052 Y40.5474 
Y40.7326 
X-54.3413 Y40.9141 
X-54.4122 Y41.0852 
X-54.5150 Y41.2391 
X-54.6459 Y41.3700 
X-54.7998 Y41.4728 
X-54.8807 Y41.5063 
Y43.4820 
X-54.9055 Y43.5746 
X-54.9535 Y43.6577 
X-55.1625 Y43.8667 
X-55.0641 Y44.0139 
X-54.9947 Y44.1814 
X-54.9593 Y44.3593 
Y44.5407 
X-54.9947 Y44.7186 
X-55.0641 Y44.8861 
X-55.1648 Y45.0369 
X-55.2931 Y45.1652 
X-55.4439 Y45.2659 
X-55.6114 Y45.3353 
X-55.6943 Y45.3518 
X-55.6988 Y45.3554 
X-56.1570 Y45.8137 
X-32.4296 
X-29.7513 Y43.1354 
Y41.4086 
X-29.8091 Y41.3700 
X-29.9400 Y41.2391 
X-30.0428 Y41.0852 
X-30.1137 Y40.9141 
X-30.1498 Y40.7326 
Y40.5474 
X-30.1137 Y40.3659 
X-30.0428 Y40.1948 
X-29.9400 Y40.0409 
X-29.8091 Y39.9100 
X-29.6552 Y39.8072 
X-29.4841 Y39.7363 
X-29.3026 Y39.7002 
X-29.1174 
X-28.9359 Y39.7363 
X-28.7648 Y39.8072 
X-28.6109 Y39.9100 
X-28.4800 Y40.0409 
X-28.3772 Y40.1948 
X-28.3644 Y40.2257 
X-21.6625 
X-21.5571 Y40.2539 
X-21.4626 Y40.3085 
X-19.2401 Y42.5310 
X-19.1630 Y42.6081 
X-19.0198 Y42.7512 
X-18.9827 Y42.7323 
X-18.8159 Y42.6781 
X-18.6427 Y42.6507 
X-18.4673 
X-18.2941 Y42.6781 
X-18.1273 Y42.7323 
X-17.9710 Y42.8120 
X-17.8291 Y42.9151 
X-17.7051 Y43.0391 
X-17.6020 Y43.1810 
X-17.5223 Y43.3373 
X-17.4681 Y43.5041 
X-17.4407 Y43.6773 
Y43.8527 
X-17.4681 Y44.0259 
X-17.5223 Y44.1927 
X-17.6020 Y44.3490 
X-17.7051 Y44.4909 
X-17.8291 Y44.6149 
X-17.9710 Y44.7180 
X-18.1273 Y44.7977 
X-18.2941 Y44.8519 
X-18.4673 Y44.8793 
X-18.6427 
X-18.8159 Y44.8519 
X-18.9827 Y44.7977 
X-19.1390 Y44.7180 
X-19.2707 Y44.6224 
Y49.2506 
X-19.2098 Y49.2759 
X-19.0454 Y49.3857 
X-18.9057 Y49.5254 
X-18.7959 Y49.6898 
X-18.7203 Y49.8723 
X-18.6817 Y50.0662 
Y50.2638 
X-18.7203 Y50.4577 
X-18.7959 Y50.6402 
X-18.9057 Y50.8046 
X-19.0454 Y50.9443 
X-19.2098 Y51.0541 
X-19.3923 Y51.1297 
X-19.5862 Y51.1683 
X-19.7838 
X-19.9777 Y51.1297 
X-20.1602 Y51.0541 
X-20.3246 Y50.9443 
X-20.4643 Y50.8046 
X-20.5741 Y50.6402 
X-20.6497 Y50.4577 
X-20.6883 Y50.2638 
Y50.0662 
X-20.6497 Y49.8723 
X-20.5741 Y49.6898 
X-20.4643 Y49.5254 
X-20.3246 Y49.3857 
X-20.1602 Y49.2759 
X-20.0993 Y49.2506 
Y42.9985 
X-20.0711 Y42.8931 
X-20.0633 Y42.8796 
X-21.8886 Y41.0543 
X-28.3644 
X-28.3772 Y41.0852 
X-28.4800 Y41.2391 
X-28.6109 Y41.3700 
X-28.7648 Y41.4728 
X-28.9227 Y41.5382 
Y43.3615 
X-28.9509 Y43.4669 
X-29.0055 Y43.5614 
X-31.9265 Y46.4824 
X-32.0036 Y46.5595 
X-32.0981 Y46.6141 
X-32.2035 Y46.6423 
X-56.8235 
X-56.9289 Y46.6141 
X-56.9470 Y46.6036 
X-57.9423 Y47.5990 
X-58.0254 Y47.6470 
X-58.1180 Y47.6718 
X-85.8052 
Y69.6991 
X-83.6555 Y71.8488 
X-83.6075 Y71.9319 
X-83.5827 Y72.0245 
Y78.3453 
X-83.5732 
X-83.4154 Y78.3981 
X-83.2675 Y78.4735 
X-83.1333 Y78.5710 
X-83.0160 Y78.6883 
X-82.9185 Y78.8225 
X-82.8431 Y78.9704 
X-82.8300 Y79.0107 
X-81.0534 
X-81.0339 Y78.9509 
X-80.9550 Y78.7959 
X-80.8528 Y78.6552 
X-80.7298 Y78.5322 
X-80.5891 Y78.4300 
X-80.4341 Y78.3511 
X-80.2687 Y78.2973 
X-80.0970 Y78.2701 
X-79.9230 
X-79.7513 Y78.2973 
X-79.5859 Y78.3511 
X-79.4309 Y78.4300 
X-79.2902 Y78.5322 
X-79.1672 Y78.6552 
X-79.0650 Y78.7959 
X-78.9861 Y78.9509 
X-78.9323 Y79.1163 
X-78.9051 Y79.2880 
Y79.4620 
X-78.9323 Y79.6337 
X-78.9861 Y79.7991 
X-79.0650 Y79.9541 
X-79.1672 Y80.0948 
X-79.2902 Y80.2178 
X-79.4309 Y80.3200 
X-79.5859 Y80.3989 
X-79.7513 Y80.4527 
X-79.9230 Y80.4799 
X-80.0970 
X-80.2172 Y80.4608 
Y82.5896 
X-79.9266 Y82.8802 
X-79.9174 
X-79.7359 Y82.9163 
X-79.5648 Y82.9872 
X-79.4109 Y83.0900 
X-79.2800 Y83.2209 
X-79.1772 Y83.3748 
X-79.1063 Y83.5459 
X-79.0702 Y83.7274 
Y83.9126 
X-79.1063 Y84.0941 
X-79.1772 Y84.2652 
X-79.2800 Y84.4191 
X-79.4109 Y84.5500 
X-79.5648 Y84.6528 
X-79.7359 Y84.7237 
X-79.9174 Y84.7598 
X-80.1026 
X-80.2841 Y84.7237 
X-80.4552 Y84.6528 
X-80.6091 Y84.5500 
X-80.7400 Y84.4191 
X-80.8428 Y84.2652 
X-80.9137 Y84.0941 
X-80.9498 Y83.9126 
Y83.7274 
X-80.9137 Y83.5459 
X-80.8428 Y83.3748 
X-80.7400 Y83.2209 
X-80.6781 Y83.1591 
X-80.8052 Y83.0320 
X-80.8730 Y82.9642 
X-80.9210 Y82.8811 
X-80.9458 Y82.7885 
Y79.9667 
X-80.9550 Y79.9541 
X-81.0339 Y79.7991 
X-81.0534 Y79.7393 
X-82.8300 
X-82.8431 Y79.7796 
X-82.9185 Y79.9275 
X-83.0160 Y80.0617 
X-83.1333 Y80.1790 
X-83.2675 Y80.2765 
X-83.4154 Y80.3519 
X-83.5732 Y80.4031 
X-83.7214 Y80.4266 
X-87.4094 Y84.1146 
X-87.3797 Y84.1864 
X-87.3443 Y84.3643 
Y84.5457 
X-87.3797 Y84.7236 
X-87.4491 Y84.8911 
X-87.5498 Y85.0419 
X-87.6781 Y85.1702 
X-87.8289 Y85.2709 
X-87.9964 Y85.3403 
X-88.1743 Y85.3757 
X-88.3557 
X-88.5336 Y85.3403 
X-88.7011 Y85.2709 
X-88.8519 Y85.1702 
X-88.9802 Y85.0419 
X-89.0809 Y84.8911 
X-89.1503 Y84.7236 
X-89.1857 Y84.5457 
Y84.3643 
X-89.1503 Y84.1864 
X-89.0809 Y84.0189 
X-88.9802 Y83.8681 
X-88.8519 Y83.7398 
X-88.7011 Y83.6391 
X-88.5336 Y83.5697 
X-88.3557 Y83.5343 
X-88.1743 
X-87.9964 Y83.5697 
X-87.9246 Y83.5994 
X-84.5053 Y80.1801 
X-84.6240 Y80.0617 
X-84.7215 Y79.9275 
X-84.7969 Y79.7796 
X-84.8481 Y79.6218 
X-84.8741 Y79.4580 
Y79.2920 
X-84.8481 Y79.1282 
X-84.7969 Y78.9704 
X-84.7215 Y78.8225 
X-84.6240 Y78.6883 
X-84.5067 Y78.5710 
X-84.3725 Y78.4735 
X-84.3113 Y78.4423 
Y72.2234 
X-86.3932 Y70.1415 
X-86.4610 Y70.0737 
X-86.5090 Y69.9906 
X-86.5338 Y69.8980 
Y47.5854 
X-90.5749 Y43.5443 
X-93.1343 
X-93.1641 Y43.6161 
X-93.2648 Y43.7669 
X-93.3931 Y43.8952 
X-93.5439 Y43.9959 
X-93.7114 Y44.0653 
X-93.8893 Y44.1007 
X-94.0707 
X-94.2486 Y44.0653 
X-94.4161 Y43.9959 
X-94.5669 Y43.8952 
X-94.6952 Y43.7669 
X-94.7959 Y43.6161 
X-94.8653 Y43.4486 
X-94.9007 Y43.2707 
Y43.0893 
X-94.8653 Y42.9114 
X-94.7959 Y42.7439 
X-94.6952 Y42.5931 
X-94.5669 Y42.4648 
X-94.4161 Y42.3641 
X-94.2486 Y42.2947 
X-94.0707 Y42.2593 
X-93.8893 
X-93.7114 Y42.2947 
X-93.5439 Y42.3641 
X-93.3931 Y42.4648 
X-93.2648 Y42.5931 
X-93.1641 Y42.7439 
X-93.1343 Y42.8157 
X-90.3760 
X-90.2834 Y42.8405 
X-90.2003 Y42.8885 
X-90.1325 Y42.9563 
X-86.1204 Y46.9685 
X-86.0846 Y46.9586 
X-86.0503 Y46.9470 
X-86.0384 
X-86.0270 Y46.9432 
X-85.9907 
X-85.9546 
X-85.9429 
X-58.3169 
X-57.3251 Y45.9514 
X-57.3138 Y45.9093 
X-57.2593 Y45.8149 
X-57.1821 Y45.7377 
X-57.0877 Y45.6832 
X-57.0456 Y45.6719 
X-56.5029 Y45.1292 
X-56.5952 Y45.0369 
X-56.6959 Y44.8861 
X-56.7653 Y44.7186 
X-56.8007 Y44.5407 
Y44.3593 
X-56.7653 Y44.1814 
X-56.6959 Y44.0139 
X-56.5952 Y43.8631 
X-56.4669 Y43.7348 
X-56.3161 Y43.6341 
X-56.1486 Y43.5647 
X-55.9707 Y43.5293 
X-55.8555 
X-55.6093 Y43.2831 
Y41.5063 
X-55.6902 Y41.4728 
X-55.8441 Y41.3700 
X-55.9750 Y41.2391 
X-56.0778 Y41.0852 
X-56.1487 Y40.9141 
X-56.1848 Y40.7326 
Y40.5474 
X-56.1487 Y40.3659 
X-56.0778 Y40.1948 
X-55.9750 Y40.0409 
X-55.8441 Y39.9100 
X-55.6902 Y39.8072 
X-55.5191 Y39.7363 
X-55.3376 Y39.7002 
X-55.1524 
X-54.9709 Y39.7363 
X-54.7998 Y39.8072 
X-54.6459 Y39.9100 
X-54.5150 Y40.0409 
G00 Z2.5400  
G00 X-53.9269 Y43.7348 
G01 Z-0.1778 F254   
G01 X-53.7761 Y43.6341 F508   
G01 X-53.6086 Y43.5647 
X-53.4307 Y43.5293 
X-53.2493 
X-53.0714 Y43.5647 
X-52.9039 Y43.6341 
X-52.7531 Y43.7348 
X-52.6248 Y43.8631 
X-52.5241 Y44.0139 
X-52.4547 Y44.1814 
X-52.4193 Y44.3593 
Y44.5407 
X-52.4547 Y44.7186 
X-52.5241 Y44.8861 
X-52.6248 Y45.0369 
X-52.7531 Y45.1652 
X-52.9039 Y45.2659 
X-53.0714 Y45.3353 
X-53.2493 Y45.3707 
X-53.4307 
X-53.6086 Y45.3353 
X-53.7761 Y45.2659 
X-53.9269 Y45.1652 
X-54.0552 Y45.0369 
X-54.1559 Y44.8861 
X-54.2253 Y44.7186 
X-54.2607 Y44.5407 
Y44.3593 
X-54.2253 Y44.1814 
X-54.1559 Y44.0139 
X-54.0552 Y43.8631 
X-53.9269 Y43.7348 
G00 Z2.5400  
G00 X-51.3869 Y43.7348 
G01 Z-0.1778 F254   
G01 X-51.2361 Y43.6341 F508   
G01 X-51.0686 Y43.5647 
X-50.8907 Y43.5293 
X-50.7093 
X-50.5314 Y43.5647 
X-50.3639 Y43.6341 
X-50.2131 Y43.7348 
X-50.0848 Y43.8631 
X-49.9841 Y44.0139 
X-49.9147 Y44.1814 
X-49.8793 Y44.3593 
Y44.5407 
X-49.9147 Y44.7186 
X-49.9841 Y44.8861 
X-50.0848 Y45.0369 
X-50.2131 Y45.1652 
X-50.3639 Y45.2659 
X-50.5314 Y45.3353 
X-50.7093 Y45.3707 
X-50.8907 
X-51.0686 Y45.3353 
X-51.2361 Y45.2659 
X-51.3869 Y45.1652 
X-51.5152 Y45.0369 
X-51.6159 Y44.8861 
X-51.6853 Y44.7186 
X-51.7207 Y44.5407 
Y44.3593 
X-51.6853 Y44.1814 
X-51.6159 Y44.0139 
X-51.5152 Y43.8631 
X-51.3869 Y43.7348 
G00 Z2.5400  
G00 X-48.8469 Y43.7348 
G01 Z-0.1778 F254   
G01 X-48.6961 Y43.6341 F508   
G01 X-48.5286 Y43.5647 
X-48.3507 Y43.5293 
X-48.1693 
X-47.9914 Y43.5647 
X-47.8239 Y43.6341 
X-47.6731 Y43.7348 
X-47.5448 Y43.8631 
X-47.4441 Y44.0139 
X-47.3747 Y44.1814 
X-47.3393 Y44.3593 
Y44.5407 
X-47.3747 Y44.7186 
X-47.4441 Y44.8861 
X-47.5448 Y45.0369 
X-47.6731 Y45.1652 
X-47.8239 Y45.2659 
X-47.9914 Y45.3353 
X-48.1693 Y45.3707 
X-48.3507 
X-48.5286 Y45.3353 
X-48.6961 Y45.2659 
X-48.8469 Y45.1652 
X-48.9752 Y45.0369 
X-49.0759 Y44.8861 
X-49.1453 Y44.7186 
X-49.1807 Y44.5407 
Y44.3593 
X-49.1453 Y44.1814 
X-49.0759 Y44.0139 
X-48.9752 Y43.8631 
X-48.8469 Y43.7348 
G00 Z2.5400  
G00 X-48.8606 Y40.1828 
G01 Z-0.1778 F254   
G01 X-49.0421 Y40.1467 F508   
G01 X-49.2132 Y40.0758 
X-49.3671 Y39.9730 
X-49.4980 Y39.8421 
X-49.6008 Y39.6882 
X-49.6717 Y39.5171 
X-49.7078 Y39.3356 
Y39.1504 
X-49.6717 Y38.9689 
X-49.6008 Y38.7978 
X-49.4980 Y38.6439 
X-49.3671 Y38.5130 
X-49.2132 Y38.4102 
X-49.0421 Y38.3393 
X-48.8606 Y38.3032 
X-48.6754 
X-48.4939 Y38.3393 
X-48.3228 Y38.4102 
X-48.1689 Y38.5130 
X-48.0380 Y38.6439 
X-47.9352 Y38.7978 
X-47.8643 Y38.9689 
X-47.8282 Y39.1504 
Y39.3356 
X-47.8643 Y39.5171 
X-47.9352 Y39.6882 
X-48.0380 Y39.8421 
X-48.1689 Y39.9730 
X-48.3228 Y40.0758 
X-48.4939 Y40.1467 
X-48.6754 Y40.1828 
X-48.8606 
G00 Z2.5400  
G00 X-48.7408 Y30.3960 
G01 Z-0.1778 F254   
G01 X-48.8322 Y30.2593 F508   
G01 X-61.5504 Y30.2593 
X-63.4298 Y32.1387 
X-63.3977 Y32.2999 
Y32.4701 
X-63.4309 Y32.6371 
X-63.4961 Y32.7944 
X-63.5907 Y32.9360 
X-63.7110 Y33.0563 
X-63.8526 Y33.1509 
X-64.0099 Y33.2161 
X-64.1769 Y33.2493 
X-64.3471 
X-64.5141 Y33.2161 
X-64.6714 Y33.1509 
X-64.8130 Y33.0563 
X-64.9333 Y32.9360 
X-65.0279 Y32.7944 
X-65.0931 Y32.6371 
X-65.1263 Y32.4701 
Y32.2999 
X-65.0931 Y32.1329 
X-65.0279 Y31.9756 
X-64.9333 Y31.8340 
X-64.8130 Y31.7137 
X-64.6714 Y31.6191 
X-64.5141 Y31.5539 
X-64.3471 Y31.5207 
X-64.1769 
X-64.0157 Y31.5528 
X-61.9764 Y29.5135 
X-61.8819 Y29.4589 
X-61.7765 Y29.4307 
X-61.6675 
X-48.8322 
X-48.7408 Y29.2940 
X-48.6205 Y29.1737 
X-48.4789 Y29.0791 
X-48.3216 Y29.0139 
X-48.1546 Y28.9807 
X-47.9844 
X-47.8174 Y29.0139 
X-47.6601 Y29.0791 
X-47.5185 Y29.1737 
X-47.3982 Y29.2940 
X-47.3036 Y29.4356 
X-47.2384 Y29.5929 
X-47.2052 Y29.7599 
Y29.9301 
X-47.2384 Y30.0971 
X-47.3036 Y30.2544 
X-47.3982 Y30.3960 
X-47.5185 Y30.5163 
X-47.6601 Y30.6109 
X-47.8174 Y30.6761 
X-47.9844 Y30.7093 
X-48.1546 
X-48.3216 Y30.6761 
X-48.4789 Y30.6109 
X-48.6205 Y30.5163 
X-48.7408 Y30.3960 
G00 Z2.5400  
G00 X-46.4232 Y30.9266 
G01 Z-0.1778 F254   
G01 X-46.2858 Y30.8267 F508   
G01 X-46.1344 Y30.7496 
X-45.9728 Y30.6971 
X-45.8050 Y30.6705 
X-45.6350 
X-45.4672 Y30.6971 
X-45.3056 Y30.7496 
X-45.1542 Y30.8267 
X-45.0168 Y30.9266 
X-44.8966 Y31.0468 
X-44.7967 Y31.1842 
X-44.7196 Y31.3356 
X-44.6671 Y31.4972 
X-44.6405 Y31.6650 
Y31.8350 
X-44.6671 Y32.0028 
X-44.7196 Y32.1644 
X-44.7967 Y32.3158 
X-44.8966 Y32.4532 
X-45.0168 Y32.5734 
X-45.1542 Y32.6733 
X-45.2119 Y32.7026 
X-40.4470 Y37.4675 
X-40.3885 Y37.5260 
X-40.3471 Y37.5977 
X-40.3257 Y37.6776 
Y43.5836 
X-40.2039 Y43.6341 
X-40.0531 Y43.7348 
X-39.9248 Y43.8631 
X-39.8241 Y44.0139 
X-39.7547 Y44.1814 
X-39.7193 Y44.3593 
Y44.5407 
X-39.7547 Y44.7186 
X-39.8241 Y44.8861 
X-39.9248 Y45.0369 
X-40.0531 Y45.1652 
X-40.2039 Y45.2659 
X-40.3714 Y45.3353 
X-40.5493 Y45.3707 
X-40.7307 
X-40.9086 Y45.3353 
X-41.0761 Y45.2659 
X-41.2269 Y45.1652 
X-41.3552 Y45.0369 
X-41.4559 Y44.8861 
X-41.5253 Y44.7186 
X-41.5607 Y44.5407 
Y44.3593 
X-41.5253 Y44.1814 
X-41.4559 Y44.0139 
X-41.3552 Y43.8631 
X-41.2269 Y43.7348 
X-41.0761 Y43.6341 
X-40.9543 Y43.5836 
Y37.8492 
X-45.9715 Y32.8320 
X-45.9919 Y32.7967 
X-46.1344 Y32.7504 
X-46.2858 Y32.6733 
X-46.4232 Y32.5734 
X-46.5434 Y32.4532 
X-46.6433 Y32.3158 
X-46.7204 Y32.1644 
X-46.7729 Y32.0028 
X-46.7995 Y31.8350 
Y31.6650 
X-46.7729 Y31.4972 
X-46.7204 Y31.3356 
X-46.6433 Y31.1842 
X-46.5434 Y31.0468 
X-46.4232 Y30.9266 
G00 Z2.5400  
G00 X-48.8041 Y26.2499 
G01 Z-0.1778 F254   
G01 X-48.9460 Y26.3530 F508   
G01 X-49.1023 Y26.4327 
X-49.2691 Y26.4869 
X-49.4423 Y26.5143 
X-49.6177 
X-49.7909 Y26.4869 
X-49.9577 Y26.4327 
X-50.1140 Y26.3530 
X-50.2559 Y26.2499 
X-50.3799 Y26.1259 
X-50.4830 Y25.9840 
X-50.5627 Y25.8277 
X-50.6169 Y25.6609 
X-50.6443 Y25.4877 
Y25.3123 
X-50.6169 Y25.1391 
X-50.5627 Y24.9723 
X-50.4830 Y24.8160 
X-50.3799 Y24.6741 
X-50.2559 Y24.5501 
X-50.1140 Y24.4470 
X-49.9577 Y24.3673 
X-49.7909 Y24.3131 
X-49.6177 Y24.2857 
X-49.4423 
X-49.2691 Y24.3131 
X-49.1023 Y24.3673 
X-48.9960 Y24.4215 
X-46.6726 Y22.0982 
X-46.7204 Y22.0044 
X-46.7729 Y21.8428 
X-46.7995 Y21.6750 
Y21.5050 
X-46.7729 Y21.3372 
X-46.7204 Y21.1756 
X-46.6433 Y21.0242 
X-46.5434 Y20.8868 
X-46.4232 Y20.7666 
X-46.2858 Y20.6667 
X-46.1344 Y20.5896 
X-45.9728 Y20.5371 
X-45.8050 Y20.5105 
X-45.6350 
X-45.4672 Y20.5371 
X-45.3056 Y20.5896 
X-45.1542 Y20.6667 
X-45.0168 Y20.7666 
X-44.8966 Y20.8868 
X-44.7967 Y21.0242 
X-44.7196 Y21.1756 
X-44.6671 Y21.3372 
X-44.6405 Y21.5050 
Y21.6750 
X-44.6671 Y21.8428 
X-44.7196 Y22.0044 
X-44.7967 Y22.1558 
X-44.8966 Y22.2932 
X-45.0168 Y22.4134 
X-45.1542 Y22.5133 
X-45.3056 Y22.5904 
X-45.4672 Y22.6429 
X-45.6350 Y22.6695 
X-45.8050 
X-45.9728 Y22.6429 
X-46.1344 Y22.5904 
X-46.2281 Y22.5426 
X-48.5515 Y24.8660 
X-48.4973 Y24.9723 
X-48.4431 Y25.1391 
X-48.4157 Y25.3123 
Y25.4877 
X-48.4431 Y25.6609 
X-48.4973 Y25.8277 
X-48.5770 Y25.9840 
X-48.6801 Y26.1259 
X-48.8041 Y26.2499 
G00 Z2.5400  
G00 X-42.7599 Y26.1259 
G01 Z-0.1778 F254   
G01 X-42.8630 Y25.9840 F508   
G01 X-42.9427 Y25.8277 
X-42.9969 Y25.6609 
X-43.0243 Y25.4877 
Y25.3123 
X-42.9969 Y25.1391 
X-42.9427 Y24.9723 
X-42.8630 Y24.8160 
X-42.7599 Y24.6741 
X-42.6359 Y24.5501 
X-42.4940 Y24.4470 
X-42.3377 Y24.3673 
X-42.1709 Y24.3131 
X-41.9977 Y24.2857 
X-41.8223 
X-41.6491 Y24.3131 
X-41.4823 Y24.3673 
X-41.3760 Y24.4215 
X-39.0526 Y22.0982 
X-39.1004 Y22.0044 
X-39.1529 Y21.8428 
X-39.1795 Y21.6750 
Y21.5050 
X-39.1529 Y21.3372 
X-39.1004 Y21.1756 
X-39.0233 Y21.0242 
X-38.9234 Y20.8868 
X-38.8032 Y20.7666 
X-38.6658 Y20.6667 
X-38.5144 Y20.5896 
X-38.3528 Y20.5371 
X-38.1850 Y20.5105 
X-38.0150 
X-37.8472 Y20.5371 
X-37.6856 Y20.5896 
X-37.5342 Y20.6667 
X-37.3968 Y20.7666 
X-37.2766 Y20.8868 
X-37.1767 Y21.0242 
X-37.0996 Y21.1756 
X-37.0471 Y21.3372 
X-37.0205 Y21.5050 
Y21.6750 
X-37.0471 Y21.8428 
X-37.0996 Y22.0044 
X-37.1767 Y22.1558 
X-37.2766 Y22.2932 
X-37.3968 Y22.4134 
X-37.5342 Y22.5133 
X-37.6856 Y22.5904 
X-37.8472 Y22.6429 
X-38.0150 Y22.6695 
X-38.1850 
X-38.3528 Y22.6429 
X-38.5144 Y22.5904 
X-38.6082 Y22.5426 
X-40.9315 Y24.8660 
X-40.8773 Y24.9723 
X-40.8231 Y25.1391 
X-40.7957 Y25.3123 
Y25.4877 
X-40.8231 Y25.6609 
X-40.8773 Y25.8277 
X-40.9570 Y25.9840 
X-41.0601 Y26.1259 
X-41.1841 Y26.2499 
X-41.3260 Y26.3530 
X-41.4823 Y26.4327 
X-41.6491 Y26.4869 
X-41.8223 Y26.5143 
X-41.9977 
X-42.1709 Y26.4869 
X-42.3377 Y26.4327 
X-42.4940 Y26.3530 
X-42.6359 Y26.2499 
X-42.7599 Y26.1259 
G00 Z2.5400  
G00 X-35.1399 Y26.1259 
G01 Z-0.1778 F254   
G01 X-35.2430 Y25.9840 F508   
G01 X-35.3227 Y25.8277 
X-35.3769 Y25.6609 
X-35.4043 Y25.4877 
Y25.3123 
X-35.3769 Y25.1391 
X-35.3227 Y24.9723 
X-35.2430 Y24.8160 
X-35.1399 Y24.6741 
X-35.0159 Y24.5501 
X-34.8740 Y24.4470 
X-34.7177 Y24.3673 
X-34.5509 Y24.3131 
X-34.3777 Y24.2857 
X-34.2023 
X-34.0291 Y24.3131 
X-33.8623 Y24.3673 
X-33.7560 Y24.4215 
X-31.4326 Y22.0982 
X-31.4804 Y22.0044 
X-31.5329 Y21.8428 
X-31.5595 Y21.6750 
Y21.5050 
X-31.5329 Y21.3372 
X-31.4804 Y21.1756 
X-31.4033 Y21.0242 
X-31.3034 Y20.8868 
X-31.1832 Y20.7666 
X-31.0458 Y20.6667 
X-30.8944 Y20.5896 
X-30.7328 Y20.5371 
X-30.5650 Y20.5105 
X-30.3950 
X-30.2272 Y20.5371 
X-30.0656 Y20.5896 
X-29.9142 Y20.6667 
X-29.7768 Y20.7666 
X-29.6566 Y20.8868 
X-29.5567 Y21.0242 
X-29.4796 Y21.1756 
X-29.4271 Y21.3372 
X-29.4005 Y21.5050 
Y21.6750 
X-29.4271 Y21.8428 
X-29.4796 Y22.0044 
X-29.5567 Y22.1558 
X-29.6566 Y22.2932 
X-29.7768 Y22.4134 
X-29.9142 Y22.5133 
X-30.0656 Y22.5904 
X-30.2272 Y22.6429 
X-30.3950 Y22.6695 
X-30.5650 
X-30.7328 Y22.6429 
X-30.8944 Y22.5904 
X-30.9882 Y22.5426 
X-33.3115 Y24.8660 
X-33.2573 Y24.9723 
X-33.2031 Y25.1391 
X-33.1757 Y25.3123 
Y25.4877 
X-33.2031 Y25.6609 
X-33.2573 Y25.8277 
X-33.3370 Y25.9840 
X-33.4401 Y26.1259 
X-33.5641 Y26.2499 
X-33.7060 Y26.3530 
X-33.8623 Y26.4327 
X-34.0291 Y26.4869 
X-34.2023 Y26.5143 
X-34.3777 
X-34.5509 Y26.4869 
X-34.7177 Y26.4327 
X-34.8740 Y26.3530 
X-35.0159 Y26.2499 
X-35.1399 Y26.1259 
G00 Z2.5400  
G00 X-34.2290 Y31.5620 
G01 Z-0.1778 F254   
G01 X-34.1573 Y31.5206 F508   
G01 X-34.0774 Y31.4992 
X-31.6740 
X-31.5621 Y31.4619 
X-31.5538 Y31.4571 
X-31.5229 Y31.4489 
X-31.5165 
X-31.4804 Y31.3356 
X-31.4033 Y31.1842 
X-31.3034 Y31.0468 
X-31.1832 Y30.9266 
X-31.0458 Y30.8267 
X-30.8944 Y30.7496 
X-30.7328 Y30.6971 
X-30.5650 Y30.6705 
X-30.3950 
X-30.2272 Y30.6971 
X-30.0656 Y30.7496 
X-29.9142 Y30.8267 
X-29.7768 Y30.9266 
X-29.6566 Y31.0468 
X-29.5567 Y31.1842 
X-29.4796 Y31.3356 
X-29.4271 Y31.4972 
X-29.4005 Y31.6650 
Y31.8350 
X-29.4271 Y32.0028 
X-29.4796 Y32.1644 
X-29.5567 Y32.3158 
X-29.6566 Y32.4532 
X-29.7768 Y32.5734 
X-29.9142 Y32.6733 
X-30.0656 Y32.7504 
X-30.2272 Y32.8029 
X-30.3950 Y32.8295 
X-30.5650 
X-30.7328 Y32.8029 
X-30.8944 Y32.7504 
X-31.0458 Y32.6733 
X-31.1832 Y32.5734 
X-31.3034 Y32.4532 
X-31.4033 Y32.3158 
X-31.4804 Y32.1644 
X-31.4996 Y32.1052 
X-31.5326 Y32.1146 
X-31.5629 Y32.1248 
X-31.5724 
X-31.5816 
X-31.6136 
X-31.6455 
X-31.6548 
X-33.9058 
X-35.3727 Y33.5947 
Y43.5485 
X-35.2914 Y43.5647 
X-35.1239 Y43.6341 
X-34.9731 Y43.7348 
X-34.8448 Y43.8631 
X-34.7441 Y44.0139 
X-34.6747 Y44.1814 
X-34.6393 Y44.3593 
Y44.5407 
X-34.6747 Y44.7186 
X-34.7441 Y44.8861 
X-34.8448 Y45.0369 
X-34.9731 Y45.1652 
X-35.1239 Y45.2659 
X-35.2914 Y45.3353 
X-35.4693 Y45.3707 
X-35.6507 
X-35.8286 Y45.3353 
X-35.9961 Y45.2659 
X-36.1469 Y45.1652 
X-36.2752 Y45.0369 
X-36.3759 Y44.8861 
X-36.4453 Y44.7186 
X-36.4807 Y44.5407 
Y44.3593 
X-36.4453 Y44.1814 
X-36.3759 Y44.0139 
X-36.2752 Y43.8631 
X-36.1469 Y43.7348 
X-36.0013 Y43.6375 
Y33.4231 
X-35.9799 Y33.3432 
X-35.9385 Y33.2715 
X-35.8800 Y33.2130 
X-34.2290 Y31.5620 
G00 Z2.5400  
G00 X-34.2208 Y33.3667 
G01 Z-0.1778 F254   
G01 X-34.0694 Y33.2896 F508   
G01 X-33.9078 Y33.2371 
X-33.7400 Y33.2105 
X-33.5700 
X-33.4022 Y33.2371 
X-33.2406 Y33.2896 
X-33.0892 Y33.3667 
X-32.9518 Y33.4666 
X-32.8316 Y33.5868 
X-32.7317 Y33.7242 
X-32.6546 Y33.8756 
X-32.6021 Y34.0372 
X-32.5755 Y34.2050 
Y34.3750 
X-32.6021 Y34.5428 
X-32.6546 Y34.7044 
X-32.7317 Y34.8558 
X-32.8316 Y34.9932 
X-32.9518 Y35.1134 
X-33.0892 Y35.2133 
X-33.2406 Y35.2904 
X-33.3407 Y35.3229 
Y39.9194 
X-33.3621 Y39.9993 
X-33.4035 Y40.0710 
Y43.3038 
X-33.1674 Y43.5406 
X-33.1107 Y43.5293 
X-32.9293 
X-32.7514 Y43.5647 
X-32.5839 Y43.6341 
X-32.4331 Y43.7348 
X-32.3048 Y43.8631 
X-32.2041 Y44.0139 
X-32.1347 Y44.1814 
X-32.0993 Y44.3593 
Y44.5407 
X-32.1347 Y44.7186 
X-32.2041 Y44.8861 
X-32.3048 Y45.0369 
X-32.4331 Y45.1652 
X-32.5839 Y45.2659 
X-32.7514 Y45.3353 
X-32.9293 Y45.3707 
X-33.1107 
X-33.2886 Y45.3353 
X-33.4561 Y45.2659 
X-33.6069 Y45.1652 
X-33.7352 Y45.0369 
X-33.8359 Y44.8861 
X-33.9053 Y44.7186 
X-33.9407 Y44.5407 
Y44.3593 
X-33.9053 Y44.1814 
X-33.8359 Y44.0139 
X-33.7352 Y43.8631 
X-33.9700 Y43.6270 
X-34.0114 Y43.5553 
X-34.0328 Y43.4754 
Y39.9001 
X-34.0114 Y39.8202 
X-33.9700 Y39.7485 
Y35.3229 
X-34.0694 Y35.2904 
X-34.2208 Y35.2133 
X-34.3582 Y35.1134 
X-34.4784 Y34.9932 
X-34.5783 Y34.8558 
X-34.6554 Y34.7044 
X-34.7079 Y34.5428 
X-34.7345 Y34.3750 
Y34.2050 
X-34.7079 Y34.0372 
X-34.6554 Y33.8756 
X-34.5783 Y33.7242 
X-34.4784 Y33.5868 
X-34.3582 Y33.4666 
X-34.2208 Y33.3667 
G00 Z2.5400  
G00 X-37.3968 Y32.5734 
G01 Z-0.1778 F254   
G01 X-37.5342 Y32.6733 F508   
G01 X-37.6856 Y32.7504 
X-37.7857 Y32.7829 
Y43.5836 
X-37.6639 Y43.6341 
X-37.5131 Y43.7348 
X-37.3848 Y43.8631 
X-37.2841 Y44.0139 
X-37.2147 Y44.1814 
X-37.1793 Y44.3593 
Y44.5407 
X-37.2147 Y44.7186 
X-37.2841 Y44.8861 
X-37.3848 Y45.0369 
X-37.5131 Y45.1652 
X-37.6639 Y45.2659 
X-37.8314 Y45.3353 
X-38.0093 Y45.3707 
X-38.1907 
X-38.3686 Y45.3353 
X-38.5361 Y45.2659 
X-38.6869 Y45.1652 
X-38.8152 Y45.0369 
X-38.9159 Y44.8861 
X-38.9853 Y44.7186 
X-39.0207 Y44.5407 
Y44.3593 
X-38.9853 Y44.1814 
X-38.9159 Y44.0139 
X-38.8152 Y43.8631 
X-38.6869 Y43.7348 
X-38.5361 Y43.6341 
X-38.4143 Y43.5836 
Y32.7829 
X-38.5144 Y32.7504 
X-38.6658 Y32.6733 
X-38.8032 Y32.5734 
X-38.9234 Y32.4532 
X-39.0233 Y32.3158 
X-39.1004 Y32.1644 
X-39.1529 Y32.0028 
X-39.1795 Y31.8350 
Y31.6650 
X-39.1529 Y31.4972 
X-39.1004 Y31.3356 
X-39.0233 Y31.1842 
X-38.9234 Y31.0468 
X-38.8032 Y30.9266 
X-38.6658 Y30.8267 
X-38.5144 Y30.7496 
X-38.3528 Y30.6971 
X-38.1850 Y30.6705 
X-38.0150 
X-37.8472 Y30.6971 
X-37.6856 Y30.7496 
X-37.5342 Y30.8267 
X-37.3968 Y30.9266 
X-37.2766 Y31.0468 
X-37.1767 Y31.1842 
X-37.0996 Y31.3356 
X-37.0471 Y31.4972 
X-37.0205 Y31.6650 
Y31.8350 
X-37.0471 Y32.0028 
X-37.0996 Y32.1644 
X-37.1767 Y32.3158 
X-37.2766 Y32.4532 
X-37.3968 Y32.5734 
G00 Z2.5400  
G00 X-24.1982 Y33.4666 
G01 Z-0.1778 F254   
G01 X-24.0608 Y33.3667 F508   
G01 X-23.9094 Y33.2896 
X-23.8093 Y33.2571 
Y28.2607 
X-25.8821 Y26.1879 
X-25.9441 Y26.2499 
X-26.0860 Y26.3530 
X-26.2423 Y26.4327 
X-26.4091 Y26.4869 
X-26.5823 Y26.5143 
X-26.7577 
X-26.9309 Y26.4869 
X-27.0977 Y26.4327 
X-27.2540 Y26.3530 
X-27.3959 Y26.2499 
X-27.5199 Y26.1259 
X-27.6230 Y25.9840 
X-27.7027 Y25.8277 
X-27.7569 Y25.6609 
X-27.7843 Y25.4877 
Y25.3123 
X-27.7569 Y25.1391 
X-27.7027 Y24.9723 
X-27.6230 Y24.8160 
X-27.5199 Y24.6741 
X-27.3959 Y24.5501 
X-27.2540 Y24.4470 
X-27.0977 Y24.3673 
X-26.9309 Y24.3131 
X-26.7577 Y24.2857 
X-26.5823 
X-26.4091 Y24.3131 
X-26.2423 Y24.3673 
X-26.0860 Y24.4470 
X-25.9441 Y24.5501 
X-25.8201 Y24.6741 
X-25.7170 Y24.8160 
X-25.6373 Y24.9723 
X-25.5831 Y25.1391 
X-25.5557 Y25.3123 
Y25.4877 
X-25.5745 Y25.6065 
X-23.2435 Y27.9375 
X-23.2021 Y28.0092 
X-23.1807 Y28.0891 
Y33.2571 
X-23.0806 Y33.2896 
X-22.9292 Y33.3667 
X-22.7918 Y33.4666 
X-22.6716 Y33.5868 
X-22.5717 Y33.7242 
X-22.4946 Y33.8756 
X-22.4421 Y34.0372 
X-22.4155 Y34.2050 
Y34.3750 
X-22.4421 Y34.5428 
X-22.4946 Y34.7044 
X-22.5717 Y34.8558 
X-22.6716 Y34.9932 
X-22.7918 Y35.1134 
X-22.9292 Y35.2133 
X-23.0806 Y35.2904 
X-23.2422 Y35.3429 
X-23.4100 Y35.3695 
X-23.5800 
X-23.7478 Y35.3429 
X-23.9094 Y35.2904 
X-24.0608 Y35.2133 
X-24.1982 Y35.1134 
X-24.3184 Y34.9932 
X-24.4183 Y34.8558 
X-24.4954 Y34.7044 
X-24.5479 Y34.5428 
X-24.5745 Y34.3750 
Y34.2050 
X-24.5479 Y34.0372 
X-24.4954 Y33.8756 
X-24.4183 Y33.7242 
X-24.3184 Y33.5868 
X-24.1982 Y33.4666 
G00 Z2.5400  
G00 X-22.8646 Y49.3857 
G01 Z-0.1778 F254   
G01 X-22.7002 Y49.2759 F508   
G01 X-22.5176 Y49.2003 
X-22.3238 Y49.1617 
X-22.1262 
X-21.9323 Y49.2003 
X-21.7498 Y49.2759 
X-21.5854 Y49.3857 
X-21.4457 Y49.5254 
X-21.3359 Y49.6898 
X-21.2603 Y49.8723 
X-21.2217 Y50.0662 
Y50.2638 
X-21.2603 Y50.4577 
X-21.3359 Y50.6402 
X-21.4457 Y50.8046 
X-21.5854 Y50.9443 
X-21.7498 Y51.0541 
X-21.9323 Y51.1297 
X-22.1262 Y51.1683 
X-22.3238 
X-22.5176 Y51.1297 
X-22.7002 Y51.0541 
X-22.8646 Y50.9443 
X-23.0043 Y50.8046 
X-23.1141 Y50.6402 
X-23.1394 Y50.5793 
X-36.8928 
X-36.9842 Y50.7160 
X-37.1045 Y50.8363 
X-37.2461 Y50.9309 
X-37.4034 Y50.9961 
X-37.5704 Y51.0293 
X-37.7406 
X-37.9076 Y50.9961 
X-38.0649 Y50.9309 
X-38.2065 Y50.8363 
X-38.3268 Y50.7160 
X-38.4214 Y50.5744 
X-38.4866 Y50.4171 
X-38.5198 Y50.2501 
Y50.0799 
X-38.4866 Y49.9129 
X-38.4214 Y49.7556 
X-38.3268 Y49.6140 
X-38.2065 Y49.4937 
X-38.0649 Y49.3991 
X-37.9076 Y49.3339 
X-37.7406 Y49.3007 
X-37.5704 
X-37.4034 Y49.3339 
X-37.2461 Y49.3991 
X-37.1045 Y49.4937 
X-36.9842 Y49.6140 
X-36.8928 Y49.7507 
X-23.1394 
X-23.1141 Y49.6898 
X-23.0043 Y49.5254 
X-22.8646 Y49.3857 
G00 Z2.5400  
G00 X-22.9231 Y51.4845 
G01 Z-0.1778 F254   
G01 X-22.6235 Y51.7841 F508   
G01 X-22.5176 Y51.7403 
X-22.3238 Y51.7017 
X-22.1262 
X-21.9323 Y51.7403 
X-21.7498 Y51.8159 
X-21.5854 Y51.9257 
X-21.4457 Y52.0654 
X-21.3359 Y52.2298 
X-21.2603 Y52.4123 
X-21.2217 Y52.6062 
Y52.8038 
X-21.2603 Y52.9977 
X-21.3359 Y53.1802 
X-21.4457 Y53.3446 
X-21.5854 Y53.4843 
X-21.7498 Y53.5941 
X-21.9323 Y53.6697 
X-22.1262 Y53.7083 
X-22.3238 
X-22.5176 Y53.6697 
X-22.7002 Y53.5941 
X-22.8646 Y53.4843 
X-23.0043 Y53.3446 
X-23.1141 Y53.1802 
X-23.1897 Y52.9977 
X-23.2283 Y52.8038 
Y52.6062 
X-23.1897 Y52.4123 
X-23.1831 Y52.3963 
X-23.3491 Y52.2303 
X-24.9548 
X-25.0462 Y52.3670 
X-25.1665 Y52.4873 
X-25.3081 Y52.5819 
X-25.4654 Y52.6471 
X-25.6324 Y52.6803 
X-25.8026 
X-25.9696 Y52.6471 
X-26.1269 Y52.5819 
X-26.2685 Y52.4873 
X-26.3888 Y52.3670 
X-26.4834 Y52.2254 
X-26.5486 Y52.0681 
X-26.5818 Y51.9011 
Y51.7309 
X-26.5486 Y51.5639 
X-26.4834 Y51.4066 
X-26.3888 Y51.2650 
X-26.2685 Y51.1447 
X-26.1269 Y51.0501 
X-25.9696 Y50.9849 
X-25.8026 Y50.9517 
X-25.6324 
X-25.4654 Y50.9849 
X-25.3081 Y51.0501 
X-25.1665 Y51.1447 
X-25.0462 Y51.2650 
X-24.9548 Y51.4017 
X-23.1230 
X-23.0176 Y51.4299 
X-22.9231 Y51.4845 
G00 Z2.5400  
G00 X-23.3041 Y53.6435 
G01 Z-0.1778 F254   
G01 X-22.6235 Y54.3241 F508   
G01 X-22.5176 Y54.2803 
X-22.3238 Y54.2417 
X-22.1262 
X-21.9323 Y54.2803 
X-21.7498 Y54.3559 
X-21.5854 Y54.4657 
X-21.4457 Y54.6054 
X-21.3359 Y54.7698 
X-21.2603 Y54.9523 
X-21.2217 Y55.1462 
Y55.3438 
X-21.2603 Y55.5376 
X-21.3359 Y55.7202 
X-21.4457 Y55.8846 
X-21.5854 Y56.0243 
X-21.7498 Y56.1341 
X-21.9323 Y56.2097 
X-22.1262 Y56.2483 
X-22.3238 
X-22.5176 Y56.2097 
X-22.7002 Y56.1341 
X-22.8646 Y56.0243 
X-23.0043 Y55.8846 
X-23.1141 Y55.7202 
X-23.1897 Y55.5376 
X-23.2283 Y55.3438 
Y55.1462 
X-23.1897 Y54.9523 
X-23.1831 Y54.9363 
X-23.7301 Y54.3893 
X-24.9548 
X-25.0462 Y54.5260 
X-25.1665 Y54.6463 
X-25.3081 Y54.7409 
X-25.4654 Y54.8061 
X-25.6324 Y54.8393 
X-25.8026 
X-25.9696 Y54.8061 
X-26.1269 Y54.7409 
X-26.2685 Y54.6463 
X-26.3888 Y54.5260 
X-26.4834 Y54.3844 
X-26.5486 Y54.2271 
X-26.5818 Y54.0601 
Y53.8899 
X-26.5486 Y53.7229 
X-26.4834 Y53.5656 
X-26.3888 Y53.4240 
X-26.2685 Y53.3037 
X-26.1269 Y53.2091 
X-25.9696 Y53.1439 
X-25.8026 Y53.1107 
X-25.6324 
X-25.4654 Y53.1439 
X-25.3081 Y53.2091 
X-25.1665 Y53.3037 
X-25.0462 Y53.4240 
X-24.9548 Y53.5607 
X-23.5040 
X-23.3986 Y53.5889 
X-23.3041 Y53.6435 
G00 Z2.5400  
G00 X-20.4643 Y53.3446 
G01 Z-0.1778 F254   
G01 X-20.5741 Y53.1802 F508   
G01 X-20.6497 Y52.9977 
X-20.6883 Y52.8038 
Y52.6062 
X-20.6497 Y52.4123 
X-20.5741 Y52.2298 
X-20.4643 Y52.0654 
X-20.3246 Y51.9257 
X-20.1602 Y51.8159 
X-19.9777 Y51.7403 
X-19.7838 Y51.7017 
X-19.5862 
X-19.3923 Y51.7403 
X-19.3314 Y51.7655 
X-19.1910 Y51.6251 
X-19.1139 Y51.5480 
X-19.0194 Y51.4934 
X-18.9872 Y51.4848 
X-18.2578 Y50.7554 
Y49.4142 
X-18.2861 Y49.4086 
X-18.4434 Y49.3434 
X-18.5850 Y49.2488 
X-18.7053 Y49.1285 
X-18.7999 Y48.9869 
X-18.8651 Y48.8296 
X-18.8983 Y48.6626 
Y48.4924 
X-18.8651 Y48.3254 
X-18.7999 Y48.1681 
X-18.7053 Y48.0265 
X-18.5850 Y47.9062 
X-18.4434 Y47.8116 
X-18.2861 Y47.7464 
X-18.1191 Y47.7132 
X-17.9489 
X-17.7819 Y47.7464 
X-17.6246 Y47.8116 
X-17.4830 Y47.9062 
X-17.3627 Y48.0265 
X-17.2681 Y48.1681 
X-17.2029 Y48.3254 
X-17.1697 Y48.4924 
Y48.6626 
X-17.2029 Y48.8296 
X-17.2681 Y48.9869 
X-17.3627 Y49.1285 
X-17.4292 Y49.1950 
Y50.9815 
X-17.4574 Y51.0869 
X-17.5120 Y51.1814 
X-17.5891 Y51.2585 
X-18.5416 Y52.2110 
X-18.6361 Y52.2656 
X-18.6683 Y52.2742 
X-18.7455 Y52.3514 
X-18.7203 Y52.4123 
X-18.6817 Y52.6062 
Y52.8038 
X-18.7203 Y52.9977 
X-18.7959 Y53.1802 
X-18.9057 Y53.3446 
X-19.0454 Y53.4843 
X-19.2098 Y53.5941 
X-19.3923 Y53.6697 
X-19.5862 Y53.7083 
X-19.7838 
X-19.9777 Y53.6697 
X-20.1602 Y53.5941 
X-20.3246 Y53.4843 
X-20.4643 Y53.3446 
G00 Z2.5400  
G00 X-20.5504 Y58.7131 
G01 Z-0.1778 F254   
G01 X-20.4025 Y58.7885 F508   
G01 X-20.2683 Y58.8860 
X-20.1510 Y59.0033 
X-20.0535 Y59.1375 
X-19.9781 Y59.2854 
X-19.9269 Y59.4432 
X-19.9009 Y59.6070 
Y59.7730 
X-19.9269 Y59.9368 
X-19.9781 Y60.0946 
X-20.0535 Y60.2425 
X-20.1510 Y60.3767 
X-20.2683 Y60.4940 
X-20.4025 Y60.5915 
X-20.5504 Y60.6669 
X-20.7082 Y60.7181 
X-20.8720 Y60.7441 
X-21.0380 
X-21.2018 Y60.7181 
X-21.3596 Y60.6669 
X-21.5075 Y60.5915 
X-21.6417 Y60.4940 
X-21.7590 Y60.3767 
X-21.8565 Y60.2425 
X-21.9319 Y60.0946 
X-21.9831 Y59.9368 
X-22.0091 Y59.7730 
Y59.6070 
X-21.9831 Y59.4432 
X-21.9319 Y59.2854 
X-21.8565 Y59.1375 
X-21.7590 Y59.0033 
X-21.6417 Y58.8860 
X-21.5075 Y58.7885 
X-21.3596 Y58.7131 
X-21.2018 Y58.6619 
X-21.0380 Y58.6359 
X-20.8720 
X-20.7082 Y58.6619 
X-20.5504 Y58.7131 
G00 Z2.5400  
G00 X-11.4817 Y58.8860 
G01 Z-0.1778 F254   
G01 X-11.3475 Y58.7885 F508   
G01 X-11.1996 Y58.7131 
X-11.1593 Y58.7000 
Y54.8244 
X-11.6652 Y54.3184 
X-11.8182 Y54.3681 
X-11.9820 Y54.3941 
X-12.1480 
X-12.3118 Y54.3681 
X-12.4696 Y54.3169 
X-12.6175 Y54.2415 
X-12.7517 Y54.1440 
X-12.8690 Y54.0267 
X-12.9665 Y53.8925 
X-13.0419 Y53.7446 
X-13.0931 Y53.5868 
X-13.1191 Y53.4230 
Y53.2570 
X-13.0931 Y53.0932 
X-13.0419 Y52.9354 
X-12.9665 Y52.7875 
X-12.8690 Y52.6533 
X-12.7517 Y52.5360 
X-12.6175 Y52.4385 
X-12.4696 Y52.3631 
X-12.3118 Y52.3119 
X-12.1480 Y52.2859 
X-11.9820 
X-11.8182 Y52.3119 
X-11.6604 Y52.3631 
X-11.5125 Y52.4385 
X-11.3783 Y52.5360 
X-11.2610 Y52.6533 
X-11.1635 Y52.7875 
X-11.0881 Y52.9354 
X-11.0607 Y53.0198 
X-8.6204 Y50.5795 
X-8.6729 Y50.4178 
X-8.6995 Y50.2500 
Y50.0800 
X-8.6729 Y49.9122 
X-8.6204 Y49.7506 
X-8.5433 Y49.5992 
X-8.4434 Y49.4618 
X-8.3232 Y49.3416 
X-8.1858 Y49.2417 
X-8.0344 Y49.1646 
X-7.8728 Y49.1121 
X-7.7050 Y49.0855 
X-7.5350 
X-7.3672 Y49.1121 
X-7.2056 Y49.1646 
X-7.0542 Y49.2417 
X-6.9168 Y49.3416 
X-6.7966 Y49.4618 
X-6.6967 Y49.5992 
X-6.6196 Y49.7506 
X-6.5671 Y49.9122 
X-6.5405 Y50.0800 
Y50.2500 
X-6.5671 Y50.4178 
X-6.6196 Y50.5794 
X-6.6967 Y50.7308 
X-6.7966 Y50.8682 
X-6.9168 Y50.9884 
X-7.0542 Y51.0883 
X-7.2056 Y51.1654 
X-7.3672 Y51.2179 
X-7.5350 Y51.2445 
X-7.7050 
X-7.8728 Y51.2179 
X-8.0344 Y51.1654 
X-10.9112 Y54.0421 
X-10.5035 Y54.4498 
X-10.4555 Y54.5329 
X-10.4307 Y54.6255 
Y58.7000 
X-10.3904 Y58.7131 
X-10.2425 Y58.7885 
X-10.1083 Y58.8860 
X-9.9910 Y59.0033 
X-9.8935 Y59.1375 
X-9.8181 Y59.2854 
X-9.7669 Y59.4432 
X-9.7409 Y59.6070 
Y59.7730 
X-9.7669 Y59.9368 
X-9.8181 Y60.0946 
X-9.8935 Y60.2425 
X-9.9910 Y60.3767 
X-10.1083 Y60.4940 
X-10.2425 Y60.5915 
X-10.3904 Y60.6669 
X-10.5482 Y60.7181 
X-10.7120 Y60.7441 
X-10.8780 
X-11.0418 Y60.7181 
X-11.1414 Y60.6858 
X-21.1122 Y70.6566 
Y70.9435 
X-21.0695 Y70.9611 
X-20.9034 Y71.0721 
X-20.7621 Y71.2134 
X-20.6511 Y71.3795 
X-20.5747 Y71.5641 
X-20.5357 Y71.7601 
Y71.9599 
X-20.5747 Y72.1559 
X-20.6511 Y72.3405 
X-20.7621 Y72.5066 
X-20.9034 Y72.6479 
X-21.0695 Y72.7589 
X-21.2541 Y72.8353 
X-21.4501 Y72.8743 
X-21.6499 
X-21.8459 Y72.8353 
X-22.0304 Y72.7589 
X-22.1966 Y72.6479 
X-22.3379 Y72.5066 
X-22.4489 Y72.3405 
X-22.5253 Y72.1559 
X-22.5643 Y71.9599 
Y71.7601 
X-22.5253 Y71.5641 
X-22.4489 Y71.3795 
X-22.3379 Y71.2134 
X-22.1966 Y71.0721 
X-22.0304 Y70.9611 
X-21.9408 Y70.9240 
Y70.4305 
X-21.9126 Y70.3251 
X-21.8580 Y70.2306 
X-11.7550 Y60.1276 
X-11.7719 Y60.0946 
X-11.8231 Y59.9368 
X-11.8491 Y59.7730 
Y59.6070 
X-11.8231 Y59.4432 
X-11.7719 Y59.2854 
X-11.6965 Y59.1375 
X-11.5990 Y59.0033 
X-11.4817 Y58.8860 
G00 Z2.5400  
G00 X-2.8819 Y58.8246 
G01 Z-0.1778 F254   
G01 X-2.9331 Y58.6668 F508   
G01 X-2.9591 Y58.5030 
Y58.3370 
X-2.9331 Y58.1732 
X-2.8819 Y58.0154 
X-2.8065 Y57.8675 
X-2.7090 Y57.7333 
X-2.5917 Y57.6160 
X-2.4575 Y57.5185 
X-2.3096 Y57.4431 
X-2.2193 Y57.4138 
Y54.3462 
X-2.3096 Y54.3169 
X-2.4575 Y54.2415 
X-2.5917 Y54.1440 
X-2.7090 Y54.0267 
X-2.8065 Y53.8925 
X-2.8819 Y53.7446 
X-2.9331 Y53.5868 
X-2.9591 Y53.4230 
Y53.2570 
X-2.9331 Y53.0932 
X-2.8819 Y52.9354 
X-2.8065 Y52.7875 
X-2.7090 Y52.6533 
X-2.5917 Y52.5360 
X-2.4575 Y52.4385 
X-2.3096 Y52.3631 
X-2.1518 Y52.3119 
X-1.9880 Y52.2859 
X-1.8220 
X-1.6582 Y52.3119 
X-1.5004 Y52.3631 
X-1.3525 Y52.4385 
X-1.2183 Y52.5360 
X-1.1010 Y52.6533 
X-1.0035 Y52.7875 
X-0.9281 Y52.9354 
X-0.8769 Y53.0932 
X-0.8509 Y53.2570 
Y53.4230 
X-0.8769 Y53.5868 
X-0.9281 Y53.7446 
X-1.0035 Y53.8925 
X-1.1010 Y54.0267 
X-1.2183 Y54.1440 
X-1.3525 Y54.2415 
X-1.5004 Y54.3169 
X-1.5907 Y54.3462 
Y57.4138 
X-1.5004 Y57.4431 
X-1.3525 Y57.5185 
X-1.2183 Y57.6160 
X-1.1010 Y57.7333 
X-1.0035 Y57.8675 
X-0.9281 Y58.0154 
X-0.8769 Y58.1732 
X-0.8509 Y58.3370 
Y58.5030 
X-0.8769 Y58.6668 
X-0.9281 Y58.8246 
X-1.0035 Y58.9725 
X-1.1010 Y59.1067 
X-1.2183 Y59.2240 
X-1.3525 Y59.3215 
X-1.5004 Y59.3969 
X-1.6582 Y59.4481 
X-1.8220 Y59.4741 
X-1.9880 
X-2.1518 Y59.4481 
X-2.3096 Y59.3969 
X-2.4575 Y59.3215 
X-2.5917 Y59.2240 
X-2.7090 Y59.1067 
X-2.8065 Y58.9725 
X-2.8819 Y58.8246 
G00 Z2.5400  
G00 X-2.8359 Y59.9687 
G01 Z-0.1778 F254   
G01 X-2.6689 Y60.0019 F508   
G01 X-2.5116 Y60.0671 
X-2.3700 Y60.1617 
X-2.2497 Y60.2820 
X-2.1551 Y60.4236 
X-2.0899 Y60.5809 
X-2.0567 Y60.7479 
Y60.9181 
X-2.0888 Y61.0793 
X-0.7480 Y62.4201 
X-0.6934 Y62.5146 
X-0.6652 Y62.6200 
Y81.0805 
X-0.6934 Y81.1859 
X-0.7480 Y81.2804 
X-0.8251 Y81.3575 
X-3.9366 Y84.4690 
X-4.0311 Y84.5236 
X-4.1365 Y84.5518 
X-4.2455 
X-5.3333 
X-5.4247 Y84.6885 
X-5.5450 Y84.8088 
X-5.6866 Y84.9034 
X-5.8439 Y84.9686 
X-6.0109 Y85.0018 
X-6.1811 
X-6.3481 Y84.9686 
X-6.5054 Y84.9034 
X-6.6470 Y84.8088 
X-6.7673 Y84.6885 
X-6.8619 Y84.5469 
X-6.9271 Y84.3896 
X-6.9603 Y84.2226 
Y84.0524 
X-6.9271 Y83.8854 
X-6.8619 Y83.7281 
X-6.7673 Y83.5865 
X-6.6470 Y83.4662 
X-6.5054 Y83.3716 
X-6.3481 Y83.3064 
X-6.1811 Y83.2732 
X-6.0109 
X-5.8439 Y83.3064 
X-5.6866 Y83.3716 
X-5.5450 Y83.4662 
X-5.4247 Y83.5865 
X-5.3333 Y83.7232 
X-4.3626 
X-1.4938 Y80.8544 
Y62.8461 
X-2.6747 Y61.6652 
X-2.8359 Y61.6973 
X-3.0061 
X-3.1731 Y61.6641 
X-3.3304 Y61.5989 
X-3.4720 Y61.5043 
X-3.5923 Y61.3840 
X-3.6869 Y61.2424 
X-3.7521 Y61.0851 
X-3.7853 Y60.9181 
Y60.7479 
X-3.7521 Y60.5809 
X-3.6869 Y60.4236 
X-3.5923 Y60.2820 
X-3.4720 Y60.1617 
X-3.3304 Y60.0671 
X-3.1731 Y60.0019 
X-3.0061 Y59.9687 
X-2.8359 
G00 Z2.5400  
G00 X-2.8533 Y62.2507 
G01 Z-0.1778 F254   
G01 X-2.6538 Y62.3659 F508   
G01 X-2.4710 Y62.5062 
X-2.3082 Y62.6690 
X-2.1679 Y62.8518 
X-2.0527 Y63.0513 
X-1.9646 Y63.2641 
X-1.9050 Y63.4866 
X-1.8749 Y63.7150 
Y63.9454 
X-1.9050 Y64.1738 
X-1.9646 Y64.3963 
X-2.0527 Y64.6091 
X-2.1679 Y64.8086 
X-2.3082 Y64.9914 
X-2.4710 Y65.1542 
X-2.6538 Y65.2945 
X-2.8533 Y65.4097 
X-3.0661 Y65.4978 
X-3.2886 Y65.5574 
X-3.5170 Y65.5875 
X-3.7474 
X-3.9758 Y65.5574 
X-4.1983 Y65.4978 
X-4.4111 Y65.4097 
X-4.6106 Y65.2945 
X-4.7934 Y65.1542 
X-4.9562 Y64.9914 
X-5.0965 Y64.8086 
X-5.2117 Y64.6091 
X-5.2998 Y64.3963 
X-5.3594 Y64.1738 
X-5.3895 Y63.9454 
Y63.7150 
X-5.3594 Y63.4866 
X-5.2998 Y63.2641 
X-5.2117 Y63.0513 
X-5.0965 Y62.8518 
X-4.9562 Y62.6690 
X-4.7934 Y62.5062 
X-4.6106 Y62.3659 
X-4.4111 Y62.2507 
X-4.1983 Y62.1626 
X-3.9758 Y62.1030 
X-3.7474 Y62.0729 
X-3.5170 
X-3.2886 Y62.1030 
X-3.0661 Y62.1626 
X-2.8533 Y62.2507 
G00 Z2.5400  
G00 X-7.5766 Y67.9807 
G01 Z-0.1778 F254   
G01 X-7.4703 Y68.1398 F508   
G01 X-7.3970 Y68.3166 
X-7.3597 Y68.5043 
Y68.6957 
X-7.3970 Y68.8834 
X-7.4703 Y69.0602 
X-7.5766 Y69.2193 
X-7.7119 Y69.3546 
X-7.8710 Y69.4609 
X-8.0478 Y69.5342 
X-8.2355 Y69.5715 
X-8.4269 
X-8.6146 Y69.5342 
X-8.7914 Y69.4609 
X-8.9505 Y69.3546 
X-9.0858 Y69.2193 
X-9.1921 Y69.0602 
X-9.2654 Y68.8834 
X-9.3027 Y68.6957 
Y68.5043 
X-9.2654 Y68.3166 
X-9.1921 Y68.1398 
X-9.0858 Y67.9807 
X-8.9505 Y67.8454 
X-8.7914 Y67.7391 
X-8.6146 Y67.6658 
X-8.4269 Y67.6285 
X-8.2355 
X-8.0478 Y67.6658 
X-7.8710 Y67.7391 
X-7.7119 Y67.8454 
X-7.5766 Y67.9807 
G00 Z2.5400  
G00 X-7.5766 Y70.4807 
G01 Z-0.1778 F254   
G01 X-7.4703 Y70.6398 F508   
G01 X-7.3970 Y70.8166 
X-7.3597 Y71.0043 
Y71.1957 
X-7.3970 Y71.3834 
X-7.4703 Y71.5602 
X-7.5766 Y71.7193 
X-7.7119 Y71.8546 
X-7.8710 Y71.9609 
X-8.0478 Y72.0342 
X-8.2355 Y72.0715 
X-8.4269 
X-8.6146 Y72.0342 
X-8.7914 Y71.9609 
X-8.9505 Y71.8546 
X-9.0858 Y71.7193 
X-9.1921 Y71.5602 
X-9.2654 Y71.3834 
X-9.3027 Y71.1957 
Y71.0043 
X-9.2654 Y70.8166 
X-9.1921 Y70.6398 
X-9.0858 Y70.4807 
X-8.9505 Y70.3454 
X-8.7914 Y70.2391 
X-8.6146 Y70.1658 
X-8.4269 Y70.1285 
X-8.2355 
X-8.0478 Y70.1658 
X-7.8710 Y70.2391 
X-7.7119 Y70.3454 
X-7.5766 Y70.4807 
G00 Z2.5400  
G00 X-7.1046 Y70.4807 
G01 Z-0.1778 F254   
G01 X-6.9693 Y70.3454 F508   
G01 X-6.8102 Y70.2391 
X-6.6334 Y70.1658 
X-6.4457 Y70.1285 
X-6.2543 
X-6.0666 Y70.1658 
X-5.8898 Y70.2391 
X-5.7307 Y70.3454 
X-5.5954 Y70.4807 
X-5.4891 Y70.6398 
X-5.4158 Y70.8166 
X-5.3785 Y71.0043 
Y71.1957 
X-5.4158 Y71.3834 
X-5.4891 Y71.5602 
X-5.5954 Y71.7193 
X-5.7307 Y71.8546 
X-5.8898 Y71.9609 
X-6.0666 Y72.0342 
X-6.2543 Y72.0715 
X-6.4457 
X-6.6334 Y72.0342 
X-6.8102 Y71.9609 
X-6.9693 Y71.8546 
X-7.1046 Y71.7193 
X-7.2109 Y71.5602 
X-7.2842 Y71.3834 
X-7.3215 Y71.1957 
Y71.0043 
X-7.2842 Y70.8166 
X-7.2109 Y70.6398 
X-7.1046 Y70.4807 
G00 Z2.5400  
G00 X-4.7934 Y74.5458 
G01 Z-0.1778 F254   
G01 X-4.6106 Y74.4055 F508   
G01 X-4.4111 Y74.2903 
X-4.1983 Y74.2022 
X-3.9758 Y74.1426 
X-3.7474 Y74.1125 
X-3.5170 
X-3.2886 Y74.1426 
X-3.0661 Y74.2022 
X-2.8533 Y74.2903 
X-2.6538 Y74.4055 
X-2.4710 Y74.5458 
X-2.3082 Y74.7086 
X-2.1679 Y74.8914 
X-2.0527 Y75.0909 
X-1.9646 Y75.3037 
X-1.9050 Y75.5262 
X-1.8749 Y75.7546 
Y75.9850 
X-1.9050 Y76.2134 
X-1.9646 Y76.4359 
X-2.0527 Y76.6487 
X-2.1679 Y76.8482 
X-2.3082 Y77.0310 
X-2.4710 Y77.1938 
X-2.6538 Y77.3341 
X-2.8533 Y77.4493 
X-3.0661 Y77.5374 
X-3.2886 Y77.5970 
X-3.5170 Y77.6271 
X-3.7474 
X-3.9758 Y77.5970 
X-4.1983 Y77.5374 
X-4.4111 Y77.4493 
X-4.6106 Y77.3341 
X-4.7934 Y77.1938 
X-4.9562 Y77.0310 
X-5.0965 Y76.8482 
X-5.2117 Y76.6487 
X-5.2998 Y76.4359 
X-5.3594 Y76.2134 
X-5.3895 Y75.9850 
Y75.7546 
X-5.3594 Y75.5262 
X-5.2998 Y75.3037 
X-5.2117 Y75.0909 
X-5.0965 Y74.8914 
X-4.9562 Y74.7086 
X-4.7934 Y74.5458 
G00 Z2.5400  
G00 X-5.6200 Y80.6809 
G01 Z-0.1778 F254   
G01 X-5.5172 Y80.8348 F508   
G01 X-5.4463 Y81.0059 
X-5.4102 Y81.1874 
Y81.3726 
X-5.4463 Y81.5541 
X-5.5172 Y81.7252 
X-5.6200 Y81.8791 
X-5.7509 Y82.0100 
X-5.9048 Y82.1128 
X-6.0759 Y82.1837 
X-6.2574 Y82.2198 
X-6.4426 
X-6.6241 Y82.1837 
X-6.7952 Y82.1128 
X-6.9491 Y82.0100 
X-7.0800 Y81.8791 
X-7.1828 Y81.7252 
X-7.2537 Y81.5541 
X-7.2898 Y81.3726 
Y81.1874 
X-7.2537 Y81.0059 
X-7.1828 Y80.8348 
X-7.0800 Y80.6809 
X-6.9491 Y80.5500 
X-6.7952 Y80.4472 
X-6.6241 Y80.3763 
X-6.4426 Y80.3402 
X-6.2574 
X-6.0759 Y80.3763 
X-5.9048 Y80.4472 
X-5.7509 Y80.5500 
X-5.6200 Y80.6809 
G00 Z2.5400  
G00 X-14.3385 Y80.7275 
G01 Z-0.1778 F254   
G01 X-14.2631 Y80.8754 F508   
G01 X-14.2119 Y81.0332 
X-14.1859 Y81.1970 
Y81.3630 
X-14.2119 Y81.5268 
X-14.2631 Y81.6846 
X-14.3385 Y81.8325 
X-14.4360 Y81.9667 
X-14.5533 Y82.0840 
X-14.6875 Y82.1815 
X-14.8354 Y82.2569 
X-14.9932 Y82.3081 
X-15.1570 Y82.3341 
X-15.3230 
X-15.4868 Y82.3081 
X-15.6446 Y82.2569 
X-15.7925 Y82.1815 
X-15.9267 Y82.0840 
X-16.0440 Y81.9667 
X-16.1415 Y81.8325 
X-16.2169 Y81.6846 
X-16.2681 Y81.5268 
X-16.2941 Y81.3630 
Y81.1970 
X-16.2681 Y81.0332 
X-16.2169 Y80.8754 
X-16.1415 Y80.7275 
X-16.0440 Y80.5933 
X-15.9267 Y80.4760 
X-15.7925 Y80.3785 
X-15.6446 Y80.3031 
X-15.4868 Y80.2519 
X-15.3230 Y80.2259 
X-15.1570 
X-14.9932 Y80.2519 
X-14.8354 Y80.3031 
X-14.6875 Y80.3785 
X-14.5533 Y80.4760 
X-14.4360 Y80.5933 
X-14.3385 Y80.7275 
G00 Z2.5400  
G00 X-16.6672 Y81.8704 
G01 Z-0.1778 F254   
G01 X-11.0985 Y87.4391 F508   
G01 X-11.0439 Y87.5336 
X-11.0157 Y87.6390 
Y94.4044 
X-10.9848 Y94.4172 
X-10.8309 Y94.5200 
X-10.7000 Y94.6509 
X-10.5972 Y94.8048 
X-10.5263 Y94.9759 
X-10.4902 Y95.1574 
Y95.3426 
X-10.5263 Y95.5241 
X-10.5972 Y95.6952 
X-10.7000 Y95.8491 
X-10.8309 Y95.9800 
X-10.9848 Y96.0828 
X-11.1559 Y96.1537 
X-11.3374 Y96.1898 
X-11.5226 
X-11.7041 Y96.1537 
X-11.8752 Y96.0828 
X-12.0291 Y95.9800 
X-12.1600 Y95.8491 
X-12.2628 Y95.6952 
X-12.3337 Y95.5241 
X-12.3698 Y95.3426 
Y95.1574 
X-12.3337 Y94.9759 
X-12.2628 Y94.8048 
X-12.1600 Y94.6509 
X-12.0291 Y94.5200 
X-11.8752 Y94.4172 
X-11.8443 Y94.4044 
Y87.8651 
X-17.3359 Y82.3735 
X-17.4130 Y82.2964 
X-17.4676 Y82.2019 
X-17.4958 Y82.0965 
Y69.1522 
X-17.6325 Y69.0608 
X-17.7528 Y68.9405 
X-17.8474 Y68.7989 
X-17.9126 Y68.6416 
X-17.9458 Y68.4746 
Y68.3044 
X-17.9126 Y68.1374 
X-17.8474 Y67.9801 
X-17.7528 Y67.8385 
X-17.6325 Y67.7182 
X-17.4909 Y67.6236 
X-17.3336 Y67.5584 
X-17.1666 Y67.5252 
X-16.9964 
X-16.8294 Y67.5584 
X-16.6721 Y67.6236 
X-16.5305 Y67.7182 
X-16.4102 Y67.8385 
X-16.3156 Y67.9801 
X-16.2504 Y68.1374 
X-16.2172 Y68.3044 
Y68.4746 
X-16.2504 Y68.6416 
X-16.3156 Y68.7989 
X-16.4102 Y68.9405 
X-16.5305 Y69.0608 
X-16.6672 Y69.1522 
Y81.8704 
G00 Z2.5400  
G00 X-18.4094 Y81.9804 
G01 Z-0.1778 F254   
G01 X-18.3762 Y82.1474 F508   
G01 X-18.3762 Y82.3176 
X-18.4094 Y82.4846 
X-18.4746 Y82.6419 
X-18.5692 Y82.7835 
X-18.6895 Y82.9038 
X-18.8311 Y82.9984 
X-18.9884 Y83.0636 
X-19.1554 Y83.0968 
X-19.3256 
X-19.4926 Y83.0636 
X-19.6499 Y82.9984 
X-19.7915 Y82.9038 
X-19.9118 Y82.7835 
X-20.0064 Y82.6419 
X-20.0716 Y82.4846 
X-20.1048 Y82.3176 
Y82.1474 
X-20.0716 Y81.9804 
X-20.0064 Y81.8231 
X-19.9118 Y81.6815 
X-19.7915 Y81.5612 
X-19.6548 Y81.4698 
Y71.6922 
X-19.7915 Y71.6008 
X-19.9118 Y71.4805 
X-20.0064 Y71.3389 
X-20.0716 Y71.1816 
X-20.1048 Y71.0146 
Y70.8444 
X-20.0716 Y70.6774 
X-20.0064 Y70.5201 
X-19.9118 Y70.3785 
X-19.7915 Y70.2582 
X-19.6499 Y70.1636 
X-19.4926 Y70.0984 
X-19.3256 Y70.0652 
X-19.1554 
X-18.9884 Y70.0984 
X-18.8311 Y70.1636 
X-18.6895 Y70.2582 
X-18.5692 Y70.3785 
X-18.4746 Y70.5201 
X-18.4094 Y70.6774 
X-18.3762 Y70.8444 
Y71.0146 
X-18.4094 Y71.1816 
X-18.4746 Y71.3389 
X-18.5692 Y71.4805 
X-18.6895 Y71.6008 
X-18.8262 Y71.6922 
Y81.4698 
X-18.6895 Y81.5612 
X-18.5692 Y81.6815 
X-18.4746 Y81.8231 
X-18.4094 Y81.9804 
G00 Z2.5400  
G00 X-20.5357 Y81.9201 
G01 Z-0.1778 F254   
G01 X-20.5357 Y82.1199 F508   
G01 X-20.5747 Y82.3159 
X-20.6511 Y82.5005 
X-20.7621 Y82.6666 
X-20.9034 Y82.8079 
X-21.0695 Y82.9189 
X-21.2541 Y82.9953 
X-21.4501 Y83.0343 
X-21.6499 
X-21.8459 Y82.9953 
X-22.0304 Y82.9189 
X-22.1966 Y82.8079 
X-22.3379 Y82.6666 
X-22.4489 Y82.5005 
X-22.5253 Y82.3159 
X-22.5643 Y82.1199 
Y81.9201 
X-22.5598 Y81.8976 
X-43.4315 Y61.0260 
X-43.4729 Y60.9543 
X-43.4943 Y60.8744 
Y60.5564 
X-43.6161 Y60.5059 
X-43.7669 Y60.4052 
X-43.8952 Y60.2769 
X-43.9959 Y60.1261 
X-44.0653 Y59.9586 
X-44.1007 Y59.7807 
Y59.5993 
X-44.0653 Y59.4214 
X-43.9959 Y59.2539 
X-43.8952 Y59.1031 
X-43.7669 Y58.9748 
X-43.6161 Y58.8741 
X-43.4486 Y58.8047 
X-43.2707 Y58.7693 
X-43.0893 
X-42.9114 Y58.8047 
X-42.7439 Y58.8741 
X-42.5931 Y58.9748 
X-42.4648 Y59.1031 
X-42.3641 Y59.2539 
X-42.2947 Y59.4214 
X-42.2593 Y59.5993 
Y59.7807 
X-42.2947 Y59.9586 
X-42.3641 Y60.1261 
X-42.4648 Y60.2769 
X-42.5931 Y60.4052 
X-42.7439 Y60.5059 
X-42.8657 Y60.5564 
Y60.7028 
X-22.2665 Y81.3020 
X-22.1966 Y81.2321 
X-22.0304 Y81.1211 
X-21.8459 Y81.0447 
X-21.6499 Y81.0057 
X-21.4501 
X-21.2541 Y81.0447 
X-21.0695 Y81.1211 
X-20.9034 Y81.2321 
X-20.7621 Y81.3734 
X-20.6511 Y81.5395 
X-20.5747 Y81.7241 
X-20.5357 Y81.9201 
G00 Z2.5400  
G00 X-20.9034 Y80.2679 
G01 Z-0.1778 F254   
G01 X-21.0695 Y80.3789 F508   
G01 X-21.2541 Y80.4553 
X-21.4501 Y80.4943 
X-21.6499 
X-21.8459 Y80.4553 
X-22.0304 Y80.3789 
X-22.1966 Y80.2679 
X-22.3379 Y80.1266 
X-22.4489 Y79.9604 
X-22.5253 Y79.7759 
X-22.5643 Y79.5799 
Y79.3801 
X-22.5598 Y79.3577 
X-40.8915 Y61.0260 
X-40.9329 Y60.9543 
X-40.9543 Y60.8744 
Y60.5564 
X-41.0761 Y60.5059 
X-41.2269 Y60.4052 
X-41.3552 Y60.2769 
X-41.4559 Y60.1261 
X-41.5253 Y59.9586 
X-41.5607 Y59.7807 
Y59.5993 
X-41.5253 Y59.4214 
X-41.4559 Y59.2539 
X-41.3552 Y59.1031 
X-41.2269 Y58.9748 
X-41.0761 Y58.8741 
X-40.9086 Y58.8047 
X-40.7307 Y58.7693 
X-40.5493 
X-40.3714 Y58.8047 
X-40.2039 Y58.8741 
X-40.0531 Y58.9748 
X-39.9248 Y59.1031 
X-39.8241 Y59.2539 
X-39.7547 Y59.4214 
X-39.7193 Y59.5993 
Y59.7807 
X-39.7547 Y59.9586 
X-39.8241 Y60.1261 
X-39.9248 Y60.2769 
X-40.0531 Y60.4052 
X-40.2039 Y60.5059 
X-40.3257 Y60.5564 
Y60.7028 
X-22.2665 Y78.7620 
X-22.1966 Y78.6921 
X-22.0304 Y78.5811 
X-21.8459 Y78.5047 
X-21.6499 Y78.4657 
X-21.4501 
X-21.2541 Y78.5047 
X-21.0695 Y78.5811 
X-20.9034 Y78.6921 
X-20.7621 Y78.8334 
X-20.6511 Y78.9995 
X-20.5747 Y79.1841 
X-20.5357 Y79.3801 
Y79.5799 
X-20.5747 Y79.7759 
X-20.6511 Y79.9604 
X-20.7621 Y80.1266 
X-20.9034 Y80.2679 
G00 Z2.5400  
G00 X-20.9034 Y77.7279 
G01 Z-0.1778 F254   
G01 X-21.0695 Y77.8389 F508   
G01 X-21.2541 Y77.9153 
X-21.4501 Y77.9543 
X-21.6499 
X-21.8459 Y77.9153 
X-22.0304 Y77.8389 
X-22.1966 Y77.7279 
X-22.3379 Y77.5866 
X-22.4489 Y77.4205 
X-22.5253 Y77.2359 
X-22.5643 Y77.0399 
Y76.8401 
X-22.5598 Y76.8177 
X-38.3515 Y61.0260 
X-38.3929 Y60.9543 
X-38.4143 Y60.8744 
Y60.5564 
X-38.5361 Y60.5059 
X-38.6869 Y60.4052 
X-38.8152 Y60.2769 
X-38.9159 Y60.1261 
X-38.9853 Y59.9586 
X-39.0207 Y59.7807 
Y59.5993 
X-38.9853 Y59.4214 
X-38.9159 Y59.2539 
X-38.8152 Y59.1031 
X-38.6869 Y58.9748 
X-38.5361 Y58.8741 
X-38.3686 Y58.8047 
X-38.1907 Y58.7693 
X-38.0093 
X-37.8314 Y58.8047 
X-37.6639 Y58.8741 
X-37.5131 Y58.9748 
X-37.3848 Y59.1031 
X-37.2841 Y59.2539 
X-37.2147 Y59.4214 
X-37.1793 Y59.5993 
Y59.7807 
X-37.2147 Y59.9586 
X-37.2841 Y60.1261 
X-37.3848 Y60.2769 
X-37.5131 Y60.4052 
X-37.6639 Y60.5059 
X-37.7857 Y60.5564 
Y60.7028 
X-22.2665 Y76.2220 
X-22.1966 Y76.1521 
X-22.0304 Y76.0411 
X-21.8459 Y75.9647 
X-21.6499 Y75.9257 
X-21.4501 
X-21.2541 Y75.9647 
X-21.0695 Y76.0411 
X-20.9034 Y76.1521 
X-20.7621 Y76.2934 
X-20.6511 Y76.4595 
X-20.5747 Y76.6441 
X-20.5357 Y76.8401 
Y77.0399 
X-20.5747 Y77.2359 
X-20.6511 Y77.4205 
X-20.7621 Y77.5866 
X-20.9034 Y77.7279 
G00 Z2.5400  
G00 X-20.9034 Y75.1879 
G01 Z-0.1778 F254   
G01 X-21.0695 Y75.2989 F508   
G01 X-21.2541 Y75.3753 
X-21.4501 Y75.4143 
X-21.6499 
X-21.8459 Y75.3753 
X-22.0304 Y75.2989 
X-22.1966 Y75.1879 
X-22.3379 Y75.0466 
X-22.4489 Y74.8804 
X-22.5253 Y74.6959 
X-22.5643 Y74.4999 
Y74.3001 
X-22.5253 Y74.1041 
X-22.4489 Y73.9195 
X-22.3379 Y73.7534 
X-22.1966 Y73.6121 
X-22.0304 Y73.5011 
X-21.8459 Y73.4247 
X-21.6499 Y73.3857 
X-21.4501 
X-21.2541 Y73.4247 
X-21.0695 Y73.5011 
X-20.9034 Y73.6121 
X-20.7621 Y73.7534 
X-20.6511 Y73.9195 
X-20.5747 Y74.1041 
X-20.5357 Y74.3001 
Y74.4999 
X-20.5747 Y74.6959 
X-20.6511 Y74.8804 
X-20.7621 Y75.0466 
X-20.9034 Y75.1879 
G00 Z2.5400  
G00 X-15.9267 Y75.3960 
G01 Z-0.1778 F254   
G01 X-15.7925 Y75.2985 F508   
G01 X-15.6446 Y75.2231 
X-15.4868 Y75.1719 
X-15.3230 Y75.1459 
X-15.1570 
X-14.9932 Y75.1719 
X-14.8354 Y75.2231 
X-14.6875 Y75.2985 
X-14.5533 Y75.3960 
X-14.4360 Y75.5133 
X-14.3385 Y75.6475 
X-14.2631 Y75.7954 
X-14.2119 Y75.9532 
X-14.1859 Y76.1170 
Y76.2830 
X-14.2119 Y76.4468 
X-14.2631 Y76.6046 
X-14.3385 Y76.7525 
X-14.4360 Y76.8867 
X-14.5533 Y77.0040 
X-14.6875 Y77.1015 
X-14.8354 Y77.1769 
X-14.9932 Y77.2281 
X-15.1570 Y77.2541 
X-15.3230 
X-15.4868 Y77.2281 
X-15.6446 Y77.1769 
X-15.7925 Y77.1015 
X-15.9267 Y77.0040 
X-16.0440 Y76.8867 
X-16.1415 Y76.7525 
X-16.2169 Y76.6046 
X-16.2681 Y76.4468 
X-16.2941 Y76.2830 
Y76.1170 
X-16.2681 Y75.9532 
X-16.2169 Y75.7954 
X-16.1415 Y75.6475 
X-16.0440 Y75.5133 
X-15.9267 Y75.3960 
G00 Z2.5400  
G00 X-20.7621 Y83.9134 
G01 Z-0.1778 F254   
G01 X-20.6511 Y84.0795 F508   
G01 X-20.5747 Y84.2641 
X-20.5357 Y84.4601 
Y84.6599 
X-20.5747 Y84.8559 
X-20.6511 Y85.0405 
X-20.7621 Y85.2066 
X-20.9034 Y85.3479 
X-21.0695 Y85.4589 
X-21.2541 Y85.5353 
X-21.4501 Y85.5743 
X-21.6499 
X-21.8459 Y85.5353 
X-22.0304 Y85.4589 
X-22.1966 Y85.3479 
X-22.3379 Y85.2066 
X-22.4489 Y85.0405 
X-22.5253 Y84.8559 
X-22.5643 Y84.6599 
Y84.4601 
X-22.5598 Y84.4376 
X-45.9715 Y61.0260 
X-46.0129 Y60.9543 
X-46.0343 Y60.8744 
Y60.5564 
X-46.1561 Y60.5059 
X-46.3069 Y60.4052 
X-46.4352 Y60.2769 
X-46.5359 Y60.1261 
X-46.6053 Y59.9586 
X-46.6407 Y59.7807 
Y59.5993 
X-46.6053 Y59.4214 
X-46.5359 Y59.2539 
X-46.4352 Y59.1031 
X-46.3069 Y58.9748 
X-46.1561 Y58.8741 
X-45.9886 Y58.8047 
X-45.8107 Y58.7693 
X-45.6293 
X-45.4514 Y58.8047 
X-45.2839 Y58.8741 
X-45.1331 Y58.9748 
X-45.0048 Y59.1031 
X-44.9041 Y59.2539 
X-44.8347 Y59.4214 
X-44.7993 Y59.5993 
Y59.7807 
X-44.8347 Y59.9586 
X-44.9041 Y60.1261 
X-45.0048 Y60.2769 
X-45.1331 Y60.4052 
X-45.2839 Y60.5059 
X-45.4057 Y60.5564 
Y60.7028 
X-22.2665 Y83.8420 
X-22.1966 Y83.7721 
X-22.0304 Y83.6611 
X-21.8459 Y83.5847 
X-21.6499 Y83.5457 
X-21.4501 
X-21.2541 Y83.5847 
X-21.0695 Y83.6611 
X-20.9034 Y83.7721 
X-20.7621 Y83.9134 
G00 Z2.5400  
G00 X-20.7621 Y86.4534 
G01 Z-0.1778 F254   
G01 X-20.6511 Y86.6195 F508   
G01 X-20.5747 Y86.8041 
X-20.5357 Y87.0001 
Y87.1999 
X-20.5747 Y87.3959 
X-20.6511 Y87.5804 
X-20.7621 Y87.7466 
X-20.9034 Y87.8879 
X-21.0695 Y87.9989 
X-21.2541 Y88.0753 
X-21.4501 Y88.1143 
X-21.6499 
X-21.8459 Y88.0753 
X-22.0304 Y87.9989 
X-22.1966 Y87.8879 
X-22.3379 Y87.7466 
X-22.4489 Y87.5804 
X-22.5253 Y87.3959 
X-22.5643 Y87.1999 
Y87.0001 
X-22.5598 Y86.9776 
X-48.5115 Y61.0260 
X-48.5529 Y60.9543 
X-48.5743 Y60.8744 
Y60.5564 
X-48.6961 Y60.5059 
X-48.8469 Y60.4052 
X-48.9752 Y60.2769 
X-49.0759 Y60.1261 
X-49.1453 Y59.9586 
X-49.1807 Y59.7807 
Y59.5993 
X-49.1453 Y59.4214 
X-49.0759 Y59.2539 
X-48.9752 Y59.1031 
X-48.8469 Y58.9748 
X-48.6961 Y58.8741 
X-48.5286 Y58.8047 
X-48.3507 Y58.7693 
X-48.1693 
X-47.9914 Y58.8047 
X-47.8239 Y58.8741 
X-47.6731 Y58.9748 
X-47.5448 Y59.1031 
X-47.4441 Y59.2539 
X-47.3747 Y59.4214 
X-47.3393 Y59.5993 
Y59.7807 
X-47.3747 Y59.9586 
X-47.4441 Y60.1261 
X-47.5448 Y60.2769 
X-47.6731 Y60.4052 
X-47.8239 Y60.5059 
X-47.9457 Y60.5564 
Y60.7028 
X-22.2665 Y86.3820 
X-22.1966 Y86.3121 
X-22.0304 Y86.2011 
X-21.8459 Y86.1247 
X-21.6499 Y86.0857 
X-21.4501 
X-21.2541 Y86.1247 
X-21.0695 Y86.2011 
X-20.9034 Y86.3121 
X-20.7621 Y86.4534 
G00 Z2.5400  
G00 X-20.7621 Y88.9934 
G01 Z-0.1778 F254   
G01 X-20.6511 Y89.1595 F508   
G01 X-20.5747 Y89.3441 
X-20.5357 Y89.5401 
Y89.7399 
X-20.5747 Y89.9359 
X-20.6511 Y90.1205 
X-20.7621 Y90.2866 
X-20.9034 Y90.4279 
X-21.0695 Y90.5389 
X-21.2541 Y90.6153 
X-21.4501 Y90.6543 
X-21.6499 
X-21.8459 Y90.6153 
X-22.0304 Y90.5389 
X-22.1966 Y90.4279 
X-22.3379 Y90.2866 
X-22.4489 Y90.1205 
X-22.5253 Y89.9359 
X-22.5643 Y89.7399 
Y89.5401 
X-22.5253 Y89.3441 
X-22.4489 Y89.1595 
X-22.3379 Y88.9934 
X-22.1966 Y88.8521 
X-22.0304 Y88.7411 
X-21.8459 Y88.6647 
X-21.6499 Y88.6257 
X-21.4501 
X-21.2541 Y88.6647 
X-21.0695 Y88.7411 
X-20.9034 Y88.8521 
X-20.7621 Y88.9934 
G00 Z2.5400  
G00 X-9.4891 Y94.5200 
G01 Z-0.1778 F254   
G01 X-9.3352 Y94.4172 F508   
G01 X-9.1641 Y94.3463 
X-8.9826 Y94.3102 
X-8.7974 
X-8.6159 Y94.3463 
X-8.4448 Y94.4172 
X-8.2909 Y94.5200 
X-8.1600 Y94.6509 
X-8.0572 Y94.8048 
X-7.9863 Y94.9759 
X-7.9502 Y95.1574 
Y95.3426 
X-7.9863 Y95.5241 
X-8.0572 Y95.6952 
X-8.1600 Y95.8491 
X-8.2909 Y95.9800 
X-8.4448 Y96.0828 
X-8.6159 Y96.1537 
X-8.7974 Y96.1898 
X-8.9826 
X-9.1641 Y96.1537 
X-9.3352 Y96.0828 
X-9.4891 Y95.9800 
X-9.6200 Y95.8491 
X-9.7228 Y95.6952 
X-9.7937 Y95.5241 
X-9.8298 Y95.3426 
Y95.1574 
X-9.7937 Y94.9759 
X-9.7228 Y94.8048 
X-9.6200 Y94.6509 
X-9.4891 Y94.5200 
G00 Z2.5400  
G00 X-27.2620 Y63.0283 
G01 Z-0.1778 F254   
G01 X-27.4036 Y63.1229 F508   
G01 X-27.5609 Y63.1881 
X-27.7279 Y63.2213 
X-27.8981 
X-28.0651 Y63.1881 
X-28.2224 Y63.1229 
X-28.3640 Y63.0283 
X-28.4843 Y62.9080 
X-28.5789 Y62.7664 
X-28.6441 Y62.6091 
X-28.6773 Y62.4421 
Y62.2719 
X-28.6452 Y62.1107 
X-40.1766 Y50.5793 
X-59.5623 
X-59.6537 Y50.7160 
X-59.7740 Y50.8363 
X-59.9156 Y50.9309 
X-60.0729 Y50.9961 
X-60.2399 Y51.0293 
X-60.4101 
X-60.5771 Y50.9961 
X-60.7344 Y50.9309 
X-60.8760 Y50.8363 
X-60.9963 Y50.7160 
X-61.0909 Y50.5744 
X-61.1561 Y50.4171 
X-61.1893 Y50.2501 
Y50.0799 
X-61.1561 Y49.9129 
X-61.0909 Y49.7556 
X-60.9963 Y49.6140 
X-60.8760 Y49.4937 
X-60.7344 Y49.3991 
X-60.5771 Y49.3339 
X-60.4101 Y49.3007 
X-60.2399 
X-60.0729 Y49.3339 
X-59.9156 Y49.3991 
X-59.7740 Y49.4937 
X-59.6537 Y49.6140 
X-59.5623 Y49.7507 
X-39.9505 
X-39.8451 Y49.7789 
X-39.7506 Y49.8335 
X-39.6735 Y49.9106 
X-28.0593 Y61.5248 
X-27.8981 Y61.4927 
X-27.7279 
X-27.5609 Y61.5259 
X-27.4036 Y61.5911 
X-27.2620 Y61.6857 
X-27.1417 Y61.8060 
X-27.0471 Y61.9476 
X-26.9819 Y62.1049 
X-26.9487 Y62.2719 
Y62.4421 
X-26.9819 Y62.6091 
X-27.0471 Y62.7664 
X-27.1417 Y62.9080 
X-27.2620 Y63.0283 
G00 Z2.5400  
G00 X-32.4331 Y60.4052 
G01 Z-0.1778 F254   
G01 X-32.5839 Y60.5059 F508   
G01 X-32.7514 Y60.5753 
X-32.9293 Y60.6107 
X-33.1107 
X-33.2886 Y60.5753 
X-33.4561 Y60.5059 
X-33.6069 Y60.4052 
X-33.7352 Y60.2769 
X-33.8359 Y60.1261 
X-33.9053 Y59.9586 
X-33.9407 Y59.7807 
Y59.5993 
X-33.9053 Y59.4214 
X-33.8359 Y59.2539 
X-33.7352 Y59.1031 
X-33.6069 Y58.9748 
X-33.4561 Y58.8741 
X-33.2886 Y58.8047 
X-33.1107 Y58.7693 
X-32.9293 
X-32.7514 Y58.8047 
X-32.5839 Y58.8741 
X-32.4331 Y58.9748 
X-32.3048 Y59.1031 
X-32.2041 Y59.2539 
X-32.1347 Y59.4214 
X-32.0993 Y59.5993 
Y59.7807 
X-32.1347 Y59.9586 
X-32.2041 Y60.1261 
X-32.3048 Y60.2769 
X-32.4331 Y60.4052 
G00 Z2.5400  
G00 X-34.9731 Y60.4052 
G01 Z-0.1778 F254   
G01 X-35.1239 Y60.5059 F508   
G01 X-35.2914 Y60.5753 
X-35.4693 Y60.6107 
X-35.6507 
X-35.8286 Y60.5753 
X-35.9961 Y60.5059 
X-36.1469 Y60.4052 
X-36.2752 Y60.2769 
X-36.3759 Y60.1261 
X-36.4453 Y59.9586 
X-36.4807 Y59.7807 
Y59.5993 
X-36.4453 Y59.4214 
X-36.3759 Y59.2539 
X-36.2752 Y59.1031 
X-36.1469 Y58.9748 
X-35.9961 Y58.8741 
X-35.8286 Y58.8047 
X-35.6507 Y58.7693 
X-35.4693 
X-35.2914 Y58.8047 
X-35.1239 Y58.8741 
X-34.9731 Y58.9748 
X-34.8448 Y59.1031 
X-34.7441 Y59.2539 
X-34.6747 Y59.4214 
X-34.6393 Y59.5993 
Y59.7807 
X-34.6747 Y59.9586 
X-34.7441 Y60.1261 
X-34.8448 Y60.2769 
X-34.9731 Y60.4052 
G00 Z2.5400  
G00 X-50.2131 Y60.4052 
G01 Z-0.1778 F254   
G01 X-50.3639 Y60.5059 F508   
G01 X-50.4857 Y60.5564 
Y63.8589 
X-50.5071 Y63.9388 
X-50.5485 Y64.0105 
X-81.2825 Y94.7445 
X-81.3410 Y94.8030 
X-81.4127 Y94.8444 
X-81.4926 Y94.8658 
X-87.3761 
X-87.3797 Y94.8836 
X-87.4491 Y95.0511 
X-87.5498 Y95.2019 
X-87.6781 Y95.3302 
X-87.8289 Y95.4309 
X-87.9964 Y95.5003 
X-88.1743 Y95.5357 
X-88.3557 
X-88.5336 Y95.5003 
X-88.7011 Y95.4309 
X-88.8519 Y95.3302 
X-88.9802 Y95.2019 
X-89.0809 Y95.0511 
X-89.1314 Y94.9293 
X-91.2086 
