(.../pcb-gcode-3.6.2.4/pcb-gcode.ulp)
(Copyright 2005 - 2012 by John Johnson)
(See readme.txt for licensing terms.)
(This file generated from the board:)
(.../3K_valdiklis_v1/3K_valdiklis_v1.2.brd)
(Current profile is .../pcb-gcode-3.6.2.4/profiles/mach.pp  )
(This file generated 2016.11.03 22:13:17)
(Settings from pcb-machine.h)
(spindle on time = 3.0000)
(  Tool Size)
(0.3048  )
(spindle speed = 30000.0000)
(tool change at 0.0000  0.0000  25.4000 )
(feed rate xy = F508   )
(feed rate z  = F254   )
(Z Axis Settings)
(  High     Up        Down     Drill)
(12.7000 	2.5400  	-0.1778 	-1.5000 )
(Settings from pcb-defaults.h)
(isolate min = 0.0254)
(isolate max = 0.5080)
(isolate step = 0.1270)
(Generated top outlines, top drill, top stencil, bottom outlines, bottom stencil)
(Unit of measure: mm)
(Metric Mode)
G21
(Absolute Coordinates)
G90
S30000
G00 Z12.7000 
G00 X0.0000  Y0.0000  
M03
G04 P3.000000
G00 Z2.5400  
G00 X-6.9730 Y2.5325  
G01 Z-0.1778 F254   
G01 X-6.8637 Y2.6829  F508   
G01 X-6.7793 Y2.8486  
X-6.7219 Y3.0254  
X-6.6928 Y3.2090  
Y3.3950  
X-6.7219 Y3.5786  
X-6.7793 Y3.7554  
X-6.8637 Y3.9211  
X-6.9730 Y4.0715  
X-7.1045 Y4.2030  
X-7.2549 Y4.3122  
X-7.4206 Y4.3967  
X-7.5974 Y4.4541  
X-7.7810 Y4.4832  
X-7.9670 
X-8.1506 Y4.4541  
X-8.3274 Y4.3967  
X-8.4931 Y4.3122  
X-8.6435 Y4.2030  
X-8.7750 Y4.0715  
X-8.8842 Y3.9211  
X-8.9562 Y3.7798  
X-10.7876 
X-14.3507 Y7.3429  
X-14.2933 Y7.5196  
X-14.2620 Y7.7170  
Y7.9169  
X-14.2933 Y8.1144  
X-14.3550 Y8.3045  
X-14.4458 Y8.4826  
X-14.5633 Y8.6443  
X-14.7047 Y8.7857  
X-14.8664 Y8.9032  
X-15.0445 Y8.9940  
X-15.2346 Y9.0557  
X-15.4320 Y9.0870  
X-15.6319 
X-15.8294 Y9.0557  
X-16.0195 Y8.9940  
X-16.1976 Y8.9032  
X-16.3593 Y8.7857  
X-16.5007 Y8.6443  
X-16.6182 Y8.4826  
X-16.7090 Y8.3045  
X-16.7707 Y8.1144  
X-16.8020 Y7.9169  
Y7.7170  
X-16.7707 Y7.5196  
X-16.7090 Y7.3295  
X-16.6182 Y7.1514  
X-16.5007 Y6.9897  
X-16.3593 Y6.8483  
X-16.1976 Y6.7308  
X-16.0195 Y6.6400  
X-15.8294 Y6.5783  
X-15.6319 Y6.5470  
X-15.4320 
X-15.2346 Y6.5783  
X-15.0445 Y6.6400  
X-15.0145 Y6.6553  
X-11.2789 Y2.9197  
X-11.1699 Y2.8568  
X-11.0484 Y2.8242  
X-8.9562 
X-8.8842 Y2.6829  
X-8.7750 Y2.5325  
X-8.6435 Y2.4010  
X-8.4931 Y2.2917  
X-8.3274 Y2.2073  
X-8.1506 Y2.1499  
X-7.9670 Y2.1208  
X-7.7810 
X-7.5974 Y2.1499  
X-7.4206 Y2.2073  
X-7.2549 Y2.2917  
X-7.1045 Y2.4010  
X-6.9730 Y2.5325  
G00 Z2.5400  
G00 X-6.9730 Y6.3425  
G01 Z-0.1778 F254   
G01 X-6.8637 Y6.4929  F508   
G01 X-6.7793 Y6.6586  
X-6.7219 Y6.8354  
X-6.6928 Y7.0190  
Y7.2050  
X-6.7219 Y7.3886  
X-6.7793 Y7.5654  
X-6.8637 Y7.7311  
X-6.9730 Y7.8815  
X-7.1045 Y8.0130  
X-7.2549 Y8.1222  
X-7.4206 Y8.2067  
X-7.5974 Y8.2641  
X-7.7810 Y8.2932  
X-7.9670 
X-8.1506 Y8.2641  
X-8.3014 Y8.2151  
X-9.8727 Y9.7864  
Y13.9738 
X-9.7854 Y14.0183 
X-9.6393 Y14.1245 
X-9.5115 Y14.2523 
X-9.4053 Y14.3984 
X-9.3233 Y14.5594 
X-9.2675 Y14.7312 
X-9.2392 Y14.9097 
Y15.0903 
X-9.2675 Y15.2688 
X-9.3233 Y15.4406 
X-9.4053 Y15.6016 
X-9.5115 Y15.7477 
X-9.6393 Y15.8755 
X-9.7854 Y15.9817 
X-9.9464 Y16.0637 
X-10.1182 Y16.1195 
X-10.2967 Y16.1478 
X-10.4773 
X-10.6558 Y16.1195 
X-10.8276 Y16.0637 
X-10.9886 Y15.9817 
X-11.1347 Y15.8755 
X-11.2625 Y15.7477 
X-11.3687 Y15.6016 
X-11.4507 Y15.4406 
X-11.5065 Y15.2688 
X-11.5348 Y15.0903 
Y14.9097 
X-11.5065 Y14.7312 
X-11.4507 Y14.5594 
X-11.3687 Y14.3984 
X-11.2625 Y14.2523 
X-11.1347 Y14.1245 
X-10.9886 Y14.0183 
X-10.8283 Y13.9366 
Y9.5256  
X-10.7957 Y9.4041  
X-10.7328 Y9.2951  
X-8.9771 Y7.5394  
X-9.0261 Y7.3886  
X-9.0552 Y7.2050  
Y7.0190  
X-9.0261 Y6.8354  
X-8.9687 Y6.6586  
X-8.8842 Y6.4929  
X-8.7750 Y6.3425  
X-8.6435 Y6.2110  
X-8.4931 Y6.1017  
X-8.3274 Y6.0173  
X-8.1506 Y5.9599  
X-7.9670 Y5.9308  
X-7.7810 
X-7.5974 Y5.9599  
X-7.4206 Y6.0173  
X-7.2549 Y6.1017  
X-7.1045 Y6.2110  
X-6.9730 Y6.3425  
G00 Z2.5400  
G00 X-18.0633 Y6.9897  
G01 Z-0.1778 F254   
G01 X-17.9458 Y7.1514  F508   
G01 X-17.8550 Y7.3295  
X-17.7933 Y7.5196  
X-17.7620 Y7.7170  
Y7.9169  
X-17.7933 Y8.1144  
X-17.8550 Y8.3045  
X-17.8636 Y8.3212  
X-15.0482 Y11.1366 
X-14.9853 Y11.2456 
X-14.9527 Y11.3671 
Y13.9342 
X-14.9464 
X-14.7854 Y14.0183 
X-14.6393 Y14.1245 
X-14.5115 Y14.2523 
X-14.4053 Y14.3984 
X-14.3233 Y14.5594 
X-14.2675 Y14.7312 
X-14.2392 Y14.9097 
Y15.0903 
X-14.2675 Y15.2688 
X-14.3233 Y15.4406 
X-14.4053 Y15.6016 
X-14.5115 Y15.7477 
X-14.6393 Y15.8755 
X-14.7854 Y15.9817 
X-14.9464 Y16.0637 
X-15.1182 Y16.1195 
X-15.2967 Y16.1478 
X-15.4773 
X-15.6558 Y16.1195 
X-15.8276 Y16.0637 
X-15.9886 Y15.9817 
X-16.1347 Y15.8755 
X-16.2625 Y15.7477 
X-16.3687 Y15.6016 
X-16.4507 Y15.4406 
X-16.5065 Y15.2688 
X-16.5348 Y15.0903 
Y14.9097 
X-16.5065 Y14.7312 
X-16.4507 Y14.5594 
X-16.3687 Y14.3984 
X-16.2625 Y14.2523 
X-16.1347 Y14.1245 
X-15.9886 Y14.0183 
X-15.9083 Y13.9774 
Y11.6279 
X-18.5430 Y8.9932  
X-18.7346 Y9.0557  
X-18.9320 Y9.0870  
X-19.1319 
X-19.3294 Y9.0557  
X-19.5195 Y8.9940  
X-19.6976 Y8.9032  
X-19.8593 Y8.7857  
X-20.0007 Y8.6443  
X-20.1182 Y8.4826  
X-20.2090 Y8.3045  
X-20.2707 Y8.1144  
X-20.3020 Y7.9169  
Y7.7170  
X-20.2707 Y7.5196  
X-20.2090 Y7.3295  
X-20.1182 Y7.1514  
X-20.0007 Y6.9897  
X-19.8593 Y6.8483  
X-19.6976 Y6.7308  
X-19.5195 Y6.6400  
X-19.3294 Y6.5783  
X-19.1319 Y6.5470  
X-18.9320 
X-18.7346 Y6.5783  
X-18.5445 Y6.6400  
X-18.3664 Y6.7308  
X-18.2047 Y6.8483  
X-18.0633 Y6.9897  
G00 Z2.5400  
G00 X-28.5893 Y5.1475  
G01 Z-0.1778 F254   
G01 X-28.7354 Y5.2537  F508   
G01 X-28.8592 Y5.3168  
Y20.5734 
X-28.8918 Y20.6949 
X-28.9547 Y20.8039 
X-29.0436 Y20.8928 
X-32.5888 Y24.4380 
X-32.5636 Y24.4873 
X-32.5124 Y24.6451 
X-32.4864 Y24.8090 
Y24.9750 
X-32.5124 Y25.1389 
X-32.5636 Y25.2967 
X-32.6390 Y25.4445 
X-32.7365 Y25.5788 
X-32.8538 Y25.6961 
X-32.9881 Y25.7936 
X-33.1359 Y25.8690 
X-33.2937 Y25.9202 
X-33.4576 Y25.9462 
X-35.3764 
X-35.5403 Y25.9202 
X-35.6981 Y25.8690 
X-35.8459 Y25.7936 
X-35.9802 Y25.6961 
X-36.0975 Y25.5788 
X-36.1950 Y25.4445 
X-36.2704 Y25.2967 
X-36.3216 Y25.1389 
X-36.3476 Y24.9750 
Y24.8090 
X-36.3216 Y24.6451 
X-36.2704 Y24.4873 
X-36.1950 Y24.3395 
X-36.0975 Y24.2052 
X-35.9802 Y24.0879 
X-35.8459 Y23.9904 
X-35.6981 Y23.9150 
X-35.5403 Y23.8638 
X-35.3764 Y23.8378 
X-33.4576 
X-33.3561 Y23.8539 
X-29.8148 Y20.3126 
Y5.3168  
X-29.9386 Y5.2537  
X-30.0847 Y5.1475  
X-30.2125 Y5.0197  
X-30.3187 Y4.8736  
X-30.4007 Y4.7126  
X-30.4565 Y4.5408  
X-30.4848 Y4.3623  
Y2.2417  
X-30.4565 Y2.0632  
X-30.4007 Y1.8914  
X-30.3187 Y1.7304  
X-30.2125 Y1.5843  
X-30.0847 Y1.4565  
X-29.9386 Y1.3503  
X-29.7776 Y1.2683  
X-29.6058 Y1.2125  
X-29.4273 Y1.1842  
X-29.2467 
X-29.0682 Y1.2125  
X-28.8964 Y1.2683  
X-28.7354 Y1.3503  
X-28.5893 Y1.4565  
X-28.4615 Y1.5843  
X-28.3553 Y1.7304  
X-28.2733 Y1.8914  
X-28.2175 Y2.0632  
X-28.1892 Y2.2417  
Y4.3623  
X-28.2175 Y4.5408  
X-28.2733 Y4.7126  
X-28.3553 Y4.8736  
X-28.4615 Y5.0197  
X-28.5893 Y5.1475  
G00 Z2.5400  
G00 X-31.1293 Y5.1475  
G01 Z-0.1778 F254   
G01 X-31.2754 Y5.2537  F508   
G01 X-31.3992 Y5.3168  
Y15.4934 
X-31.4318 Y15.6149 
X-31.4947 Y15.7239 
X-31.5836 Y15.8128 
X-32.5888 Y16.8180 
X-32.5636 Y16.8673 
X-32.5124 Y17.0251 
X-32.4864 Y17.1890 
Y17.3550 
X-32.5124 Y17.5189 
X-32.5636 Y17.6767 
X-32.6390 Y17.8245 
X-32.7365 Y17.9588 
X-32.8538 Y18.0761 
X-32.9881 Y18.1736 
X-33.1359 Y18.2490 
X-33.2937 Y18.3002 
X-33.4576 Y18.3262 
X-35.3764 
X-35.5403 Y18.3002 
X-35.6981 Y18.2490 
X-35.8459 Y18.1736 
X-35.9802 Y18.0761 
X-36.0975 Y17.9588 
X-36.1950 Y17.8245 
X-36.2704 Y17.6767 
X-36.3216 Y17.5189 
X-36.3476 Y17.3550 
Y17.1890 
X-36.3216 Y17.0251 
X-36.2704 Y16.8673 
X-36.1950 Y16.7195 
X-36.0975 Y16.5852 
X-35.9802 Y16.4679 
X-35.8459 Y16.3704 
X-35.6981 Y16.2950 
X-35.5403 Y16.2438 
X-35.3764 Y16.2178 
X-33.4576 
X-33.3561 Y16.2339 
X-32.3548 Y15.2326 
Y5.3168  
X-32.4786 Y5.2537  
X-32.6247 Y5.1475  
X-32.7525 Y5.0197  
X-32.8587 Y4.8736  
X-32.9407 Y4.7126  
X-32.9965 Y4.5408  
X-33.0248 Y4.3623  
Y2.2417  
X-32.9965 Y2.0632  
X-32.9407 Y1.8914  
X-32.8587 Y1.7304  
X-32.7525 Y1.5843  
X-32.6247 Y1.4565  
X-32.4786 Y1.3503  
X-32.3176 Y1.2683  
X-32.1458 Y1.2125  
X-31.9673 Y1.1842  
X-31.7867 
X-31.6082 Y1.2125  
X-31.4364 Y1.2683  
X-31.2754 Y1.3503  
X-31.1293 Y1.4565  
X-31.0015 Y1.5843  
X-30.8953 Y1.7304  
X-30.8133 Y1.8914  
X-30.7575 Y2.0632  
X-30.7292 Y2.2417  
Y4.3623  
X-30.7575 Y4.5408  
X-30.8133 Y4.7126  
X-30.8953 Y4.8736  
X-31.0015 Y5.0197  
X-31.1293 Y5.1475  
G00 Z2.5400  
G00 X-33.9392 Y4.5091  
G01 Z-0.1778 F254   
G01 X-33.9392 Y11.1378 F508   
G01 X-33.4576 Y11.1378 
X-33.2937 Y11.1638 
X-33.1359 Y11.2150 
X-32.9881 Y11.2904 
X-32.8538 Y11.3879 
X-32.7365 Y11.5052 
X-32.6390 Y11.6395 
X-32.5636 Y11.7873 
X-32.5124 Y11.9451 
X-32.4864 Y12.1090 
Y12.2750 
X-32.5124 Y12.4389 
X-32.5636 Y12.5967 
X-32.6390 Y12.7445 
X-32.7365 Y12.8788 
X-32.8538 Y12.9961 
X-32.9881 Y13.0936 
X-33.1359 Y13.1690 
X-33.2937 Y13.2202 
X-33.4576 Y13.2462 
X-35.3764 
X-35.5403 Y13.2202 
X-35.6981 Y13.1690 
X-35.8459 Y13.0936 
X-35.9802 Y12.9961 
X-36.0975 Y12.8788 
X-36.1950 Y12.7445 
X-36.2704 Y12.5967 
X-36.3216 Y12.4389 
X-36.3476 Y12.2750 
Y12.1090 
X-36.3216 Y11.9451 
X-36.2704 Y11.7873 
X-36.1950 Y11.6395 
X-36.0975 Y11.5052 
X-35.9802 Y11.3879 
X-35.8459 Y11.2904 
X-35.6981 Y11.2150 
X-35.5403 Y11.1638 
X-35.3764 Y11.1378 
X-34.8948 
Y5.1030  
X-34.9393 Y5.1475  
X-35.0854 Y5.2537  
X-35.2464 Y5.3357  
X-35.4182 Y5.3915  
X-35.5967 Y5.4198  
X-35.7773 
X-35.9558 Y5.3915  
X-36.1276 Y5.3357  
X-36.2886 Y5.2537  
X-36.4347 Y5.1475  
X-36.5625 Y5.0197  
X-36.6687 Y4.8736  
X-36.7507 Y4.7126  
X-36.8065 Y4.5408  
X-36.8348 Y4.3623  
Y2.2417  
X-36.8065 Y2.0632  
X-36.7507 Y1.8914  
X-36.6687 Y1.7304  
X-36.5625 Y1.5843  
X-36.4347 Y1.4565  
X-36.2886 Y1.3503  
X-36.1276 Y1.2683  
X-35.9558 Y1.2125  
X-35.7773 Y1.1842  
X-35.5967 
X-35.4182 Y1.2125  
X-35.2464 Y1.2683  
X-35.0854 Y1.3503  
X-34.9393 Y1.4565  
X-34.8115 Y1.5843  
X-34.7053 Y1.7304  
X-34.6233 Y1.8914  
X-34.5675 Y2.0632  
X-34.5392 Y2.2417  
Y3.7741  
X-34.0347 Y4.2786  
X-33.9718 Y4.3876  
X-33.9392 Y4.5091  
G00 Z2.5400  
G00 X-37.1075 Y4.5408  
G01 Z-0.1778 F254   
G01 X-37.1633 Y4.7126  F508   
G01 X-37.2453 Y4.8736  
X-37.3515 Y5.0197  
X-37.4793 Y5.1475  
X-37.6254 Y5.2537  
X-37.7492 Y5.3168  
Y7.3362  
X-37.6838 Y7.3232  
X-37.5002 
X-37.3202 Y7.3590  
X-37.1506 Y7.4292  
X-36.9980 Y7.5312  
X-36.8682 Y7.6610  
X-36.7662 Y7.8136  
X-36.6960 Y7.9832  
X-36.6602 Y8.1632  
Y8.3468  
X-36.6960 Y8.5268  
X-36.7662 Y8.6964  
X-36.8682 Y8.8490  
X-36.9980 Y8.9788  
X-37.1506 Y9.0807  
X-37.3202 Y9.1510  
X-37.5002 Y9.1868  
X-37.6838 
X-37.7492 Y9.1738  
Y16.5026 
X-35.4779 Y18.7739 
X-35.3764 Y18.7578 
X-33.4576 
X-33.2937 Y18.7838 
X-33.1359 Y18.8350 
X-32.9881 Y18.9104 
X-32.8538 Y19.0079 
X-32.7365 Y19.1252 
X-32.6390 Y19.2595 
X-32.5636 Y19.4073 
X-32.5124 Y19.5651 
X-32.4864 Y19.7290 
Y19.8950 
X-32.5124 Y20.0589 
X-32.5636 Y20.2167 
X-32.6390 Y20.3645 
X-32.7365 Y20.4988 
X-32.8538 Y20.6161 
X-32.9881 Y20.7136 
X-33.1359 Y20.7890 
X-33.2937 Y20.8402 
X-33.4576 Y20.8662 
X-33.9392 
Y21.2978 
X-33.4576 
X-33.2937 Y21.3238 
X-33.1359 Y21.3750 
X-32.9881 Y21.4504 
X-32.8538 Y21.5479 
X-32.7365 Y21.6652 
X-32.6390 Y21.7995 
X-32.5636 Y21.9473 
X-32.5124 Y22.1051 
X-32.4864 Y22.2690 
Y22.4350 
X-32.5124 Y22.5989 
X-32.5636 Y22.7567 
X-32.6390 Y22.9045 
X-32.7365 Y23.0388 
X-32.8538 Y23.1561 
X-32.9881 Y23.2536 
X-33.1359 Y23.3290 
X-33.2937 Y23.3802 
X-33.4576 Y23.4062 
X-35.3764 
X-35.5403 Y23.3802 
X-35.6775 Y23.3357 
X-36.6697 Y24.3279 
Y30.5361 
X-36.4477 Y30.7581 
X-36.3848 Y30.8671 
X-36.3522 Y30.9886 
Y33.5296 
X-36.1904 Y33.6377 
X-36.0507 Y33.7774 
X-35.9409 Y33.9418 
X-35.8653 Y34.1243 
X-35.8267 Y34.3182 
Y34.5158 
X-35.8653 Y34.7097 
X-35.9409 Y34.8922 
X-36.0507 Y35.0566 
X-36.1904 Y35.1963 
X-36.3548 Y35.3061 
X-36.5373 Y35.3817 
X-36.7312 Y35.4203 
X-36.9288 
X-37.1227 Y35.3817 
X-37.3052 Y35.3061 
X-37.4696 Y35.1963 
X-37.6093 Y35.0566 
X-37.7191 Y34.8922 
X-37.7947 Y34.7097 
X-37.8333 Y34.5158 
Y34.3182 
X-37.7947 Y34.1243 
X-37.7191 Y33.9418 
X-37.6093 Y33.7774 
X-37.4696 Y33.6377 
X-37.3078 Y33.5296 
Y33.1168 
X-40.6326 
X-45.9333 Y38.4175 
X-44.6646 Y39.6862 
X-44.5757 Y39.7751 
X-44.5128 Y39.8841 
X-44.4802 Y40.0056 
Y41.8788 
X-44.3347 Y41.9760 
X-44.1985 Y42.1122 
X-44.0915 Y42.2723 
X-44.0178 Y42.4503 
X-43.9802 Y42.6392 
Y42.8318 
X-44.0178 Y43.0207 
X-44.0915 Y43.1987 
X-44.1985 Y43.3588 
X-44.3347 Y43.4950 
X-44.4948 Y43.6020 
X-44.6728 Y43.6757 
X-44.8617 Y43.7133 
X-45.0543 
X-45.2432 Y43.6757 
X-45.4212 Y43.6020 
X-45.5813 Y43.4950 
X-45.7175 Y43.3588 
X-45.8245 Y43.1987 
X-45.8982 Y43.0207 
X-45.9358 Y42.8318 
Y42.6392 
X-45.8982 Y42.4503 
X-45.8245 Y42.2723 
X-45.7175 Y42.1122 
X-45.5813 Y41.9760 
X-45.4358 Y41.8788 
Y40.2664 
X-46.6799 Y39.0223 
X-47.9092 
Y43.3699 
X-47.9418 Y43.4914 
X-48.0047 Y43.6004 
X-48.0936 Y43.6893 
X-49.2366 Y44.8323 
X-49.3456 Y44.8952 
X-49.4671 Y44.9278 
X-53.6569 
X-53.7784 Y44.8952 
X-53.8874 Y44.8323 
X-53.9763 Y44.7434 
X-55.1009 Y43.6188 
X-55.1132 Y43.6228 
X-55.2850 Y43.6500 
X-55.4590 
X-55.6308 Y43.6228 
X-55.7962 Y43.5690 
X-55.9511 Y43.4901 
X-56.0919 Y43.3878 
X-56.2148 Y43.2649 
X-56.3171 Y43.1241 
X-56.3960 Y42.9692 
X-56.4498 Y42.8038 
X-56.4770 Y42.6320 
Y42.4580 
X-56.4498 Y42.2862 
X-56.3960 Y42.1208 
X-56.3171 Y41.9659 
X-56.2148 Y41.8251 
X-56.0919 Y41.7022 
X-55.9511 Y41.5999 
X-55.7962 Y41.5210 
X-55.6308 Y41.4672 
X-55.4590 Y41.4400 
X-55.2850 
X-55.1132 Y41.4672 
X-54.9478 Y41.5210 
X-54.7929 Y41.5999 
X-54.6521 Y41.7022 
X-54.5292 Y41.8251 
X-54.4269 Y41.9659 
X-54.3480 Y42.1208 
X-54.2942 Y42.2862 
X-54.2670 Y42.4580 
Y42.6320 
X-54.2942 Y42.8038 
X-54.3480 Y42.9692 
X-54.3652 Y43.0031 
X-53.3961 Y43.9722 
X-49.7279 
X-48.8648 Y43.1091 
Y38.8694 
X-50.4264 Y37.3078 
X-50.4819 
X-50.6034 Y37.2752 
X-50.7124 Y37.2123 
X-51.8567 Y36.0680 
X-52.6704 
X-53.3400 Y35.3984 
Y34.4516 
X-52.6704 Y33.7820 
X-51.7236 
X-51.0540 Y34.4516 
Y35.3984 
X-51.1144 Y35.4589 
X-50.2211 Y36.3522 
X-50.1656 
X-50.0441 Y36.3848 
X-49.9351 Y36.4477 
X-49.8462 Y36.5366 
X-48.2927 Y38.0901 
X-48.2428 Y38.0793 
X-48.1959 Y38.0667 
X-48.1814 
X-48.1672 Y38.0638 
X-48.1187 Y38.0667 
X-46.9339 
X-46.9024 Y38.0352 
X-41.2128 Y32.3456 
X-41.1239 Y32.2567 
X-41.0149 Y32.1938 
X-40.8934 Y32.1612 
X-37.3078 
Y31.2494 
X-37.5298 Y31.0274 
X-37.5927 Y30.9184 
X-37.6253 Y30.7969 
Y24.0671 
X-37.5927 Y23.9456 
X-37.5298 Y23.8366 
X-36.3144 Y22.6212 
X-36.3216 Y22.5989 
X-36.3476 Y22.4350 
Y22.2690 
X-36.3216 Y22.1051 
X-36.2704 Y21.9473 
X-36.1950 Y21.7995 
X-36.0975 Y21.6652 
X-35.9802 Y21.5479 
X-35.8459 Y21.4504 
X-35.6981 Y21.3750 
X-35.5403 Y21.3238 
X-35.3764 Y21.2978 
X-34.9961 
X-34.9792 Y21.2860 
X-34.9644 Y21.2712 
X-34.9279 Y21.2501 
X-34.8948 Y21.2269 
Y20.8662 
X-35.3764 
X-35.5403 Y20.8402 
X-35.6981 Y20.7890 
X-35.8459 Y20.7136 
X-35.9802 Y20.6161 
X-36.0975 Y20.4988 
X-36.1950 Y20.3645 
X-36.2704 Y20.2167 
X-36.3216 Y20.0589 
X-36.3476 Y19.8950 
Y19.7290 
X-36.3216 Y19.5651 
X-36.2704 Y19.4073 
X-36.2452 Y19.3580 
X-38.2270 Y17.3762 
X-40.2088 Y19.3580 
X-40.1836 Y19.4073 
X-40.1324 Y19.5651 
X-40.1064 Y19.7290 
Y19.8950 
X-40.1324 Y20.0589 
X-40.1836 Y20.2167 
X-40.2590 Y20.3645 
X-40.3565 Y20.4988 
X-40.4738 Y20.6161 
X-40.6081 Y20.7136 
X-40.7559 Y20.7890 
X-40.9137 Y20.8402 
X-41.0776 Y20.8662 
X-41.5592 
Y21.2978 
X-41.0776 
X-40.9137 Y21.3238 
X-40.7559 Y21.3750 
X-40.6081 Y21.4504 
X-40.4738 Y21.5479 
X-40.3565 Y21.6652 
X-40.2590 Y21.7995 
X-40.1836 Y21.9473 
X-40.1324 Y22.1051 
X-40.1064 Y22.2690 
Y22.4350 
X-40.1324 Y22.5989 
X-40.1836 Y22.7567 
X-40.2590 Y22.9045 
X-40.3565 Y23.0388 
X-40.4738 Y23.1561 
X-40.6081 Y23.2536 
X-40.7559 Y23.3290 
X-40.9137 Y23.3802 
X-41.0776 Y23.4062 
X-42.9964 
X-43.1603 Y23.3802 
X-43.3181 Y23.3290 
X-43.4659 Y23.2536 
X-43.6002 Y23.1561 
X-43.7175 Y23.0388 
X-43.8150 Y22.9045 
X-43.8904 Y22.7567 
X-43.9416 Y22.5989 
X-43.9676 Y22.4350 
Y22.2690 
X-43.9416 Y22.1051 
X-43.8904 Y21.9473 
X-43.8150 Y21.7995 
X-43.7175 Y21.6652 
X-43.6002 Y21.5479 
X-43.4659 Y21.4504 
X-43.3181 Y21.3750 
X-43.1603 Y21.3238 
X-42.9964 Y21.2978 
X-42.5148 
Y20.8662 
X-42.9964 
X-43.1603 Y20.8402 
X-43.3181 Y20.7890 
X-43.4659 Y20.7136 
X-43.6002 Y20.6161 
X-43.7175 Y20.4988 
X-43.8150 Y20.3645 
X-43.8904 Y20.2167 
X-43.9416 Y20.0589 
X-43.9676 Y19.8950 
Y19.7290 
X-43.9416 Y19.5651 
X-43.8904 Y19.4073 
X-43.8150 Y19.2595 
X-43.7175 Y19.1252 
X-43.6002 Y19.0079 
X-43.4659 Y18.9104 
X-43.3181 Y18.8350 
X-43.1603 Y18.7838 
X-42.9964 Y18.7578 
X-41.0776 
X-40.9761 Y18.7739 
X-38.7998 Y16.5976 
X-38.7048 Y16.5026 
Y5.3168  
X-38.8286 Y5.2537  
X-38.9747 Y5.1475  
X-39.1025 Y5.0197  
X-39.2087 Y4.8736  
X-39.2907 Y4.7126  
X-39.3465 Y4.5408  
X-39.3748 Y4.3623  
Y2.2417  
X-39.3465 Y2.0632  
X-39.2907 Y1.8914  
X-39.2087 Y1.7304  
X-39.1025 Y1.5843  
X-38.9747 Y1.4565  
X-38.8286 Y1.3503  
X-38.6676 Y1.2683  
X-38.4958 Y1.2125  
X-38.3173 Y1.1842  
X-38.1367 
X-37.9582 Y1.2125  
X-37.7864 Y1.2683  
X-37.6254 Y1.3503  
X-37.4793 Y1.4565  
X-37.3515 Y1.5843  
X-37.2453 Y1.7304  
X-37.1633 Y1.8914  
X-37.1075 Y2.0632  
X-37.0792 Y2.2417  
Y4.3623  
X-37.1075 Y4.5408  
G00 Z2.5400  
G00 X-39.1147 Y6.1836  
G01 Z-0.1778 F254   
G01 X-39.0518 Y6.2926  F508   
G01 X-39.0192 Y6.4141  
Y15.4934 
X-39.0518 Y15.6149 
X-39.1147 Y15.7239 
X-40.2088 Y16.8180 
X-40.1836 Y16.8673 
X-40.1324 Y17.0251 
X-40.1064 Y17.1890 
Y17.3550 
X-40.1324 Y17.5189 
X-40.1836 Y17.6767 
X-40.2590 Y17.8245 
X-40.3565 Y17.9588 
X-40.4738 Y18.0761 
X-40.6081 Y18.1736 
X-40.7559 Y18.2490 
X-40.9137 Y18.3002 
X-41.0776 Y18.3262 
X-42.9964 
X-43.1603 Y18.3002 
X-43.3181 Y18.2490 
X-43.4659 Y18.1736 
X-43.6002 Y18.0761 
X-43.7175 Y17.9588 
X-43.8150 Y17.8245 
X-43.8904 Y17.6767 
X-43.9416 Y17.5189 
X-43.9676 Y17.3550 
Y17.1890 
X-43.9416 Y17.0251 
X-43.8904 Y16.8673 
X-43.8150 Y16.7195 
X-43.7175 Y16.5852 
X-43.6002 Y16.4679 
X-43.4659 Y16.3704 
X-43.3181 Y16.2950 
X-43.1603 Y16.2438 
X-42.9964 Y16.2178 
X-41.0776 
X-40.9761 Y16.2339 
X-39.9748 Y15.2326 
Y6.6749  
X-41.7264 Y4.9233  
X-41.7965 Y5.0197  
X-41.9243 Y5.1475  
X-42.0704 Y5.2537  
X-42.2314 Y5.3357  
X-42.4032 Y5.3915  
X-42.5817 Y5.4198  
X-42.7623 
X-42.9408 Y5.3915  
X-43.1126 Y5.3357  
X-43.2736 Y5.2537  
X-43.4197 Y5.1475  
X-43.5475 Y5.0197  
X-43.6537 Y4.8736  
X-43.7357 Y4.7126  
X-43.7915 Y4.5408  
X-43.8198 Y4.3623  
Y2.2417  
X-43.7915 Y2.0632  
X-43.7357 Y1.8914  
X-43.6537 Y1.7304  
X-43.5475 Y1.5843  
X-43.4197 Y1.4565  
X-43.2736 Y1.3503  
X-43.1126 Y1.2683  
X-42.9408 Y1.2125  
X-42.7623 Y1.1842  
X-42.5817 
X-42.4032 Y1.2125  
X-42.2314 Y1.2683  
X-42.0704 Y1.3503  
X-41.9243 Y1.4565  
X-41.7965 Y1.5843  
X-41.6903 Y1.7304  
X-41.6083 Y1.8914  
X-41.5525 Y2.0632  
X-41.5242 Y2.2417  
Y3.7741  
X-39.1147 Y6.1836  
G00 Z2.5400  
G00 X-44.4643 Y5.1475  
G01 Z-0.1778 F254   
G01 X-44.6104 Y5.2537  F508   
G01 X-44.7342 Y5.3168  
Y22.2176 
X-43.0979 Y23.8539 
X-42.9964 Y23.8378 
X-41.0776 
X-40.9137 Y23.8638 
X-40.7559 Y23.9150 
X-40.6081 Y23.9904 
X-40.4738 Y24.0879 
X-40.3565 Y24.2052 
X-40.2590 Y24.3395 
X-40.1836 Y24.4873 
X-40.1324 Y24.6451 
X-40.1064 Y24.8090 
Y24.9750 
X-40.1324 Y25.1389 
X-40.1836 Y25.2967 
X-40.2590 Y25.4445 
X-40.3565 Y25.5788 
X-40.4738 Y25.6961 
X-40.6081 Y25.7936 
X-40.7559 Y25.8690 
X-40.9137 Y25.9202 
X-41.0776 Y25.9462 
X-42.9964 
X-43.1603 Y25.9202 
X-43.3181 Y25.8690 
X-43.4659 Y25.7936 
X-43.6002 Y25.6961 
X-43.7175 Y25.5788 
X-43.8150 Y25.4445 
X-43.8904 Y25.2967 
X-43.9416 Y25.1389 
X-43.9676 Y24.9750 
Y24.8090 
X-43.9416 Y24.6451 
X-43.8904 Y24.4873 
X-43.8652 Y24.4380 
X-45.5054 Y22.7978 
X-45.5943 Y22.7089 
X-45.6572 Y22.5999 
X-45.6898 Y22.4784 
Y5.3168  
X-45.8136 Y5.2537  
X-45.9597 Y5.1475  
X-46.0875 Y5.0197  
X-46.1937 Y4.8736  
X-46.2757 Y4.7126  
X-46.3315 Y4.5408  
X-46.3598 Y4.3623  
Y2.2417  
X-46.3315 Y2.0632  
X-46.2757 Y1.8914  
X-46.1937 Y1.7304  
X-46.0875 Y1.5843  
X-45.9597 Y1.4565  
X-45.8136 Y1.3503  
X-45.6526 Y1.2683  
X-45.4808 Y1.2125  
X-45.3023 Y1.1842  
X-45.1217 
X-44.9432 Y1.2125  
X-44.7714 Y1.2683  
X-44.6104 Y1.3503  
X-44.4643 Y1.4565  
X-44.3365 Y1.5843  
X-44.2303 Y1.7304  
X-44.1483 Y1.8914  
X-44.0925 Y2.0632  
X-44.0642 Y2.2417  
Y4.3623  
X-44.0925 Y4.5408  
X-44.1483 Y4.7126  
X-44.2303 Y4.8736  
X-44.3365 Y5.0197  
X-44.4643 Y5.1475  
G00 Z2.5400  
G00 X-49.5682 Y7.0260  
G01 Z-0.1778 F254   
G01 X-49.4663 Y7.1786  F508   
G01 X-49.3960 Y7.3482  
X-49.3602 Y7.5282  
Y7.7118  
X-49.3960 Y7.8918  
X-49.4663 Y8.0614  
X-49.5682 Y8.2140  
X-49.6980 Y8.3438  
X-49.8506 Y8.4457  
X-50.0202 Y8.5160  
X-50.2002 Y8.5518  
X-50.3838 
X-50.5638 Y8.5160  
X-50.7334 Y8.4457  
X-50.8860 Y8.3438  
X-51.0158 Y8.2140  
X-51.1177 Y8.0614  
X-51.1880 Y7.8918  
X-51.2238 Y7.7118  
Y7.5282  
X-51.1965 Y7.3912  
X-53.4607 Y5.1270  
X-53.4813 Y5.1475  
X-53.6274 Y5.2537  
X-53.7884 Y5.3357  
X-53.9602 Y5.3915  
X-54.1387 Y5.4198  
X-54.3193 
X-54.4978 Y5.3915  
X-54.6696 Y5.3357  
X-54.8306 Y5.2537  
X-54.9767 Y5.1475  
X-55.1045 Y5.0197  
X-55.2107 Y4.8736  
X-55.2927 Y4.7126  
X-55.3485 Y4.5408  
X-55.3768 Y4.3623  
Y2.2417  
X-55.3485 Y2.0632  
X-55.2943 Y1.8964  
X-56.1414 Y1.0493  
X-63.0481 
X-64.1591 Y2.1603  
X-64.2681 Y2.2232  
X-64.3896 Y2.2558  
X-67.9099 
X-67.9153 Y2.2725  
X-67.9979 Y2.4346  
X-68.1048 Y2.5817  
X-68.2334 Y2.7104  
X-68.3806 Y2.8173  
X-68.5427 Y2.8999  
X-68.7157 Y2.9561  
X-68.8954 Y2.9846  
X-69.0774 
X-69.2571 Y2.9561  
X-69.4301 Y2.8999  
X-69.5922 Y2.8173  
X-69.7394 Y2.7104  
X-69.8680 Y2.5817  
X-69.9749 Y2.4346  
X-70.0575 Y2.2725  
X-70.1137 Y2.0995  
X-70.1422 Y1.9198  
Y1.7378  
X-70.1137 Y1.5581  
X-70.0575 Y1.3851  
X-69.9749 Y1.2230  
X-69.8680 Y1.0758  
X-69.7394 Y0.9472  
X-69.5922 Y0.8403  
X-69.4301 Y0.7577  
X-69.2571 Y0.7015  
X-69.0774 Y0.6730  
X-68.8954 
X-68.7157 Y0.7015  
X-68.5427 Y0.7577  
X-68.3806 Y0.8403  
X-68.2334 Y0.9472  
X-68.1048 Y1.0758  
X-67.9979 Y1.2230  
X-67.9586 Y1.3002  
X-64.6504 
X-63.6283 Y0.2781  
X-63.5394 Y0.1892  
X-63.4304 Y0.1263  
X-63.3089 Y0.0937  
X-55.8806 
X-55.7591 Y0.1263  
X-55.6501 Y0.1892  
X-54.5952 Y1.2441  
X-54.4978 Y1.2125  
X-54.3193 Y1.1842  
X-54.1387 
X-53.9602 Y1.2125  
X-53.7884 Y1.2683  
X-53.6274 Y1.3503  
X-53.4813 Y1.4565  
X-53.3535 Y1.5843  
X-53.2473 Y1.7304  
X-53.1653 Y1.8914  
X-53.1095 Y2.0632  
X-53.0812 Y2.2417  
Y4.1551  
X-50.5208 Y6.7155  
X-50.3838 Y6.6882  
X-50.2002 
X-50.0202 Y6.7240  
X-49.8506 Y6.7942  
X-49.6980 Y6.8962  
X-49.5682 Y7.0260  
G00 Z2.5400  
G00 X-50.6755 Y8.5842  
G01 Z-0.1778 F254   
G01 X-50.5685 Y8.7443  F508   
G01 X-50.4948 Y8.9223  
X-50.4572 Y9.1112  
Y9.3038  
X-50.4948 Y9.4927  
X-50.5685 Y9.6707  
X-50.6755 Y9.8308  
X-50.8117 Y9.9670  
X-50.9718 Y10.0740 
X-51.1498 Y10.1477 
X-51.3387 Y10.1853 
X-51.5313 
X-51.7202 Y10.1477 
X-51.8852 Y10.0794 
X-57.4281 Y15.6223 
X-57.5371 Y15.6852 
X-57.6586 Y15.7178 
X-65.6209 
X-65.6590 Y15.7925 
X-65.7565 Y15.9268 
X-65.8738 Y16.0441 
X-66.0081 Y16.1416 
X-66.1559 Y16.2170 
X-66.3137 Y16.2682 
X-66.4776 Y16.2942 
X-68.3964 
X-68.5603 Y16.2682 
X-68.7181 Y16.2170 
X-68.8659 Y16.1416 
X-69.0002 Y16.0441 
X-69.1175 Y15.9268 
X-69.2150 Y15.7925 
X-69.2904 Y15.6447 
X-69.3416 Y15.4869 
X-69.3676 Y15.3230 
Y15.1570 
X-69.3416 Y14.9931 
X-69.2904 Y14.8353 
X-69.2150 Y14.6875 
X-69.1175 Y14.5532 
X-69.0002 Y14.4359 
X-68.8659 Y14.3384 
X-68.7181 Y14.2630 
X-68.5603 Y14.2118 
X-68.3964 Y14.1858 
X-66.4776 
X-66.3137 Y14.2118 
X-66.1559 Y14.2630 
X-66.0081 Y14.3384 
X-65.8738 Y14.4359 
X-65.7565 Y14.5532 
X-65.6590 Y14.6875 
X-65.6209 Y14.7622 
X-57.9194 
X-52.4128 Y9.2556  
Y9.1112  
X-52.3752 Y8.9223  
X-52.3015 Y8.7443  
X-52.1945 Y8.5842  
X-52.0583 Y8.4480  
X-51.8982 Y8.3410  
X-51.7202 Y8.2673  
X-51.5313 Y8.2297  
X-51.3387 
X-51.1498 Y8.2673  
X-50.9718 Y8.3410  
X-50.8117 Y8.4480  
X-50.6755 Y8.5842  
G00 Z2.5400  
G00 X-56.2912 Y9.8419  
G01 Z-0.1778 F254   
G01 X-56.3238 Y9.9634  F508   
G01 X-56.3867 Y10.0724 
X-59.4662 Y13.1519 
X-59.4952 Y13.1857 
X-59.5105 Y13.1962 
X-59.5236 Y13.2093 
X-59.5622 Y13.2316 
X-59.5990 Y13.2568 
X-59.6165 Y13.2630 
X-59.6326 Y13.2722 
X-59.6756 Y13.2838 
X-59.7176 Y13.2986 
X-59.7362 
X-59.7541 Y13.3048 
X-59.7986 
X-62.0648 Y13.4791 
Y13.5177 
X-62.6823 Y14.1352 
X-63.5557 
X-64.1321 Y13.5588 
X-65.9491 
X-66.0081 Y13.6016 
X-66.1559 Y13.6770 
X-66.3137 Y13.7282 
X-66.4776 Y13.7542 
X-68.3964 
X-68.5603 Y13.7282 
X-68.7181 Y13.6770 
X-68.8659 Y13.6016 
X-69.0002 Y13.5041 
X-69.1175 Y13.3868 
X-69.2150 Y13.2525 
X-69.2904 Y13.1047 
X-69.3416 Y12.9469 
X-69.3676 Y12.7830 
Y12.6170 
X-69.3416 Y12.4531 
X-69.2904 Y12.2953 
X-69.2150 Y12.1475 
X-69.1175 Y12.0132 
X-69.0002 Y11.8959 
X-68.8659 Y11.7984 
X-68.7181 Y11.7230 
X-68.5603 Y11.6718 
X-68.3964 Y11.6458 
X-66.4776 
X-66.3137 Y11.6718 
X-66.1559 Y11.7230 
X-66.0081 Y11.7984 
X-65.8738 Y11.8959 
X-65.7565 Y12.0132 
X-65.6590 Y12.1475 
X-65.5836 Y12.2953 
X-65.5324 Y12.4531 
X-65.5086 Y12.6032 
X-64.1321 
X-63.5557 Y12.0268 
X-62.6823 
X-62.1796 Y12.5295 
X-60.0299 Y12.3642 
X-57.2468 Y9.5811  
Y5.3168  
X-57.3706 Y5.2537  
X-57.5167 Y5.1475  
X-57.6445 Y5.0197  
X-57.7507 Y4.8736  
X-57.8327 Y4.7126  
X-57.8885 Y4.5408  
X-57.9168 Y4.3623  
Y2.2417  
X-57.8885 Y2.0632  
X-57.8327 Y1.8914  
X-57.7507 Y1.7304  
X-57.6445 Y1.5843  
X-57.5167 Y1.4565  
X-57.3706 Y1.3503  
X-57.2096 Y1.2683  
X-57.0378 Y1.2125  
X-56.8593 Y1.1842  
X-56.6787 
X-56.5002 Y1.2125  
X-56.3284 Y1.2683  
X-56.1674 Y1.3503  
X-56.0213 Y1.4565  
X-55.8935 Y1.5843  
X-55.7873 Y1.7304  
X-55.7053 Y1.8914  
X-55.6495 Y2.0632  
X-55.6212 Y2.2417  
Y4.3623  
X-55.6495 Y4.5408  
X-55.7053 Y4.7126  
X-55.7873 Y4.8736  
X-55.8935 Y5.0197  
X-56.0213 Y5.1475  
X-56.1674 Y5.2537  
X-56.2912 Y5.3168  
Y9.8419  
G00 Z2.5400  
G00 X-58.7150 Y8.7883  
G01 Z-0.1778 F254   
G01 X-58.8676 Y8.8902  F508   
G01 X-59.0372 Y8.9605  
X-59.2172 Y8.9963  
X-59.4008 
X-59.5808 Y8.9605  
X-59.7504 Y8.8902  
X-59.9030 Y8.7883  
X-60.0328 Y8.6585  
X-60.1347 Y8.5059  
X-60.2050 Y8.3363  
X-60.2408 Y8.1563  
Y7.9727  
X-60.2050 Y7.7927  
X-60.1347 Y7.6231  
X-60.0328 Y7.4705  
X-59.9030 Y7.3407  
X-59.7868 Y7.2631  
Y5.3168  
X-59.9106 Y5.2537  
X-60.0567 Y5.1475  
X-60.1845 Y5.0197  
X-60.2907 Y4.8736  
X-60.3727 Y4.7126  
X-60.4285 Y4.5408  
X-60.4568 Y4.3623  
Y3.7798  
X-62.4869 
X-62.6823 Y3.9752  
X-63.4975 
X-63.6511 Y4.1288  
X-63.7601 Y4.1917  
X-63.8816 Y4.2243  
X-77.7869 
X-77.9084 Y4.1917  
X-78.0174 Y4.1288  
X-78.1063 Y4.0399  
X-79.7634 Y2.3828  
X-86.1111 
X-86.1661 Y2.4907  
X-86.2695 Y2.6331  
X-86.3939 Y2.7575  
X-86.5362 Y2.8609  
X-86.6930 Y2.9407  
X-86.8603 Y2.9951  
X-87.0340 Y3.0226  
X-87.2100 
X-87.3837 Y2.9951  
X-87.5510 Y2.9407  
X-87.7077 Y2.8609  
X-87.8501 Y2.7575  
X-87.9745 Y2.6331  
X-88.0779 Y2.4907  
X-88.1577 Y2.3340  
X-88.2121 Y2.1667  
X-88.2382 Y2.0018  
X-102.1641 
X-106.4387 Y6.2764  
Y7.8459  
X-106.4658 Y7.9112  
X-106.5158 Y7.9612  
X-106.5811 Y7.9883  
X-108.3029 
X-108.3682 Y7.9612  
X-108.4182 Y7.9112  
X-108.4453 Y7.8459  
Y6.1241  
X-108.4182 Y6.0588  
X-108.3682 Y6.0088  
X-108.3029 Y5.9817  
X-107.4954 
X-102.7443 Y1.2306  
X-102.6554 Y1.1417  
X-102.5464 Y1.0788  
X-102.4249 Y1.0462  
X-87.8413 
X-87.7077 Y0.9491  
X-87.5510 Y0.8693  
X-87.3837 Y0.8149  
X-87.2100 Y0.7874  
X-87.0340 
X-86.8603 Y0.8149  
X-86.6930 Y0.8693  
X-86.5362 Y0.9491  
X-86.3939 Y1.0525  
X-86.2695 Y1.1769  
X-86.1661 Y1.3193  
X-86.1111 Y1.4272  
X-79.5026 
X-79.3811 Y1.4598  
X-79.2721 Y1.5227  
X-79.1832 Y1.6116  
X-77.5261 Y3.2687  
X-64.1732 
Y2.4843  
X-63.5557 Y1.8668  
X-62.6823 
X-62.0648 Y2.4843  
Y2.8242  
X-60.4568 
Y2.2417  
X-60.4285 Y2.0632  
X-60.3727 Y1.8914  
X-60.2907 Y1.7304  
X-60.1845 Y1.5843  
X-60.0567 Y1.4565  
X-59.9106 Y1.3503  
X-59.7496 Y1.2683  
X-59.5778 Y1.2125  
X-59.3993 Y1.1842  
X-59.2187 
X-59.0402 Y1.2125  
X-58.8684 Y1.2683  
X-58.7074 Y1.3503  
X-58.5613 Y1.4565  
X-58.4335 Y1.5843  
X-58.3273 Y1.7304  
X-58.2453 Y1.8914  
X-58.1895 Y2.0632  
X-58.1612 Y2.2417  
Y4.3623  
X-58.1895 Y4.5408  
X-58.2453 Y4.7126  
X-58.3273 Y4.8736  
X-58.4335 Y5.0197  
X-58.5613 Y5.1475  
X-58.7074 Y5.2537  
X-58.8312 Y5.3168  
Y7.2631  
X-58.7150 Y7.3407  
X-58.5852 Y7.4705  
X-58.4832 Y7.6231  
X-58.4130 Y7.7927  
X-58.3772 Y7.9727  
Y8.1563  
X-58.4130 Y8.3363  
X-58.4832 Y8.5059  
X-58.5852 Y8.6585  
X-58.7150 Y8.7883  
G00 Z2.5400  
G00 X-67.9153 Y8.7749  
G01 Z-0.1778 F254   
G01 X-67.9979 Y8.9370  F508   
G01 X-68.1048 Y9.0841  
X-68.2334 Y9.2128  
X-68.3806 Y9.3197  
X-68.5427 Y9.4023  
X-68.7157 Y9.4585  
X-68.8954 Y9.4870  
X-69.0774 
X-69.2571 Y9.4585  
X-69.4301 Y9.4023  
X-69.5922 Y9.3197  
X-69.7394 Y9.2128  
X-69.8680 Y9.0841  
X-69.9749 Y8.9370  
X-70.0575 Y8.7749  
X-70.1137 Y8.6019  
X-70.1422 Y8.4222  
Y8.2402  
X-70.1137 Y8.0605  
X-70.0756 Y7.9431  
X-71.1274 Y6.8913  
X-74.0971 
X-75.3986 Y8.1928  
X-75.5076 Y8.2557  
X-75.6291 Y8.2883  
X-91.9391 
X-91.9817 Y8.4193  
X-92.0643 Y8.5814  
X-92.1712 Y8.7286  
X-92.2998 Y8.8572  
X-92.4470 Y8.9641  
X-92.6091 Y9.0467  
X-92.7821 Y9.1029  
X-92.9618 Y9.1314  
X-95.0998 
X-95.2794 Y9.1029  
X-95.4525 Y9.0467  
X-95.6146 Y8.9641  
X-95.7618 Y8.8572  
X-95.8904 Y8.7286  
X-95.9973 Y8.5814  
X-96.0496 Y8.4788  
X-98.5144 
X-98.5667 Y8.5814  
X-98.6736 Y8.7286  
X-98.8022 Y8.8572  
X-98.9494 Y8.9641  
X-99.1115 Y9.0467  
X-99.2845 Y9.1029  
X-99.4642 Y9.1314  
X-101.6022 
X-101.7819 Y9.1029  
X-101.9549 Y9.0467  
X-102.1170 Y8.9641  
X-102.2642 Y8.8572  
X-102.3928 Y8.7286  
X-102.4997 Y8.5814  
X-102.5823 Y8.4193  
X-102.6385 Y8.2462  
X-102.6670 Y8.0666  
Y7.8846  
X-102.6385 Y7.7049  
X-102.5823 Y7.5319  
X-102.5471 Y7.4628  
X-104.0146 
X-104.1227 Y7.6246  
X-104.2624 Y7.7643  
X-104.4268 Y7.8741  
X-104.6093 Y7.9497  
X-104.7806 Y7.9838  
X-107.9741 Y11.1773 
X-108.0831 Y11.2402 
X-108.2046 Y11.2728 
X-108.2570 
X-104.5771 Y14.9527 
X-102.4728 
X-102.3928 Y14.8426 
X-102.2642 Y14.7140 
X-102.1170 Y14.6071 
X-101.9549 Y14.5245 
X-101.7819 Y14.4683 
X-101.6022 Y14.4398 
X-99.4642 
X-99.2845 Y14.4683 
X-99.1115 Y14.5245 
X-98.9494 Y14.6071 
X-98.8022 Y14.7140 
X-98.6736 Y14.8426 
X-98.5667 Y14.9898 
X-98.4841 Y15.1519 
X-98.4279 Y15.3249 
X-98.3994 Y15.5046 
Y15.6866 
X-98.4279 Y15.8663 
X-98.4841 Y16.0393 
X-98.5667 Y16.2014 
X-98.6736 Y16.3485 
X-98.8022 Y16.4772 
X-98.9494 Y16.5841 
X-99.1115 Y16.6667 
X-99.2845 Y16.7229 
X-99.4642 Y16.7514 
X-100.0427 
Y17.5386 
X-99.4642 
X-99.2845 Y17.5671 
X-99.1115 Y17.6233 
X-98.9494 Y17.7059 
X-98.8022 Y17.8128 
X-98.6736 Y17.9414 
X-98.5667 Y18.0886 
X-98.4841 Y18.2507 
X-98.4279 Y18.4237 
X-98.3994 Y18.6034 
Y18.7854 
X-98.4279 Y18.9651 
X-98.4841 Y19.1381 
X-98.5667 Y19.3002 
X-98.6736 Y19.4474 
X-98.8022 Y19.5760 
X-98.9494 Y19.6829 
X-99.1115 Y19.7655 
X-99.2845 Y19.8217 
X-99.4642 Y19.8502 
X-101.6022 
X-101.7819 Y19.8217 
X-101.9549 Y19.7655 
X-102.1170 Y19.6829 
X-102.2642 Y19.5760 
X-102.3928 Y19.4474 
X-102.4997 Y19.3002 
X-102.5823 Y19.1381 
X-102.6385 Y18.9651 
X-102.6670 Y18.7854 
Y18.6034 
X-102.6385 Y18.4237 
X-102.5823 Y18.2507 
X-102.4997 Y18.0886 
X-102.3928 Y17.9414 
X-102.2642 Y17.8128 
X-102.1170 Y17.7059 
X-101.9549 Y17.6233 
X-101.7819 Y17.5671 
X-101.6022 Y17.5386 
X-100.9983 
Y16.7514 
X-101.6022 
X-101.7819 Y16.7229 
X-101.9549 Y16.6667 
X-102.1170 Y16.5841 
X-102.2642 Y16.4772 
X-102.3928 Y16.3485 
X-102.4997 Y16.2014 
X-102.5823 Y16.0393 
X-102.6249 Y15.9083 
X-104.8379 
X-104.9594 Y15.8757 
X-105.0684 Y15.8128 
X-109.4499 Y11.4313 
X-109.5388 Y11.3424 
X-109.5790 Y11.2728 
X-110.1042 
Y11.8004 
X-110.1313 Y11.8657 
X-110.1813 Y11.9157 
X-110.2466 Y11.9428 
X-111.9146 
X-130.3957 Y30.4239 
Y36.6321 
X-129.5326 Y37.4952 
X-128.4679 
X-127.4573 Y36.4846 
X-127.4953 Y36.2938 
Y36.0962 
X-127.4567 Y35.9023 
X-127.3811 Y35.7198 
X-127.2713 Y35.5554 
X-127.1316 Y35.4157 
X-126.9698 Y35.3076 
Y33.9713 
X-126.9886 Y33.9617 
X-127.1347 Y33.8555 
X-127.2625 Y33.7277 
X-127.3687 Y33.5816 
X-127.4507 Y33.4206 
X-127.5065 Y33.2488 
X-127.5348 Y33.0703 
Y32.8897 
X-127.5065 Y32.7112 
X-127.4507 Y32.5394 
X-127.3687 Y32.3784 
X-127.2625 Y32.2323 
X-127.1347 Y32.1045 
X-126.9886 Y31.9983 
X-126.8276 Y31.9163 
X-126.6558 Y31.8605 
X-126.4773 Y31.8322 
X-126.2967 
X-126.1182 Y31.8605 
X-125.9464 Y31.9163 
X-125.7854 Y31.9983 
X-125.6393 Y32.1045 
X-125.5115 Y32.2323 
X-125.4053 Y32.3784 
X-125.3233 Y32.5394 
X-125.2675 Y32.7112 
X-125.2392 Y32.8897 
Y33.0703 
X-125.2675 Y33.2488 
X-125.3233 Y33.4206 
X-125.4053 Y33.5816 
X-125.5115 Y33.7277 
X-125.6393 Y33.8555 
X-125.7854 Y33.9617 
X-125.9464 Y34.0437 
X-126.0142 Y34.0657 
Y35.3076 
X-125.8524 Y35.4157 
X-125.7127 Y35.5554 
X-125.6029 Y35.7198 
X-125.5273 Y35.9023 
X-125.4887 Y36.0962 
Y36.2938 
X-125.5273 Y36.4877 
X-125.6029 Y36.6702 
X-125.7127 Y36.8346 
X-125.8524 Y36.9743 
X-126.0168 Y37.0841 
X-126.1993 Y37.1597 
X-126.3932 Y37.1983 
X-126.5908 
X-126.7816 Y37.1603 
X-127.8877 Y38.2664 
X-127.9766 Y38.3553 
X-128.0856 Y38.4182 
X-128.2071 Y38.4508 
X-129.7934 
X-129.9149 Y38.4182 
X-130.0239 Y38.3553 
X-131.1669 Y37.2123 
X-131.2558 Y37.1234 
X-131.3187 Y37.0144 
X-131.3513 Y36.8929 
Y30.1631 
X-131.3187 Y30.0416 
X-131.2558 Y29.9326 
X-112.3998 Y11.0766 
Y9.7896  
X-112.3727 Y9.7243  
X-112.3227 Y9.6743  
X-112.2574 Y9.6472  
X-110.2466 
X-110.1813 Y9.6743  
X-110.1313 Y9.7243  
X-110.1042 Y9.7896  
Y10.3172 
X-108.4654 
X-105.7179 Y7.5697  
X-105.7911 Y7.4602  
X-105.8667 Y7.2777  
X-105.9053 Y7.0838  
Y6.8862  
X-105.8667 Y6.6923  
X-105.7911 Y6.5098  
X-105.6813 Y6.3454  
X-105.5416 Y6.2057  
X-105.3772 Y6.0959  
X-105.1946 Y6.0203  
X-105.0008 Y5.9817  
X-104.8032 
X-104.6093 Y6.0203  
X-104.4268 Y6.0959  
X-104.2624 Y6.2057  
X-104.1227 Y6.3454  
X-104.0146 Y6.5072  
X-101.4736 
X-101.3521 Y6.5398  
X-101.2431 Y6.6027  
X-101.0260 Y6.8198  
X-99.4642 
X-99.2845 Y6.8483  
X-99.1115 Y6.9045  
X-98.9494 Y6.9871  
X-98.8022 Y7.0940  
X-98.6736 Y7.2226  
X-98.5667 Y7.3698  
X-98.4885 Y7.5232  
X-96.0755 
X-95.9973 Y7.3698  
X-95.8904 Y7.2226  
X-95.7618 Y7.0940  
X-95.6146 Y6.9871  
X-95.4525 Y6.9045  
X-95.2794 Y6.8483  
X-95.0998 Y6.8198  
X-92.9618 
X-92.7821 Y6.8483  
X-92.6091 Y6.9045  
X-92.4470 Y6.9871  
X-92.2998 Y7.0940  
X-92.1712 Y7.2226  
X-92.0912 Y7.3327  
X-75.8899 
X-74.6773 Y6.1201  
X-74.5884 Y6.0312  
X-74.4794 Y5.9683  
X-74.3579 Y5.9357  
X-70.8666 
X-70.7451 Y5.9683  
X-70.6361 Y6.0312  
X-69.4128 Y7.2545  
X-69.2571 Y7.2039  
X-69.0774 Y7.1754  
X-68.8954 
X-68.7157 Y7.2039  
X-68.5427 Y7.2601  
X-68.3806 Y7.3427  
X-68.2334 Y7.4496  
X-68.1048 Y7.5782  
X-67.9979 Y7.7254  
X-67.9153 Y7.8875  
X-67.8591 Y8.0605  
X-67.8306 Y8.2402  
Y8.4222  
X-67.8591 Y8.6019  
X-67.9153 Y8.7749  
G00 Z2.5400  
G00 X-72.4365 Y8.7749  
G01 Z-0.1778 F254   
G01 X-72.5191 Y8.9370  F508   
G01 X-72.6260 Y9.0841  
X-72.7546 Y9.2128  
X-72.9018 Y9.3197  
X-72.9917 Y9.3655  
Y34.8541 
X-72.3404 Y35.5053 
X-72.1688 Y35.4712 
X-71.9762 
X-71.7873 Y35.5088 
X-71.6093 Y35.5825 
X-71.4492 Y35.6895 
X-71.3130 Y35.8257 
X-71.2060 Y35.9858 
X-71.1323 Y36.1638 
X-71.0947 Y36.3527 
Y36.5453 
X-71.1323 Y36.7342 
X-71.2060 Y36.9122 
X-71.3130 Y37.0723 
X-71.4492 Y37.2085 
X-71.6093 Y37.3155 
X-71.7873 Y37.3892 
X-71.9762 Y37.4268 
X-72.1688 
X-72.3577 Y37.3892 
X-72.5357 Y37.3155 
X-72.6958 Y37.2085 
X-72.8320 Y37.0723 
X-72.9390 Y36.9122 
X-73.0127 Y36.7342 
X-73.0503 Y36.5453 
Y36.3527 
X-73.0162 Y36.1810 
X-73.8518 Y35.3454 
X-73.9147 Y35.2364 
X-73.9473 Y35.1149 
Y9.4036  
X-73.9513 
X-74.1134 Y9.3197  
X-74.2605 Y9.2128  
X-74.3892 Y9.0841  
X-74.4961 Y8.9370  
X-74.5787 Y8.7749  
X-74.6349 Y8.6019  
X-74.6634 Y8.4222  
Y8.2402  
X-74.6349 Y8.0605  
X-74.5787 Y7.8875  
X-74.4961 Y7.7254  
X-74.3892 Y7.5782  
X-74.2605 Y7.4496  
X-74.1134 Y7.3427  
X-73.9513 Y7.2601  
X-73.7782 Y7.2039  
X-73.5986 Y7.1754  
X-73.4166 
X-73.2369 Y7.2039  
X-73.0639 Y7.2601  
X-72.9018 Y7.3427  
X-72.7546 Y7.4496  
X-72.6260 Y7.5782  
X-72.5191 Y7.7254  
X-72.4365 Y7.8875  
X-72.3803 Y8.0605  
X-72.3518 Y8.2402  
Y8.4222  
X-72.3803 Y8.6019  
X-72.4365 Y8.7749  
G00 Z2.5400  
G00 X-72.7546 Y2.7104  
G01 Z-0.1778 F254   
G01 X-72.9018 Y2.8173  F508   
G01 X-73.0639 Y2.8999  
X-73.2369 Y2.9561  
X-73.4166 Y2.9846  
X-73.5986 
X-73.7782 Y2.9561  
X-73.9513 Y2.8999  
X-74.1134 Y2.8173  
X-74.2605 Y2.7104  
X-74.3892 Y2.5817  
X-74.4961 Y2.4346  
X-74.5225 Y2.3828  
X-75.9511 
X-76.0061 Y2.4907  
X-76.1095 Y2.6331  
X-76.2339 Y2.7575  
X-76.3762 Y2.8609  
X-76.5330 Y2.9407  
X-76.7003 Y2.9951  
X-76.8740 Y3.0226  
X-77.0500 
X-77.2237 Y2.9951  
X-77.3910 Y2.9407  
X-77.5477 Y2.8609  
X-77.6901 Y2.7575  
X-77.8145 Y2.6331  
X-77.9179 Y2.4907  
X-77.9977 Y2.3340  
X-78.0521 Y2.1667  
X-78.0796 Y1.9930  
Y1.8170  
X-78.0521 Y1.6433  
X-77.9977 Y1.4760  
X-77.9179 Y1.3193  
X-77.8145 Y1.1769  
X-77.6901 Y1.0525  
X-77.5477 Y0.9491  
X-77.3910 Y0.8693  
X-77.2237 Y0.8149  
X-77.0500 Y0.7874  
X-76.8740 
X-76.7003 Y0.8149  
X-76.5330 Y0.8693  
X-76.3762 Y0.9491  
X-76.2339 Y1.0525  
X-76.1095 Y1.1769  
X-76.0061 Y1.3193  
X-75.9511 Y1.4272  
X-74.5924 
X-74.5787 Y1.3851  
X-74.4961 Y1.2230  
X-74.3892 Y1.0758  
X-74.2605 Y0.9472  
X-74.1134 Y0.8403  
X-73.9513 Y0.7577  
X-73.7782 Y0.7015  
X-73.5986 Y0.6730  
X-73.4166 
X-73.2369 Y0.7015  
X-73.0639 Y0.7577  
X-72.9018 Y0.8403  
X-72.7546 Y0.9472  
X-72.6260 Y1.0758  
X-72.5191 Y1.2230  
X-72.4365 Y1.3851  
X-72.3803 Y1.5581  
X-72.3518 Y1.7378  
Y1.9198  
X-72.3803 Y2.0995  
X-72.4365 Y2.2725  
X-72.5191 Y2.4346  
X-72.6260 Y2.5817  
X-72.7546 Y2.7104  
G00 Z2.5400  
G00 X-74.4245 Y16.3312 
G01 Z-0.1778 F254   
G01 X-74.3175 Y16.4913 F508   
G01 X-74.2438 Y16.6693 
X-74.2062 Y16.8582 
Y17.0508 
X-74.2438 Y17.2397 
X-74.3175 Y17.4177 
X-74.4245 Y17.5778 
X-74.5607 Y17.7140 
X-74.7062 Y17.8112 
Y29.0824 
X-74.7388 Y29.2039 
X-74.8017 Y29.3129 
X-74.8906 Y29.4018 
X-80.7796 Y35.2908 
X-80.7724 Y35.3131 
X-80.7464 Y35.4770 
Y35.6430 
X-80.7724 Y35.8069 
X-80.8236 Y35.9647 
X-80.8990 Y36.1125 
X-80.9965 Y36.2468 
X-81.1138 Y36.3641 
X-81.2481 Y36.4616 
X-81.3959 Y36.5370 
X-81.5537 Y36.5882 
X-81.7176 Y36.6142 
X-83.6364 
X-83.8003 Y36.5882 
X-83.9581 Y36.5370 
X-84.1059 Y36.4616 
X-84.2402 Y36.3641 
X-84.3575 Y36.2468 
X-84.4550 Y36.1125 
X-84.5304 Y35.9647 
X-84.5816 Y35.8069 
X-84.6076 Y35.6430 
Y35.4770 
X-84.5816 Y35.3131 
X-84.5304 Y35.1553 
X-84.4550 Y35.0075 
X-84.3575 Y34.8732 
X-84.2402 Y34.7559 
X-84.1059 Y34.6584 
X-83.9581 Y34.5830 
X-83.8003 Y34.5318 
X-83.6364 Y34.5058 
X-81.7176 
X-81.5537 Y34.5318 
X-81.4165 Y34.5763 
X-75.6618 Y28.8216 
Y17.8112 
X-75.8073 Y17.7140 
X-75.9435 Y17.5778 
X-76.0505 Y17.4177 
X-76.1242 Y17.2397 
X-76.1618 Y17.0508 
Y16.8582 
X-76.1242 Y16.6693 
X-76.0505 Y16.4913 
X-75.9435 Y16.3312 
X-75.8073 Y16.1950 
X-75.6472 Y16.0880 
X-75.4692 Y16.0143 
X-75.2803 Y15.9767 
X-75.0877 
X-74.8988 Y16.0143 
X-74.7208 Y16.0880 
X-74.5607 Y16.1950 
X-74.4245 Y16.3312 
G00 Z2.5400  
G00 X-69.0002 Y16.9759 
G01 Z-0.1778 F254   
G01 X-68.8659 Y16.8784 F508   
G01 X-68.7181 Y16.8030 
X-68.5603 Y16.7518 
X-68.3964 Y16.7258 
X-66.4776 
X-66.3137 Y16.7518 
X-66.1559 Y16.8030 
X-66.0081 Y16.8784 
X-65.8738 Y16.9759 
X-65.7565 Y17.0932 
X-65.6590 Y17.2275 
X-65.6209 Y17.3022 
X-55.5699 
X-52.6174 Y14.3497 
X-52.5084 Y14.2868 
X-52.3869 Y14.2542 
X-47.7197 
X-47.6225 Y14.1087 
X-47.4863 Y13.9725 
X-47.3262 Y13.8655 
X-47.1482 Y13.7918 
X-46.9593 Y13.7542 
X-46.7667 
X-46.5778 Y13.7918 
X-46.3998 Y13.8655 
X-46.2397 Y13.9725 
X-46.1035 Y14.1087 
X-45.9965 Y14.2688 
X-45.9228 Y14.4468 
X-45.8852 Y14.6357 
Y14.8283 
X-45.9228 Y15.0172 
X-45.9965 Y15.1952 
X-46.1035 Y15.3553 
X-46.2397 Y15.4915 
X-46.3998 Y15.5985 
X-46.5778 Y15.6722 
X-46.7667 Y15.7098 
X-46.9593 
X-47.1482 Y15.6722 
X-47.3262 Y15.5985 
X-47.4863 Y15.4915 
X-47.6225 Y15.3553 
X-47.7197 Y15.2098 
X-52.1261 
X-54.9897 Y18.0734 
X-55.0786 Y18.1623 
X-55.1876 Y18.2252 
X-55.3091 Y18.2578 
X-65.6209 
X-65.6590 Y18.3325 
X-65.7565 Y18.4668 
X-65.8738 Y18.5841 
X-66.0081 Y18.6816 
X-66.1559 Y18.7570 
X-66.3137 Y18.8082 
X-66.4776 Y18.8342 
X-68.3964 
X-68.5603 Y18.8082 
X-68.7181 Y18.7570 
X-68.8659 Y18.6816 
X-69.0002 Y18.5841 
X-69.1175 Y18.4668 
X-69.2150 Y18.3325 
X-69.2904 Y18.1847 
X-69.3416 Y18.0269 
X-69.3676 Y17.8630 
Y17.6970 
X-69.3416 Y17.5331 
X-69.2904 Y17.3753 
X-69.2150 Y17.2275 
X-69.1175 Y17.0932 
X-69.0002 Y16.9759 
G00 Z2.5400  
G00 X-69.0002 Y19.5159 
G01 Z-0.1778 F254   
G01 X-68.8659 Y19.4184 F508   
G01 X-68.7181 Y19.3430 
X-68.5603 Y19.2918 
X-68.3964 Y19.2658 
X-66.4776 
X-66.3137 Y19.2918 
X-66.1559 Y19.3430 
X-66.0081 Y19.4184 
X-65.8738 Y19.5159 
X-65.7565 Y19.6332 
X-65.6590 Y19.7675 
X-65.6209 Y19.8422 
X-61.0876 
X-60.9661 Y19.8748 
X-60.8571 Y19.9377 
X-60.7682 Y20.0266 
X-53.8406 Y26.9542 
X-43.8531 
X-43.8150 Y26.8795 
X-43.7175 Y26.7452 
X-43.6002 Y26.6279 
X-43.4659 Y26.5304 
X-43.3181 Y26.4550 
X-43.1603 Y26.4038 
X-42.9964 Y26.3778 
X-41.0776 
X-40.9137 Y26.4038 
X-40.7559 Y26.4550 
X-40.6081 Y26.5304 
X-40.4738 Y26.6279 
X-40.3565 Y26.7452 
X-40.2590 Y26.8795 
X-40.1836 Y27.0273 
X-40.1324 Y27.1851 
X-40.1064 Y27.3490 
Y27.5150 
X-40.1324 Y27.6789 
X-40.1836 Y27.8367 
X-40.2590 Y27.9845 
X-40.3565 Y28.1188 
X-40.4738 Y28.2361 
X-40.6081 Y28.3336 
X-40.7559 Y28.4090 
X-40.9137 Y28.4602 
X-41.0776 Y28.4862 
X-42.9964 
X-43.1603 Y28.4602 
X-43.3181 Y28.4090 
X-43.4659 Y28.3336 
X-43.6002 Y28.2361 
X-43.7175 Y28.1188 
X-43.8150 Y27.9845 
X-43.8531 Y27.9098 
X-54.1014 
X-54.2229 Y27.8772 
X-54.3319 Y27.8143 
X-61.3484 Y20.7978 
X-65.6209 
X-65.6590 Y20.8725 
X-65.7565 Y21.0068 
X-65.8738 Y21.1241 
X-66.0081 Y21.2216 
X-66.1559 Y21.2970 
X-66.3137 Y21.3482 
X-66.4776 Y21.3742 
X-68.3964 
X-68.5603 Y21.3482 
X-68.7181 Y21.2970 
X-68.8659 Y21.2216 
X-69.0002 Y21.1241 
X-69.1175 Y21.0068 
X-69.2150 Y20.8725 
X-69.2904 Y20.7247 
X-69.3416 Y20.5669 
X-69.3676 Y20.4030 
Y20.2370 
X-69.3416 Y20.0731 
X-69.2904 Y19.9153 
X-69.2150 Y19.7675 
X-69.1175 Y19.6332 
X-69.0002 Y19.5159 
G00 Z2.5400  
G00 X-69.0002 Y22.0559 
G01 Z-0.1778 F254   
G01 X-68.8659 Y21.9584 F508   
G01 X-68.7181 Y21.8830 
X-68.5603 Y21.8318 
X-68.3964 Y21.8058 
X-66.4776 
X-66.3137 Y21.8318 
X-66.1559 Y21.8830 
X-66.0081 Y21.9584 
X-65.8738 Y22.0559 
X-65.7565 Y22.1732 
X-65.6590 Y22.3075 
X-65.5836 Y22.4553 
X-65.5324 Y22.6131 
X-65.5064 Y22.7770 
Y22.9430 
X-65.5324 Y23.1069 
X-65.5836 Y23.2647 
X-65.6590 Y23.4125 
X-65.7565 Y23.5468 
X-65.8738 Y23.6641 
X-66.0081 Y23.7616 
X-66.1559 Y23.8370 
X-66.3137 Y23.8882 
X-66.4776 Y23.9142 
X-68.3964 
X-68.5603 Y23.8882 
X-68.7181 Y23.8370 
X-68.8659 Y23.7616 
X-69.0002 Y23.6641 
X-69.1175 Y23.5468 
X-69.2150 Y23.4125 
X-69.2904 Y23.2647 
X-69.3416 Y23.1069 
X-69.3676 Y22.9430 
Y22.7770 
X-69.3416 Y22.6131 
X-69.2904 Y22.4553 
X-69.2150 Y22.3075 
X-69.1175 Y22.1732 
X-69.0002 Y22.0559 
G00 Z2.5400  
G00 X-69.0002 Y24.5959 
G01 Z-0.1778 F254   
G01 X-68.8659 Y24.4984 F508   
G01 X-68.7181 Y24.4230 
X-68.5603 Y24.3718 
X-68.3964 Y24.3458 
X-66.4776 
X-66.3137 Y24.3718 
X-66.1559 Y24.4230 
X-66.0081 Y24.4984 
X-65.8738 Y24.5959 
X-65.7565 Y24.7132 
X-65.6590 Y24.8475 
X-65.5836 Y24.9953 
X-65.5324 Y25.1531 
X-65.5064 Y25.3170 
Y25.4830 
X-65.5324 Y25.6469 
X-65.5836 Y25.8047 
X-65.6590 Y25.9525 
X-65.7565 Y26.0868 
X-65.8738 Y26.2041 
X-66.0081 Y26.3016 
X-66.1559 Y26.3770 
X-66.3137 Y26.4282 
X-66.4776 Y26.4542 
X-68.3964 
X-68.5603 Y26.4282 
X-68.7181 Y26.3770 
X-68.8659 Y26.3016 
X-69.0002 Y26.2041 
X-69.1175 Y26.0868 
X-69.2150 Y25.9525 
X-69.2904 Y25.8047 
X-69.3416 Y25.6469 
X-69.3676 Y25.4830 
Y25.3170 
X-69.3416 Y25.1531 
X-69.2904 Y24.9953 
X-69.2150 Y24.8475 
X-69.1175 Y24.7132 
X-69.0002 Y24.5959 
G00 Z2.5400  
G00 X-69.0002 Y27.1359 
G01 Z-0.1778 F254   
G01 X-68.8659 Y27.0384 F508   
G01 X-68.7181 Y26.9630 
X-68.5603 Y26.9118 
X-68.3964 Y26.8858 
X-66.4776 
X-66.3137 Y26.9118 
X-66.1559 Y26.9630 
X-66.0081 Y27.0384 
X-65.8738 Y27.1359 
X-65.7565 Y27.2532 
X-65.6590 Y27.3875 
X-65.5836 Y27.5353 
X-65.5324 Y27.6931 
X-65.5064 Y27.8570 
Y28.0230 
X-65.5324 Y28.1869 
X-65.5836 Y28.3447 
X-65.6590 Y28.4925 
X-65.7565 Y28.6268 
X-65.8738 Y28.7441 
X-66.0081 Y28.8416 
X-66.1559 Y28.9170 
X-66.3137 Y28.9682 
X-66.4776 Y28.9942 
X-68.3964 
X-68.5603 Y28.9682 
X-68.7181 Y28.9170 
X-68.8659 Y28.8416 
X-69.0002 Y28.7441 
X-69.1175 Y28.6268 
X-69.2150 Y28.4925 
X-69.2904 Y28.3447 
X-69.3416 Y28.1869 
X-69.3676 Y28.0230 
Y27.8570 
X-69.3416 Y27.6931 
X-69.2904 Y27.5353 
X-69.2150 Y27.3875 
X-69.1175 Y27.2532 
X-69.0002 Y27.1359 
G00 Z2.5400  
G00 X-69.0002 Y29.6759 
G01 Z-0.1778 F254   
G01 X-68.8659 Y29.5784 F508   
G01 X-68.7181 Y29.5030 
X-68.5603 Y29.4518 
X-68.3964 Y29.4258 
X-66.4776 
X-66.3137 Y29.4518 
X-66.1559 Y29.5030 
X-66.0081 Y29.5784 
X-65.8738 Y29.6759 
X-65.7565 Y29.7932 
X-65.6590 Y29.9275 
X-65.6209 Y30.0022 
X-58.3898 
Y29.7821 
X-58.3572 Y29.6606 
X-58.2943 Y29.5516 
X-57.0093 Y28.2666 
X-57.0352 Y28.1869 
X-57.0612 Y28.0230 
Y27.8570 
X-57.0352 Y27.6931 
X-56.9840 Y27.5353 
X-56.9086 Y27.3875 
X-56.8111 Y27.2532 
X-56.6938 Y27.1359 
X-56.5595 Y27.0384 
X-56.4117 Y26.9630 
X-56.2539 Y26.9118 
X-56.0900 Y26.8858 
X-55.9240 
X-55.7601 Y26.9118 
X-55.6023 Y26.9630 
X-55.4545 Y27.0384 
X-55.3202 Y27.1359 
X-55.2029 Y27.2532 
X-55.1054 Y27.3875 
X-55.0300 Y27.5353 
X-54.9788 Y27.6931 
X-54.9528 Y27.8570 
Y28.0230 
X-54.9788 Y28.1869 
X-55.0300 Y28.3447 
X-55.1054 Y28.4925 
X-55.2029 Y28.6268 
X-55.3202 Y28.7441 
X-55.4545 Y28.8416 
X-55.6023 Y28.9170 
X-55.7601 Y28.9682 
X-55.9240 Y28.9942 
X-56.0900 
X-56.2539 Y28.9682 
X-56.3336 Y28.9423 
X-57.4342 Y30.0429 
Y32.1326 
X-57.2724 Y32.2407 
X-57.1327 Y32.3804 
X-57.0229 Y32.5448 
X-56.9473 Y32.7273 
X-56.9087 Y32.9212 
Y33.1188 
X-56.9473 Y33.3126 
X-57.0229 Y33.4952 
X-57.1327 Y33.6596 
X-57.2724 Y33.7993 
X-57.4368 Y33.9091 
X-57.6193 Y33.9847 
X-57.8132 Y34.0233 
X-58.0108 
X-58.2047 Y33.9847 
X-58.3872 Y33.9091 
X-58.5516 Y33.7993 
X-58.6913 Y33.6596 
X-58.8011 Y33.4952 
X-58.8767 Y33.3126 
X-58.9153 Y33.1188 
Y32.9212 
X-58.8767 Y32.7273 
X-58.8011 Y32.5448 
X-58.6913 Y32.3804 
X-58.5516 Y32.2407 
X-58.3898 Y32.1326 
Y30.9578 
X-65.6209 
X-65.6590 Y31.0325 
X-65.7565 Y31.1668 
X-65.8738 Y31.2841 
X-66.0081 Y31.3816 
X-66.1559 Y31.4570 
X-66.3137 Y31.5082 
X-66.4776 Y31.5342 
X-68.3964 
X-68.5603 Y31.5082 
X-68.7181 Y31.4570 
X-68.8659 Y31.3816 
X-69.0002 Y31.2841 
X-69.1175 Y31.1668 
X-69.2150 Y31.0325 
X-69.2904 Y30.8847 
X-69.3416 Y30.7269 
X-69.3676 Y30.5630 
Y30.3970 
X-69.3416 Y30.2331 
X-69.2904 Y30.0753 
X-69.2150 Y29.9275 
X-69.1175 Y29.7932 
X-69.0002 Y29.6759 
G00 Z2.5400  
G00 X-69.0002 Y32.2159 
G01 Z-0.1778 F254   
G01 X-68.8659 Y32.1184 F508   
G01 X-68.7181 Y32.0430 
X-68.5603 Y31.9918 
X-68.3964 Y31.9658 
X-66.4776 
X-66.3137 Y31.9918 
X-66.1559 Y32.0430 
X-66.0081 Y32.1184 
X-65.8738 Y32.2159 
X-65.7565 Y32.3332 
X-65.6590 Y32.4675 
X-65.6209 Y32.5422 
X-61.9744 
X-61.8663 Y32.3804 
X-61.7266 Y32.2407 
X-61.5622 Y32.1309 
X-61.3796 Y32.0553 
X-61.1858 Y32.0167 
X-60.9882 
X-60.7943 Y32.0553 
X-60.6118 Y32.1309 
X-60.4474 Y32.2407 
X-60.3077 Y32.3804 
X-60.1979 Y32.5448 
X-60.1223 Y32.7273 
X-60.0837 Y32.9212 
Y33.1188 
X-60.1223 Y33.3126 
X-60.1979 Y33.4952 
X-60.3077 Y33.6596 
X-60.4474 Y33.7993 
X-60.6118 Y33.9091 
X-60.7943 Y33.9847 
X-60.9882 Y34.0233 
X-61.1858 
X-61.3796 Y33.9847 
X-61.5622 Y33.9091 
X-61.7266 Y33.7993 
X-61.8663 Y33.6596 
X-61.9744 Y33.4978 
X-65.6209 
X-65.6590 Y33.5725 
X-65.7565 Y33.7068 
X-65.8738 Y33.8241 
X-66.0081 Y33.9216 
X-66.1559 Y33.9970 
X-66.3137 Y34.0482 
X-66.4776 Y34.0742 
X-68.3964 
X-68.5603 Y34.0482 
X-68.7181 Y33.9970 
X-68.8659 Y33.9216 
X-69.0002 Y33.8241 
X-69.1175 Y33.7068 
X-69.2150 Y33.5725 
X-69.2904 Y33.4247 
X-69.3416 Y33.2669 
X-69.3676 Y33.1030 
Y32.9370 
X-69.3416 Y32.7731 
X-69.2904 Y32.6153 
X-69.2150 Y32.4675 
X-69.1175 Y32.3332 
X-69.0002 Y32.2159 
G00 Z2.5400  
G00 X-69.0002 Y34.7559 
G01 Z-0.1778 F254   
G01 X-68.8659 Y34.6584 F508   
G01 X-68.7181 Y34.5830 
X-68.5603 Y34.5318 
X-68.3964 Y34.5058 
X-66.4776 
X-66.3137 Y34.5318 
X-66.1559 Y34.5830 
X-66.0081 Y34.6584 
X-65.8738 Y34.7559 
X-65.7565 Y34.8732 
X-65.6590 Y35.0075 
X-65.6209 Y35.0822 
X-61.9744 
X-61.8663 Y34.9204 
X-61.7266 Y34.7807 
X-61.5622 Y34.6709 
X-61.3796 Y34.5953 
X-61.1858 Y34.5567 
X-60.9882 
X-60.7943 Y34.5953 
X-60.6118 Y34.6709 
X-60.4474 Y34.7807 
X-60.3077 Y34.9204 
X-60.1996 Y35.0822 
X-58.7994 
X-58.6913 Y34.9204 
X-58.5516 Y34.7807 
X-58.3872 Y34.6709 
X-58.2047 Y34.5953 
X-58.0108 Y34.5567 
X-57.8132 
X-57.6193 Y34.5953 
X-57.4368 Y34.6709 
X-57.2724 Y34.7807 
X-57.1327 Y34.9204 
X-57.0229 Y35.0848 
X-56.9473 Y35.2673 
X-56.9087 Y35.4612 
Y35.6588 
X-56.9473 Y35.8526 
X-57.0229 Y36.0352 
X-57.1327 Y36.1996 
X-57.2724 Y36.3393 
X-57.4368 Y36.4491 
X-57.6193 Y36.5247 
X-57.8132 Y36.5633 
X-58.0108 
X-58.2047 Y36.5247 
X-58.3872 Y36.4491 
X-58.5516 Y36.3393 
X-58.6913 Y36.1996 
X-58.7994 Y36.0378 
X-60.1996 
X-60.3077 Y36.1996 
X-60.4474 Y36.3393 
X-60.6118 Y36.4491 
X-60.7943 Y36.5247 
X-60.9882 Y36.5633 
X-61.1858 
X-61.3796 Y36.5247 
X-61.5622 Y36.4491 
X-61.7266 Y36.3393 
X-61.8663 Y36.1996 
X-61.9744 Y36.0378 
X-65.6209 
X-65.6590 Y36.1125 
X-65.7565 Y36.2468 
X-65.8738 Y36.3641 
X-66.0081 Y36.4616 
X-66.1559 Y36.5370 
X-66.3137 Y36.5882 
X-66.4776 Y36.6142 
X-68.3964 
X-68.4979 Y36.5981 
X-70.3821 Y38.4823 
X-70.4911 Y38.5452 
X-70.6126 Y38.5778 
X-80.8609 
X-80.8990 Y38.6525 
X-80.9965 Y38.7868 
X-81.1138 Y38.9041 
X-81.2481 Y39.0016 
X-81.3959 Y39.0770 
X-81.5537 Y39.1282 
X-81.7176 Y39.1542 
X-83.6364 
X-83.8003 Y39.1282 
X-83.9581 Y39.0770 
X-84.1059 Y39.0016 
X-84.2402 Y38.9041 
X-84.3575 Y38.7868 
X-84.4550 Y38.6525 
X-84.4931 Y38.5778 
X-88.9629 
X-89.0844 Y38.5452 
X-89.1934 Y38.4823 
X-89.2454 Y38.4303 
X-89.4362 Y38.4683 
X-89.6338 
X-89.8277 Y38.4297 
X-90.0102 Y38.3541 
X-90.1746 Y38.2443 
X-90.3143 Y38.1046 
X-90.4241 Y37.9402 
X-90.4997 Y37.7576 
X-90.5383 Y37.5638 
Y37.3662 
X-90.4997 Y37.1723 
X-90.4241 Y36.9898 
X-90.3143 Y36.8254 
X-90.1746 Y36.6857 
X-90.0102 Y36.5759 
X-89.8277 Y36.5003 
X-89.6338 Y36.4617 
X-89.4362 
X-89.2423 Y36.5003 
X-89.0598 Y36.5759 
X-88.8954 Y36.6857 
X-88.7557 Y36.8254 
X-88.6459 Y36.9898 
X-88.5703 Y37.1723 
X-88.5317 Y37.3662 
Y37.5638 
X-88.5433 Y37.6222 
X-84.4931 
X-84.4550 Y37.5475 
X-84.3575 Y37.4132 
X-84.2402 Y37.2959 
X-84.1059 Y37.1984 
X-83.9581 Y37.1230 
X-83.8003 Y37.0718 
X-83.6364 Y37.0458 
X-81.7176 
X-81.5537 Y37.0718 
X-81.3959 Y37.1230 
X-81.2481 Y37.1984 
X-81.1138 Y37.2959 
X-80.9965 Y37.4132 
X-80.8990 Y37.5475 
X-80.8609 Y37.6222 
X-70.8734 
X-69.2652 Y36.0140 
X-69.2904 Y35.9647 
X-69.3416 Y35.8069 
X-69.3676 Y35.6430 
Y35.4770 
X-69.3416 Y35.3131 
X-69.2904 Y35.1553 
X-69.2150 Y35.0075 
X-69.1175 Y34.8732 
X-69.0002 Y34.7559 
G00 Z2.5400  
G00 X-69.0002 Y37.2959 
G01 Z-0.1778 F254   
G01 X-68.8659 Y37.1984 F508   
G01 X-68.7181 Y37.1230 
X-68.5603 Y37.0718 
X-68.3964 Y37.0458 
X-66.4776 
X-66.3137 Y37.0718 
X-66.1559 Y37.1230 
X-66.0081 Y37.1984 
X-65.8738 Y37.2959 
X-65.7565 Y37.4132 
X-65.6590 Y37.5475 
X-65.5836 Y37.6953 
X-65.5661 Y37.7492 
X-58.3004 
X-54.4266 Y33.8754 
X-54.4202 Y33.8516 
X-54.3573 Y33.7426 
X-53.3413 Y32.7266 
X-53.2524 Y32.6377 
X-53.1434 Y32.5748 
X-53.0219 Y32.5422 
X-51.3721 
X-51.2506 Y32.5748 
X-51.1416 Y32.6377 
X-49.9973 Y33.7820 
X-49.1836 
X-48.7724 Y34.1932 
X-46.9339 
X-43.5519 Y30.8112 
X-43.6002 Y30.7761 
X-43.7175 Y30.6588 
X-43.8150 Y30.5245 
X-43.8904 Y30.3767 
X-43.9416 Y30.2189 
X-43.9676 Y30.0550 
Y29.8890 
X-43.9416 Y29.7251 
X-43.8904 Y29.5673 
X-43.8150 Y29.4195 
X-43.7175 Y29.2852 
X-43.6002 Y29.1679 
X-43.4659 Y29.0704 
X-43.3181 Y28.9950 
X-43.1603 Y28.9438 
X-42.9964 Y28.9178 
X-41.0776 
X-40.9137 Y28.9438 
X-40.7559 Y28.9950 
X-40.6081 Y29.0704 
X-40.4738 Y29.1679 
X-40.3565 Y29.2852 
X-40.2590 Y29.4195 
X-40.1836 Y29.5673 
X-40.1324 Y29.7251 
X-40.1064 Y29.8890 
Y30.0550 
X-40.1324 Y30.2189 
X-40.1836 Y30.3767 
X-40.2590 Y30.5245 
X-40.3565 Y30.6588 
X-40.4738 Y30.7761 
X-40.6081 Y30.8736 
X-40.7559 Y30.9490 
X-40.9137 Y31.0002 
X-41.0776 Y31.0262 
X-42.4155 
X-46.4426 Y35.0533 
X-46.5516 Y35.1162 
X-46.6731 Y35.1488 
X-48.5140 
Y35.3984 
X-49.1836 Y36.0680 
X-50.1304 
X-50.8000 Y35.3984 
Y34.4516 
X-50.7396 Y34.3911 
X-51.6329 Y33.4978 
X-52.7611 
X-53.5234 Y34.2601 
X-53.5298 Y34.2839 
X-53.5927 Y34.3929 
X-53.6816 Y34.4818 
X-57.8091 Y38.6093 
X-57.9181 Y38.6722 
X-58.0396 Y38.7048 
X-65.6970 
X-65.7565 Y38.7868 
X-65.8738 Y38.9041 
X-66.0081 Y39.0016 
X-66.1559 Y39.0770 
X-66.3137 Y39.1282 
X-66.4776 Y39.1542 
X-68.3964 
X-68.5603 Y39.1282 
X-68.6975 Y39.0837 
X-69.8525 Y40.2387 
X-69.8090 Y40.3038 
X-69.7353 Y40.4818 
X-69.6977 Y40.6707 
Y40.8633 
X-69.7353 Y41.0522 
X-69.8090 Y41.2302 
X-69.9160 Y41.3903 
X-70.0522 Y41.5265 
X-70.2123 Y41.6335 
X-70.3903 Y41.7072 
X-70.5792 Y41.7448 
X-70.7718 
X-70.9607 Y41.7072 
X-71.1387 Y41.6335 
X-71.2988 Y41.5265 
X-71.4350 Y41.3903 
X-71.5420 Y41.2302 
X-71.6157 Y41.0522 
X-71.6533 Y40.8633 
Y40.6707 
X-71.6157 Y40.4818 
X-71.5420 Y40.3038 
X-71.4350 Y40.1437 
X-71.2988 Y40.0075 
X-71.1387 Y39.9005 
X-70.9607 Y39.8268 
X-70.7718 Y39.7892 
X-70.7544 
X-69.3344 Y38.3692 
X-69.3416 Y38.3469 
X-69.3676 Y38.1830 
Y38.0170 
X-69.3416 Y37.8531 
X-69.2904 Y37.6953 
X-69.2150 Y37.5475 
X-69.1175 Y37.4132 
X-69.0002 Y37.2959 
G00 Z2.5400  
G00 X-69.0002 Y39.8359 
G01 Z-0.1778 F254   
G01 X-68.8659 Y39.7384 F508   
G01 X-68.7181 Y39.6630 
X-68.5603 Y39.6118 
X-68.3964 Y39.5858 
X-66.4776 
X-66.3137 Y39.6118 
X-66.1559 Y39.6630 
X-66.0081 Y39.7384 
X-65.8738 Y39.8359 
X-65.7565 Y39.9532 
X-65.6590 Y40.0875 
X-65.5836 Y40.2353 
X-65.5324 Y40.3931 
X-65.5064 Y40.5570 
Y40.7230 
X-65.5324 Y40.8869 
X-65.5836 Y41.0447 
X-65.6590 Y41.1925 
X-65.7565 Y41.3268 
X-65.8738 Y41.4441 
X-66.0081 Y41.5416 
X-66.1559 Y41.6170 
X-66.3137 Y41.6682 
X-66.4776 Y41.6942 
X-68.3964 
X-68.4979 Y41.6781 
X-69.4992 Y42.6794 
Y51.5614 
X-69.5318 Y51.6829 
X-69.5947 Y51.7919 
X-69.6836 Y51.8808 
X-80.8596 Y63.0568 
X-80.9686 Y63.1197 
X-81.0901 Y63.1523 
X-90.0382 
X-99.2516 Y77.2795 
X-99.1824 Y77.3257 
X-99.0427 Y77.4654 
X-98.9329 Y77.6298 
X-98.8573 Y77.8123 
X-98.8187 Y78.0062 
Y78.2038 
X-98.8573 Y78.3976 
X-98.9329 Y78.5802 
X-99.0427 Y78.7446 
X-99.1824 Y78.8843 
X-99.3468 Y78.9941 
X-99.5293 Y79.0697 
X-99.7232 Y79.1083 
X-99.9208 
X-100.1146 Y79.0697 
X-100.2972 Y78.9941 
X-100.4616 Y78.8843 
X-100.6013 Y78.7446 
X-100.7111 Y78.5802 
X-100.7867 Y78.3976 
X-100.8253 Y78.2038 
Y78.0062 
X-100.7867 Y77.8123 
X-100.7111 Y77.6298 
X-100.6013 Y77.4654 
X-100.4616 Y77.3257 
X-100.2998 Y77.2176 
X-100.2964 Y77.2039 
Y77.1908 
X-100.2802 Y77.1433 
X-100.2672 Y77.0951 
X-100.2607 Y77.0837 
X-100.2566 Y77.0712 
X-100.2293 Y77.0294 
X-100.2043 Y76.9861 
X-100.1950 Y76.9768 
X-90.7043 Y62.4243 
X-90.6793 Y62.3811 
X-90.6700 Y62.3718 
X-90.6628 Y62.3608 
X-90.6257 Y62.3274 
X-90.5904 Y62.2922 
X-90.5790 Y62.2856 
X-90.5692 Y62.2768 
X-90.5246 Y62.2542 
X-90.4814 Y62.2293 
X-90.4687 Y62.2259 
X-90.4570 Y62.2199 
X-90.4081 Y62.2096 
X-90.3599 Y62.1967 
X-90.3467 
X-90.3339 Y62.1940 
X-90.2840 Y62.1967 
X-81.3509 
X-70.4548 Y51.3006 
Y42.4186 
X-70.4222 Y42.2971 
X-70.3593 Y42.1881 
X-69.2652 Y41.0940 
X-69.2904 Y41.0447 
X-69.3416 Y40.8869 
X-69.3676 Y40.7230 
Y40.5570 
X-69.3416 Y40.3931 
X-69.2904 Y40.2353 
X-69.2150 Y40.0875 
X-69.1175 Y39.9532 
X-69.0002 Y39.8359 
G00 Z2.5400  
G00 X-69.0002 Y42.3759 
G01 Z-0.1778 F254   
G01 X-68.8659 Y42.2784 F508   
G01 X-68.7181 Y42.2030 
X-68.5603 Y42.1518 
X-68.3964 Y42.1258 
X-66.4776 
X-66.3137 Y42.1518 
X-66.1559 Y42.2030 
X-66.0081 Y42.2784 
X-65.8738 Y42.3759 
X-65.7565 Y42.4932 
X-65.6590 Y42.6275 
X-65.6209 Y42.7022 
X-61.4119 
X-56.5163 Y37.8066 
X-56.4274 Y37.7177 
X-56.3184 Y37.6548 
X-56.1969 Y37.6222 
X-54.5471 
X-54.4256 Y37.6548 
X-54.3166 Y37.7177 
X-53.1031 Y38.9312 
X-53.0908 Y38.9272 
X-52.9190 Y38.9000 
X-52.7450 
X-52.5732 Y38.9272 
X-52.4078 Y38.9810 
X-52.2529 Y39.0599 
X-52.1121 Y39.1622 
X-51.9892 Y39.2851 
X-51.8869 Y39.4259 
X-51.8080 Y39.5808 
X-51.7542 Y39.7462 
X-51.7270 Y39.9180 
Y40.0920 
X-51.7542 Y40.2638 
X-51.8080 Y40.4292 
X-51.8869 Y40.5841 
X-51.9892 Y40.7249 
X-52.1121 Y40.8478 
X-52.2529 Y40.9501 
X-52.4078 Y41.0290 
X-52.5732 Y41.0828 
X-52.7450 Y41.1100 
X-52.9190 
X-53.0908 Y41.0828 
X-53.2562 Y41.0290 
X-53.4111 Y40.9501 
X-53.5519 Y40.8478 
X-53.6748 Y40.7249 
X-53.7771 Y40.5841 
X-53.8560 Y40.4292 
X-53.9098 Y40.2638 
X-53.9370 Y40.0920 
Y39.9180 
X-53.9098 Y39.7462 
X-53.8560 Y39.5808 
X-53.8388 Y39.5469 
X-54.8079 Y38.5778 
X-55.9361 
X-60.9206 Y43.5623 
X-61.0296 Y43.6252 
X-61.1511 Y43.6578 
X-65.6209 
X-65.6590 Y43.7325 
X-65.7565 Y43.8668 
X-65.8738 Y43.9841 
X-66.0081 Y44.0816 
X-66.1559 Y44.1570 
X-66.3137 Y44.2082 
X-66.4776 Y44.2342 
X-68.3964 
X-68.5603 Y44.2082 
X-68.7181 Y44.1570 
X-68.8659 Y44.0816 
X-69.0002 Y43.9841 
X-69.1175 Y43.8668 
X-69.2150 Y43.7325 
X-69.2904 Y43.5847 
X-69.3416 Y43.4269 
X-69.3676 Y43.2630 
Y43.0970 
X-69.3416 Y42.9331 
X-69.2904 Y42.7753 
X-69.2150 Y42.6275 
X-69.1175 Y42.4932 
X-69.0002 Y42.3759 
G00 Z2.5400  
G00 X-69.0002 Y44.9159 
G01 Z-0.1778 F254   
G01 X-68.8659 Y44.8184 F508   
G01 X-68.7181 Y44.7430 
X-68.5603 Y44.6918 
X-68.3964 Y44.6658 
X-66.4776 
X-66.3137 Y44.6918 
X-66.1559 Y44.7430 
X-66.0081 Y44.8184 
X-65.8738 Y44.9159 
X-65.7565 Y45.0332 
X-65.6590 Y45.1675 
X-65.6209 Y45.2422 
X-50.6736 
X-50.5521 Y45.2748 
X-50.4431 Y45.3377 
X-49.8401 Y45.9407 
X-48.9659 
X-47.1503 Y44.1251 
Y41.6872 
X-47.2958 Y41.5900 
X-47.4320 Y41.4538 
X-47.5390 Y41.2937 
X-47.6127 Y41.1157 
X-47.6503 Y40.9268 
Y40.7342 
X-47.6127 Y40.5453 
X-47.5390 Y40.3673 
X-47.4320 Y40.2072 
X-47.2958 Y40.0710 
X-47.1357 Y39.9640 
X-46.9577 Y39.8903 
X-46.7688 Y39.8527 
X-46.5762 
X-46.3873 Y39.8903 
X-46.2093 Y39.9640 
X-46.0492 Y40.0710 
X-45.9130 Y40.2072 
X-45.8060 Y40.3673 
X-45.7323 Y40.5453 
X-45.6947 Y40.7342 
Y40.9268 
X-45.7323 Y41.1157 
X-45.8060 Y41.2937 
X-45.9130 Y41.4538 
X-46.0492 Y41.5900 
X-46.1947 Y41.6872 
Y43.9722 
X-33.7826 
X-33.6611 Y44.0048 
X-33.5521 Y44.0677 
X-33.4632 Y44.1566 
X-27.2976 Y50.3222 
X-21.5271 
X-21.4056 Y50.3548 
X-21.2966 Y50.4177 
X-21.2077 Y50.5066 
X-14.4071 Y57.3072 
X-10.7906 
X-10.1254 Y56.6420 
X-9.1786 
X-8.5090 Y57.3116 
Y58.2584 
X-9.1786 Y58.9280 
X-10.1254 
X-10.7906 Y58.2628 
X-14.6679 
X-14.7894 Y58.2302 
X-14.8984 Y58.1673 
X-21.7879 Y51.2778 
X-27.5584 
X-27.6799 Y51.2452 
X-27.7889 Y51.1823 
X-34.0434 Y44.9278 
X-46.4042 
X-46.4527 Y44.9307 
X-46.4669 Y44.9278 
X-46.4814 
X-46.5283 Y44.9152 
X-46.5759 Y44.9055 
X-48.4746 Y46.8008 
X-48.5836 Y46.8637 
X-48.7051 Y46.8963 
X-50.1009 
X-50.2224 Y46.8637 
X-50.3314 Y46.8008 
X-50.4203 Y46.7119 
X-50.9344 Y46.1978 
X-65.6209 
X-65.6590 Y46.2725 
X-65.7565 Y46.4068 
X-65.8738 Y46.5241 
X-66.0081 Y46.6216 
X-66.1559 Y46.6970 
X-66.3137 Y46.7482 
X-66.4776 Y46.7742 
X-68.3964 
X-68.5603 Y46.7482 
X-68.7181 Y46.6970 
X-68.8659 Y46.6216 
X-69.0002 Y46.5241 
X-69.1175 Y46.4068 
X-69.2150 Y46.2725 
X-69.2904 Y46.1247 
X-69.3416 Y45.9669 
X-69.3676 Y45.8030 
Y45.6370 
X-69.3416 Y45.4731 
X-69.2904 Y45.3153 
X-69.2150 Y45.1675 
X-69.1175 Y45.0332 
X-69.0002 Y44.9159 
G00 Z2.5400  
G00 X-69.0002 Y47.4559 
G01 Z-0.1778 F254   
G01 X-68.8659 Y47.3584 F508   
G01 X-68.7181 Y47.2830 
X-68.5603 Y47.2318 
X-68.3964 Y47.2058 
X-66.4776 
X-66.3137 Y47.2318 
X-66.1559 Y47.2830 
X-66.0081 Y47.3584 
X-65.8738 Y47.4559 
X-65.7565 Y47.5732 
X-65.6590 Y47.7075 
X-65.6209 Y47.7822 
X-47.6256 
X-47.5041 Y47.8148 
X-47.3951 Y47.8777 
X-47.3062 Y47.9666 
X-45.7761 Y49.4967 
X-29.9726 
X-29.8511 Y49.5293 
X-29.7421 Y49.5922 
X-29.6532 Y49.6811 
X-22.0271 Y57.3072 
X-18.4106 
X-17.7454 Y56.6420 
X-16.7986 
X-16.1290 Y57.3116 
Y58.2584 
X-16.7986 Y58.9280 
X-17.7454 
X-18.4106 Y58.2628 
X-22.2879 
X-22.4094 Y58.2302 
X-22.5184 Y58.1673 
X-30.2334 Y50.4523 
X-46.0369 
X-46.1584 Y50.4197 
X-46.2674 Y50.3568 
X-47.8864 Y48.7378 
X-65.6209 
X-65.6590 Y48.8125 
X-65.7565 Y48.9468 
X-65.8738 Y49.0641 
X-66.0081 Y49.1616 
X-66.1559 Y49.2370 
X-66.3137 Y49.2882 
X-66.4776 Y49.3142 
X-68.3964 
X-68.5603 Y49.2882 
X-68.7181 Y49.2370 
X-68.8659 Y49.1616 
X-69.0002 Y49.0641 
X-69.1175 Y48.9468 
X-69.2150 Y48.8125 
X-69.2904 Y48.6647 
X-69.3416 Y48.5069 
X-69.3676 Y48.3430 
Y48.1770 
X-69.3416 Y48.0131 
X-69.2904 Y47.8553 
X-69.2150 Y47.7075 
X-69.1175 Y47.5732 
X-69.0002 Y47.4559 
G00 Z2.5400  
G00 X-69.0002 Y49.9959 
G01 Z-0.1778 F254   
G01 X-68.8659 Y49.8984 F508   
G01 X-68.7181 Y49.8230 
X-68.5603 Y49.7718 
X-68.3964 Y49.7458 
X-66.4776 
X-66.3137 Y49.7718 
X-66.1559 Y49.8230 
X-66.0081 Y49.8984 
X-65.8738 Y49.9959 
X-65.7565 Y50.1132 
X-65.6590 Y50.2475 
X-65.6209 Y50.3222 
X-50.0386 
X-49.9171 Y50.3548 
X-49.8081 Y50.4177 
X-48.5066 Y51.7192 
X-30.4171 
X-30.2956 Y51.7518 
X-30.1866 Y51.8147 
X-25.3593 Y56.6420 
X-24.4186 
X-23.7490 Y57.3116 
Y58.2584 
X-24.4186 Y58.9280 
X-25.3654 
X-26.0350 Y58.2584 
Y57.3177 
X-30.6779 Y52.6748 
X-48.7674 
X-48.8889 Y52.6422 
X-48.9979 Y52.5793 
X-49.0868 Y52.4904 
X-50.2994 Y51.2778 
X-65.6209 
X-65.6590 Y51.3525 
X-65.7565 Y51.4868 
X-65.8738 Y51.6041 
X-66.0081 Y51.7016 
X-66.1559 Y51.7770 
X-66.3137 Y51.8282 
X-66.4776 Y51.8542 
X-68.3964 
X-68.5603 Y51.8282 
X-68.7181 Y51.7770 
X-68.8659 Y51.7016 
X-69.0002 Y51.6041 
X-69.1175 Y51.4868 
X-69.2150 Y51.3525 
X-69.2904 Y51.2047 
X-69.3416 Y51.0469 
X-69.3676 Y50.8830 
Y50.7170 
X-69.3416 Y50.5531 
X-69.2904 Y50.3953 
X-69.2150 Y50.2475 
X-69.1175 Y50.1132 
X-69.0002 Y49.9959 
G00 Z2.5400  
G00 X-69.0002 Y52.5359 
G01 Z-0.1778 F254   
G01 X-68.8659 Y52.4384 F508   
G01 X-68.7181 Y52.3630 
X-68.5603 Y52.3118 
X-68.3964 Y52.2858 
X-66.4776 
X-66.3137 Y52.3118 
X-66.1559 Y52.3630 
X-66.0081 Y52.4384 
X-65.8738 Y52.5359 
X-65.7565 Y52.6532 
X-65.6590 Y52.7875 
X-65.6209 Y52.8622 
X-49.0226 
X-48.9011 Y52.8948 
X-48.7921 Y52.9577 
X-47.5541 Y54.1957 
X-35.5606 
X-35.4391 Y54.2283 
X-35.3301 Y54.2912 
X-32.9793 Y56.6420 
X-32.0386 
X-31.3690 Y57.3116 
Y58.2584 
X-32.0386 Y58.9280 
X-32.9854 
X-33.6550 Y58.2584 
Y57.3177 
X-35.8214 Y55.1513 
X-47.8149 
X-47.9364 Y55.1187 
X-48.0454 Y55.0558 
X-48.1343 Y54.9669 
X-49.2834 Y53.8178 
X-65.6209 
X-65.6590 Y53.8925 
X-65.7565 Y54.0268 
X-65.8738 Y54.1441 
X-66.0081 Y54.2416 
X-66.1559 Y54.3170 
X-66.3137 Y54.3682 
X-66.4776 Y54.3942 
X-68.3964 
X-68.5603 Y54.3682 
X-68.7181 Y54.3170 
X-68.8659 Y54.2416 
X-69.0002 Y54.1441 
X-69.1175 Y54.0268 
X-69.2150 Y53.8925 
X-69.2904 Y53.7447 
X-69.3416 Y53.5869 
X-69.3676 Y53.4230 
Y53.2570 
X-69.3416 Y53.0931 
X-69.2904 Y52.9353 
X-69.2150 Y52.7875 
X-69.1175 Y52.6532 
X-69.0002 Y52.5359 
G00 Z2.5400  
G00 X-69.0002 Y55.0759 
G01 Z-0.1778 F254   
G01 X-68.8659 Y54.9784 F508   
G01 X-68.7181 Y54.9030 
X-68.5603 Y54.8518 
X-68.3964 Y54.8258 
X-66.4776 
X-66.3137 Y54.8518 
X-66.1559 Y54.9030 
X-66.0081 Y54.9784 
X-65.8738 Y55.0759 
X-65.7565 Y55.1932 
X-65.6590 Y55.3275 
X-65.6209 Y55.4022 
X-41.9741 
X-41.8526 Y55.4348 
X-41.7436 Y55.4977 
X-40.5993 Y56.6420 
X-39.6586 
X-38.9890 Y57.3116 
Y58.2584 
X-39.6586 Y58.9280 
X-40.6054 
X-41.2750 Y58.2584 
Y57.3177 
X-42.2349 Y56.3578 
X-65.6209 
X-65.6590 Y56.4325 
X-65.7565 Y56.5668 
X-65.8738 Y56.6841 
X-66.0081 Y56.7816 
X-66.1559 Y56.8570 
X-66.3137 Y56.9082 
X-66.4776 Y56.9342 
X-68.3964 
X-68.5603 Y56.9082 
X-68.7181 Y56.8570 
X-68.8659 Y56.7816 
X-69.0002 Y56.6841 
X-69.1175 Y56.5668 
X-69.2150 Y56.4325 
X-69.2904 Y56.2847 
X-69.3416 Y56.1269 
X-69.3676 Y55.9630 
Y55.7970 
X-69.3416 Y55.6331 
X-69.2904 Y55.4753 
X-69.2150 Y55.3275 
X-69.1175 Y55.1932 
X-69.0002 Y55.0759 
G00 Z2.5400  
G00 X-69.0002 Y57.6159 
G01 Z-0.1778 F254   
G01 X-68.8659 Y57.5184 F508   
G01 X-68.7181 Y57.4430 
X-68.5603 Y57.3918 
X-68.3964 Y57.3658 
X-66.4776 
X-66.3137 Y57.3918 
X-66.1559 Y57.4430 
X-66.0081 Y57.5184 
X-65.8738 Y57.6159 
X-65.7565 Y57.7332 
X-65.6590 Y57.8675 
X-65.6209 Y57.9422 
X-50.2291 
X-50.1076 Y57.9748 
X-49.9986 Y58.0377 
X-48.8543 Y59.1820 
X-47.9136 
X-47.2440 Y59.8516 
Y60.7984 
X-47.9136 Y61.4680 
X-48.8604 
X-49.5300 Y60.7984 
Y59.8577 
X-50.4899 Y58.8978 
X-65.6209 
X-65.6590 Y58.9725 
X-65.7565 Y59.1068 
X-65.8738 Y59.2241 
X-66.0081 Y59.3216 
X-66.1559 Y59.3970 
X-66.3137 Y59.4482 
X-66.4776 Y59.4742 
X-68.3964 
X-68.5603 Y59.4482 
X-68.7181 Y59.3970 
X-68.8659 Y59.3216 
X-69.0002 Y59.2241 
X-69.1175 Y59.1068 
X-69.2150 Y58.9725 
X-69.2904 Y58.8247 
X-69.3416 Y58.6669 
X-69.3676 Y58.5030 
Y58.3370 
X-69.3416 Y58.1731 
X-69.2904 Y58.0153 
X-69.2150 Y57.8675 
X-69.1175 Y57.7332 
X-69.0002 Y57.6159 
G00 Z2.5400  
G00 X-69.0002 Y60.1559 
G01 Z-0.1778 F254   
G01 X-68.8659 Y60.0584 F508   
G01 X-68.7181 Y59.9830 
X-68.5603 Y59.9318 
X-68.3964 Y59.9058 
X-66.4776 
X-66.3137 Y59.9318 
X-66.1559 Y59.9830 
X-66.0081 Y60.0584 
X-65.8738 Y60.1559 
X-65.7565 Y60.2732 
X-65.6590 Y60.4075 
X-65.5836 Y60.5553 
X-65.5324 Y60.7131 
X-65.5064 Y60.8770 
Y61.0430 
X-65.5324 Y61.2069 
X-65.5836 Y61.3647 
X-65.6590 Y61.5125 
X-65.7565 Y61.6468 
X-65.8738 Y61.7641 
X-65.9221 Y61.7992 
X-63.6831 Y64.0382 
X-60.0681 
X-59.4917 Y63.4618 
X-58.6183 
X-58.0008 Y64.0793 
Y64.9527 
X-58.6183 Y65.5702 
X-59.4917 
X-60.0681 Y64.9938 
X-63.9439 
X-64.0654 Y64.9612 
X-64.1744 Y64.8983 
X-67.0585 Y62.0142 
X-68.3964 
X-68.5603 Y61.9882 
X-68.7181 Y61.9370 
X-68.8659 Y61.8616 
X-69.0002 Y61.7641 
X-69.1175 Y61.6468 
X-69.2150 Y61.5125 
X-69.2904 Y61.3647 
X-69.3416 Y61.2069 
X-69.3676 Y61.0430 
Y60.8770 
X-69.3416 Y60.7131 
X-69.2904 Y60.5553 
X-69.2150 Y60.4075 
X-69.1175 Y60.2732 
X-69.0002 Y60.1559 
G00 Z2.5400  
G00 X-69.8525 Y62.8132 
G01 Z-0.1778 F254   
G01 X-69.7455 Y62.9733 F508   
G01 X-69.6718 Y63.1513 
X-69.6342 Y63.3402 
Y63.5328 
X-69.6718 Y63.7217 
X-69.7455 Y63.8997 
X-69.8525 Y64.0598 
X-69.9887 Y64.1960 
X-70.1342 Y64.2932 
Y76.0336 
X-70.0180 Y76.1112 
X-69.8882 Y76.2410 
X-69.7862 Y76.3936 
X-69.7160 Y76.5632 
X-69.6802 Y76.7432 
Y76.9268 
X-69.7160 Y77.1068 
X-69.7862 Y77.2764 
X-69.8882 Y77.4290 
X-70.0180 Y77.5588 
X-70.1294 Y77.6332 
Y79.5847 
X-70.0529 Y79.6237 
X-69.9121 Y79.7260 
X-69.7892 Y79.8489 
X-69.6869 Y79.9897 
X-69.6080 Y80.1446 
X-69.5542 Y80.3100 
X-69.5270 Y80.4818 
Y80.6558 
X-69.5542 Y80.8276 
X-69.6080 Y80.9930 
X-69.6869 Y81.1479 
X-69.7892 Y81.2887 
X-69.9121 Y81.4116 
X-70.0529 Y81.5139 
X-70.1422 Y81.5594 
X-70.0529 Y81.6049 
X-69.9121 Y81.7072 
X-69.7892 Y81.8301 
X-69.6869 Y81.9709 
X-69.6377 Y82.0674 
X-68.2719 
X-66.0146 Y79.8101 
Y76.6445 
X-65.9817 Y76.5217 
X-65.9182 Y76.4117 
X-54.5919 Y65.0854 
X-54.6439 Y64.9255 
X-54.6736 Y64.7380 
Y64.5480 
X-54.6439 Y64.3605 
X-54.5852 Y64.1798 
X-54.4990 Y64.0106 
X-54.3873 Y63.8570 
X-54.2530 Y63.7227 
X-54.0994 Y63.6110 
X-53.9302 Y63.5248 
X-53.7495 Y63.4661 
X-53.5620 Y63.4364 
X-53.3720 
X-53.1844 Y63.4661 
X-53.0038 Y63.5248 
X-52.8346 Y63.6110 
X-52.6810 Y63.7227 
X-52.5467 Y63.8570 
X-52.4350 Y64.0106 
X-52.3563 Y64.1652 
X-50.2359 
X-47.4104 Y61.3397 
X-47.3014 Y61.2768 
X-47.1799 Y61.2442 
X-45.0664 
X-45.0335 Y61.1429 
X-44.9493 Y60.9777 
X-44.8404 Y60.8277 
X-44.7093 Y60.6966 
X-44.5593 Y60.5877 
X-44.3941 Y60.5035 
X-44.2178 Y60.4462 
X-44.0347 Y60.4172 
X-43.8493 
X-43.6662 Y60.4462 
X-43.4899 Y60.5035 
X-43.3247 Y60.5877 
X-43.1747 Y60.6966 
X-43.0436 Y60.8277 
X-42.9347 Y60.9777 
X-42.8636 Y61.1172 
X-37.4004 
X-37.3293 Y60.9777 
X-37.2204 Y60.8277 
X-37.0893 Y60.6966 
X-36.9393 Y60.5877 
X-36.7741 Y60.5035 
X-36.5978 Y60.4462 
X-36.4147 Y60.4172 
X-36.2293 
X-36.0462 Y60.4462 
X-35.8699 Y60.5035 
X-35.7047 Y60.5877 
X-35.5547 Y60.6966 
X-35.4236 Y60.8277 
X-35.3147 Y60.9777 
X-35.2436 Y61.1172 
X-29.7804 
X-29.7093 Y60.9777 
X-29.6004 Y60.8277 
X-29.4693 Y60.6966 
X-29.3193 Y60.5877 
X-29.1541 Y60.5035 
X-28.9778 Y60.4462 
X-28.7947 Y60.4172 
X-28.6093 
X-28.4262 Y60.4462 
X-28.2499 Y60.5035 
X-28.0847 Y60.5877 
X-27.9347 Y60.6966 
X-27.8036 Y60.8277 
X-27.6947 Y60.9777 
X-27.6236 Y61.1172 
X-22.1604 
X-22.0893 Y60.9777 
X-21.9804 Y60.8277 
X-21.8493 Y60.6966 
X-21.6993 Y60.5877 
X-21.5341 Y60.5035 
X-21.3578 Y60.4462 
X-21.1747 Y60.4172 
X-20.9893 
X-20.8062 Y60.4462 
X-20.6299 Y60.5035 
X-20.4647 Y60.5877 
X-20.3147 Y60.6966 
X-20.1836 Y60.8277 
X-20.0747 Y60.9777 
X-20.0036 Y61.1172 
X-14.5404 
X-14.4693 Y60.9777 
X-14.3604 Y60.8277 
X-14.2293 Y60.6966 
X-14.0793 Y60.5877 
X-13.9141 Y60.5035 
X-13.7378 Y60.4462 
X-13.5547 Y60.4172 
X-13.3693 
X-13.1862 Y60.4462 
X-13.0099 Y60.5035 
X-12.8447 Y60.5877 
X-12.6947 Y60.6966 
X-12.5636 Y60.8277 
X-12.4547 Y60.9777 
X-12.3836 Y61.1172 
X-8.2248 
Y51.2778 
X-10.4504 
X-10.4394 Y51.3470 
Y51.5230 
X-10.4669 Y51.6967 
X-10.5213 Y51.8640 
X-10.6011 Y52.0207 
X-10.7045 Y52.1631 
X-10.8289 Y52.2875 
X-10.9712 Y52.3909 
X-11.1280 Y52.4707 
X-11.2953 Y52.5251 
X-11.4690 Y52.5526 
X-11.6450 
X-11.8187 Y52.5251 
X-11.9860 Y52.4707 
X-12.1427 Y52.3909 
X-12.2851 Y52.2875 
X-12.4095 Y52.1631 
X-12.5129 Y52.0207 
X-12.5927 Y51.8640 
X-12.6471 Y51.6967 
X-12.6746 Y51.5230 
Y51.3470 
X-12.6471 Y51.1733 
X-12.5927 Y51.0060 
X-12.5129 Y50.8492 
X-12.4095 Y50.7069 
X-12.2851 Y50.5825 
X-12.1427 Y50.4791 
X-11.9860 Y50.3993 
X-11.8187 Y50.3449 
X-11.6450 Y50.3174 
X-11.4690 
X-11.2953 Y50.3449 
X-11.1635 Y50.3877 
X-11.1064 Y50.3548 
X-10.9849 Y50.3222 
X-7.3644 
X-7.2563 Y50.1604 
X-7.1166 Y50.0207 
X-6.9522 Y49.9109 
X-6.7697 Y49.8353 
X-6.5758 Y49.7967 
X-6.3782 
X-6.1874 Y49.8347 
X-5.1768 Y48.8241 
Y47.7594 
X-5.5258 Y47.4104 
X-5.5887 Y47.3014 
X-5.6213 Y47.1799 
Y45.5778 
X-6.2224 
X-6.2877 Y45.5507 
X-6.3377 Y45.5007 
X-6.3648 Y45.4354 
Y43.3646 
X-6.3377 Y43.2993 
X-6.2877 Y43.2493 
X-6.2224 Y43.2222 
X-4.1516 
X-4.0863 Y43.2493 
X-4.0363 Y43.2993 
X-4.0092 Y43.3646 
Y45.4354 
X-4.0363 Y45.5007 
X-4.0863 Y45.5507 
X-4.1516 Y45.5778 
X-4.6657 
Y46.9191 
X-4.4056 Y47.1792 
X-4.3167 Y47.2681 
X-4.2538 Y47.3771 
X-4.2212 Y47.4986 
Y49.0849 
X-4.2538 Y49.2064 
X-4.3167 Y49.3154 
X-5.5117 Y50.5104 
X-5.4737 Y50.7012 
Y50.8988 
X-5.5123 Y51.0926 
X-5.5879 Y51.2752 
X-5.6977 Y51.4396 
X-5.8374 Y51.5793 
X-6.0018 Y51.6891 
X-6.1843 Y51.7647 
X-6.3782 Y51.8033 
X-6.5758 
X-6.7697 Y51.7647 
X-6.9522 Y51.6891 
X-7.1166 Y51.5793 
X-7.2563 Y51.4396 
X-7.2692 Y51.4203 
Y61.1172 
X-6.9204 
X-6.8493 Y60.9777 
X-6.7404 Y60.8277 
X-6.6093 Y60.6966 
X-6.4593 Y60.5877 
X-6.2941 Y60.5035 
X-6.1178 Y60.4462 
X-5.9347 Y60.4172 
X-5.7493 
X-5.5662 Y60.4462 
X-5.3899 Y60.5035 
X-5.2247 Y60.5877 
X-5.0747 Y60.6966 
X-4.9436 Y60.8277 
X-4.8347 Y60.9777 
X-4.7505 Y61.1429 
X-4.6932 Y61.3192 
X-4.6642 Y61.5023 
Y61.6877 
X-4.6932 Y61.8708 
X-4.7505 Y62.0471 
X-4.8347 Y62.2123 
X-4.9436 Y62.3623 
X-5.0747 Y62.4934 
X-5.2247 Y62.6023 
X-5.3899 Y62.6865 
X-5.5662 Y62.7438 
X-5.7493 Y62.7728 
X-5.9347 
X-6.1178 Y62.7438 
X-6.2941 Y62.6865 
X-6.4593 Y62.6023 
X-6.6093 Y62.4934 
X-6.7404 Y62.3623 
X-6.8493 Y62.2123 
X-6.9204 Y62.0728 
X-12.3836 
X-12.4547 Y62.2123 
X-12.5636 Y62.3623 
X-12.6947 Y62.4934 
X-12.8447 Y62.6023 
X-13.0099 Y62.6865 
X-13.1862 Y62.7438 
X-13.3693 Y62.7728 
X-13.5547 
X-13.7378 Y62.7438 
X-13.9141 Y62.6865 
X-14.0793 Y62.6023 
X-14.2293 Y62.4934 
X-14.3604 Y62.3623 
X-14.4693 Y62.2123 
X-14.5404 Y62.0728 
X-20.0036 
X-20.0747 Y62.2123 
X-20.1836 Y62.3623 
X-20.3147 Y62.4934 
X-20.4647 Y62.6023 
X-20.6299 Y62.6865 
X-20.8062 Y62.7438 
X-20.9893 Y62.7728 
X-21.1747 
X-21.3578 Y62.7438 
X-21.5341 Y62.6865 
X-21.6993 Y62.6023 
X-21.8493 Y62.4934 
X-21.9804 Y62.3623 
X-22.0893 Y62.2123 
X-22.1604 Y62.0728 
X-27.6236 
X-27.6947 Y62.2123 
X-27.8036 Y62.3623 
X-27.9347 Y62.4934 
X-28.0847 Y62.6023 
X-28.2499 Y62.6865 
X-28.4262 Y62.7438 
X-28.6093 Y62.7728 
X-28.7947 
X-28.9778 Y62.7438 
X-29.1541 Y62.6865 
X-29.3193 Y62.6023 
X-29.4693 Y62.4934 
X-29.6004 Y62.3623 
X-29.7093 Y62.2123 
X-29.7804 Y62.0728 
X-35.2436 
X-35.3147 Y62.2123 
X-35.4236 Y62.3623 
X-35.5547 Y62.4934 
X-35.7047 Y62.6023 
X-35.8699 Y62.6865 
X-36.0462 Y62.7438 
X-36.2293 Y62.7728 
X-36.4147 
X-36.5978 Y62.7438 
X-36.7741 Y62.6865 
X-36.9393 Y62.6023 
X-37.0893 Y62.4934 
X-37.2204 Y62.3623 
X-37.3293 Y62.2123 
X-37.4004 Y62.0728 
X-42.8636 
X-42.9347 Y62.2123 
X-43.0436 Y62.3623 
X-43.1747 Y62.4934 
X-43.3247 Y62.6023 
X-43.4899 Y62.6865 
X-43.6662 Y62.7438 
X-43.8493 Y62.7728 
X-44.0347 
X-44.2178 Y62.7438 
X-44.3941 Y62.6865 
X-44.5593 Y62.6023 
X-44.7093 Y62.4934 
X-44.8404 Y62.3623 
X-44.9493 Y62.2123 
X-44.9557 Y62.1998 
X-46.9191 
X-49.6557 Y64.9364 
X-49.7446 Y65.0253 
X-49.8536 Y65.0882 
X-49.9751 Y65.1208 
X-51.0207 
Y75.6914 
X-51.0533 Y75.8129 
X-51.1162 Y75.9219 
X-51.2051 Y76.0108 
X-53.2834 Y78.0891 
X-53.2204 Y78.1520 
X-53.1135 Y78.2992 
X-53.0309 Y78.4613 
X-52.9747 Y78.6343 
X-52.9462 Y78.8140 
Y80.9520 
X-52.9747 Y81.1316 
X-53.0309 Y81.3047 
X-53.1135 Y81.4668 
X-53.2204 Y81.6140 
X-53.3490 Y81.7426 
X-53.4962 Y81.8495 
X-53.6242 Y81.9147 
Y85.0670 
X-53.5797 Y85.0225 
X-53.4336 Y84.9163 
X-53.2726 Y84.8343 
X-53.1008 Y84.7785 
X-52.9223 Y84.7502 
X-52.7417 
X-52.5632 Y84.7785 
X-52.3914 Y84.8343 
X-52.2304 Y84.9163 
X-52.0843 Y85.0225 
X-51.9565 Y85.1503 
X-51.8503 Y85.2964 
X-51.7683 Y85.4574 
X-51.7125 Y85.6292 
X-51.6842 Y85.8077 
Y87.9283 
X-51.7125 Y88.1068 
X-51.7683 Y88.2786 
X-51.8503 Y88.4396 
X-51.9565 Y88.5857 
X-52.0843 Y88.7135 
X-52.2304 Y88.8197 
X-52.3914 Y88.9017 
X-52.5632 Y88.9575 
X-52.7417 Y88.9858 
X-52.9223 
X-53.1008 Y88.9575 
X-53.2726 Y88.9017 
X-53.4336 Y88.8197 
X-53.5797 Y88.7135 
X-53.7075 Y88.5857 
X-53.8137 Y88.4396 
X-53.8957 Y88.2786 
X-53.9515 Y88.1068 
X-53.9798 Y87.9283 
Y87.3458 
X-54.2242 
Y87.9283 
X-54.2525 Y88.1068 
X-54.3083 Y88.2786 
X-54.3903 Y88.4396 
X-54.4965 Y88.5857 
X-54.6243 Y88.7135 
X-54.7704 Y88.8197 
X-54.9314 Y88.9017 
X-55.1032 Y88.9575 
X-55.2817 Y88.9858 
X-55.4623 
X-55.6408 Y88.9575 
X-55.8126 Y88.9017 
X-55.9736 Y88.8197 
X-56.1197 Y88.7135 
X-56.2475 Y88.5857 
X-56.3537 Y88.4396 
X-56.4357 Y88.2786 
X-56.4915 Y88.1068 
X-56.5198 Y87.9283 
Y85.8077 
X-56.4915 Y85.6292 
X-56.4357 Y85.4574 
X-56.3537 Y85.2964 
X-56.2475 Y85.1503 
X-56.1197 Y85.0225 
X-55.9736 Y84.9163 
X-55.8126 Y84.8343 
X-55.6408 Y84.7785 
X-55.4623 Y84.7502 
X-55.2817 
X-55.1032 Y84.7785 
X-54.9314 Y84.8343 
X-54.7704 Y84.9163 
X-54.6243 Y85.0225 
X-54.5798 Y85.0670 
Y81.9147 
X-54.7078 Y81.8495 
X-54.8550 Y81.7426 
X-54.9836 Y81.6140 
X-55.0905 Y81.4668 
X-55.1731 Y81.3047 
X-55.2293 Y81.1316 
X-55.2578 Y80.9520 
Y78.8140 
X-55.2293 Y78.6343 
X-55.1731 Y78.4613 
X-55.0905 Y78.2992 
X-54.9836 Y78.1520 
X-54.8550 Y78.0234 
X-54.7078 Y77.9165 
X-54.5457 Y77.8339 
X-54.3727 Y77.7777 
X-54.3141 Y77.7684 
X-51.9763 Y75.4306 
Y65.1208 
X-52.3563 
X-52.4350 Y65.2754 
X-52.5467 Y65.4290 
X-52.6810 Y65.5633 
X-52.8346 Y65.6750 
X-53.0038 Y65.7612 
X-53.1844 Y65.8199 
X-53.3720 Y65.8496 
X-53.5620 
X-53.7495 Y65.8199 
X-53.9094 Y65.7679 
X-65.0494 Y76.9079 
Y80.0735 
X-65.0823 Y80.1963 
X-65.1458 Y80.3063 
X-65.2357 Y80.3962 
X-67.7757 Y82.9362 
X-67.8857 Y82.9997 
X-68.0085 Y83.0326 
X-69.6377 
X-69.6869 Y83.1291 
X-69.7892 Y83.2699 
X-69.9121 Y83.3928 
X-70.0529 Y83.4951 
X-70.2078 Y83.5740 
X-70.3732 Y83.6278 
X-70.5450 Y83.6550 
X-70.7190 
X-70.8908 Y83.6278 
X-71.0092 Y83.5893 
X-71.0552 Y83.6689 
X-72.1347 Y84.7484 
X-72.2236 Y84.8373 
X-72.3326 Y84.9002 
X-72.4541 Y84.9328 
X-75.1199 
X-75.2414 Y84.9002 
X-75.3504 Y84.8373 
X-77.6679 Y82.5198 
X-81.1387 
X-81.1872 Y82.5227 
X-81.2014 Y82.5198 
X-81.2159 
X-81.2629 Y82.5072 
X-81.3104 Y82.4975 
X-81.3234 Y82.4910 
X-81.3374 Y82.4872 
X-81.3795 Y82.4629 
X-81.3973 Y82.4540 
X-82.5106 Y83.5673 
X-82.6196 Y83.6302 
X-82.7411 Y83.6628 
X-85.5996 
X-85.7077 Y83.8246 
X-85.8474 Y83.9643 
X-86.0118 Y84.0741 
X-86.1943 Y84.1497 
X-86.3882 Y84.1883 
X-86.5858 
X-86.7797 Y84.1497 
X-86.9622 Y84.0741 
X-87.1266 Y83.9643 
X-87.2663 Y83.8246 
X-87.3761 Y83.6602 
X-87.4517 Y83.4776 
X-87.4903 Y83.2838 
Y83.0862 
X-87.4517 Y82.8923 
X-87.3761 Y82.7098 
X-87.2663 Y82.5454 
X-87.1266 Y82.4057 
X-86.9622 Y82.2959 
X-86.7797 Y82.2203 
X-86.5858 Y82.1817 
X-86.3882 
X-86.1943 Y82.2203 
X-86.0118 Y82.2959 
X-85.8474 Y82.4057 
X-85.7077 Y82.5454 
X-85.5996 Y82.7072 
X-83.0019 
X-82.0331 Y81.7384 
X-82.0251 Y81.7262 
X-81.9887 Y81.6940 
X-81.9544 Y81.6597 
X-81.9418 Y81.6524 
X-81.9309 Y81.6428 
X-81.8875 Y81.6210 
X-81.8848 
Y73.4009 
X-81.9927 Y73.3459 
X-82.1351 Y73.2425 
X-82.2595 Y73.1181 
X-82.3629 Y72.9757 
X-82.4427 Y72.8190 
X-82.4971 Y72.6517 
X-82.5246 Y72.4780 
Y72.3020 
X-82.4971 Y72.1283 
X-82.4427 Y71.9610 
X-82.3629 Y71.8042 
X-82.2595 Y71.6619 
X-82.1351 Y71.5375 
X-81.9927 Y71.4341 
X-81.8360 Y71.3543 
X-81.6687 Y71.2999 
X-81.4950 Y71.2724 
X-81.3190 
X-81.1453 Y71.2999 
X-80.9780 Y71.3543 
X-80.8213 Y71.4341 
X-80.6789 Y71.5375 
X-80.5545 Y71.6619 
X-80.4511 Y71.8042 
X-80.3713 Y71.9610 
X-80.3169 Y72.1283 
X-80.2894 Y72.3020 
Y72.4780 
X-80.3169 Y72.6517 
X-80.3713 Y72.8190 
X-80.4511 Y72.9757 
X-80.5545 Y73.1181 
X-80.6789 Y73.2425 
X-80.8213 Y73.3459 
X-80.9292 Y73.4009 
Y81.5642 
X-77.4071 
X-77.2856 Y81.5968 
X-77.1766 Y81.6597 
X-77.0877 Y81.7486 
X-74.8591 Y83.9772 
X-72.7149 
X-71.8891 Y83.1514 
X-71.8827 Y83.1276 
X-71.8198 Y83.0186 
X-71.7309 Y82.9297 
X-71.6853 Y82.8841 
X-71.7098 Y82.8088 
X-71.7370 Y82.6370 
Y82.4630 
X-71.7098 Y82.2912 
X-71.6560 Y82.1258 
X-71.5771 Y81.9709 
X-71.4748 Y81.8301 
X-71.3519 Y81.7072 
X-71.2111 Y81.6049 
X-71.1218 Y81.5594 
X-71.2111 Y81.5139 
X-71.3519 Y81.4116 
X-71.4748 Y81.2887 
X-71.5771 Y81.1479 
X-71.6560 Y80.9930 
X-71.7098 Y80.8276 
X-71.7370 Y80.6558 
Y80.4818 
X-71.7098 Y80.3100 
X-71.6560 Y80.1446 
X-71.5771 Y79.9897 
X-71.4748 Y79.8489 
X-71.3519 Y79.7260 
X-71.2111 Y79.6237 
X-71.0946 Y79.5643 
Y77.6332 
X-71.2060 Y77.5588 
X-71.3358 Y77.4290 
X-71.4377 Y77.2764 
X-71.5080 Y77.1068 
X-71.5438 Y76.9268 
Y76.7432 
X-71.5080 Y76.5632 
X-71.4377 Y76.3936 
X-71.3358 Y76.2410 
X-71.2060 Y76.1112 
X-71.0898 Y76.0336 
Y64.2932 
X-71.2353 Y64.1960 
X-71.3715 Y64.0598 
X-71.4785 Y63.8997 
X-71.5522 Y63.7217 
X-71.5898 Y63.5328 
Y63.3402 
X-71.5522 Y63.1513 
X-71.4785 Y62.9733 
X-71.3715 Y62.8132 
X-71.2353 Y62.6770 
X-71.0752 Y62.5700 
X-70.8972 Y62.4963 
X-70.7083 Y62.4587 
X-70.5157 
X-70.3268 Y62.4963 
X-70.1488 Y62.5700 
X-69.9887 Y62.6770 
X-69.8525 Y62.8132 
G00 Z2.5400  
G00 X-74.3702 Y59.6875 
G01 Z-0.1778 F254   
G01 X-74.5303 Y59.7945 F508   
G01 X-74.7083 Y59.8682 
X-74.8972 Y59.9058 
X-75.0898 
X-75.2614 Y59.8717 
X-87.7811 Y72.3913 
X-87.8901 Y72.4542 
X-88.0116 Y72.4868 
X-88.1374 
X-91.3453 
X-91.4425 Y72.6323 
X-91.5787 Y72.7685 
X-91.7388 Y72.8755 
X-91.9168 Y72.9492 
X-92.1057 Y72.9868 
X-92.2983 
X-92.4872 Y72.9492 
X-92.6652 Y72.8755 
X-92.8253 Y72.7685 
X-92.9615 Y72.6323 
X-93.0685 Y72.4722 
X-93.1422 Y72.2942 
X-93.1798 Y72.1053 
Y71.9127 
X-93.1422 Y71.7238 
X-93.0685 Y71.5458 
X-92.9615 Y71.3857 
X-92.8253 Y71.2495 
X-92.6652 Y71.1425 
X-92.4872 Y71.0688 
X-92.2983 Y71.0312 
X-92.1057 
X-91.9168 Y71.0688 
X-91.7388 Y71.1425 
X-91.5787 Y71.2495 
X-91.4425 Y71.3857 
X-91.3453 Y71.5312 
X-88.2724 
X-75.9372 Y59.1959 
X-75.9713 Y59.0243 
Y58.8317 
X-75.9337 Y58.6428 
X-75.8600 Y58.4648 
X-75.7530 Y58.3047 
X-75.6168 Y58.1685 
X-75.4567 Y58.0615 
X-75.2787 Y57.9878 
X-75.0898 Y57.9502 
X-74.8972 
X-74.7083 Y57.9878 
X-74.5303 Y58.0615 
X-74.3702 Y58.1685 
X-74.2340 Y58.3047 
X-74.1270 Y58.4648 
X-74.0533 Y58.6428 
X-74.0157 Y58.8317 
Y59.0243 
X-74.0533 Y59.2132 
X-74.1270 Y59.3912 
X-74.2340 Y59.5513 
X-74.3702 Y59.6875 
G00 Z2.5400  
G00 X-81.1138 Y59.2241 
G01 Z-0.1778 F254   
G01 X-81.2481 Y59.3216 F508   
G01 X-81.3959 Y59.3970 
X-81.5537 Y59.4482 
X-81.7176 Y59.4742 
X-83.6364 
X-83.8003 Y59.4482 
X-83.9581 Y59.3970 
X-84.1059 Y59.3216 
X-84.2402 Y59.2241 
X-84.3575 Y59.1068 
X-84.4550 Y58.9725 
X-84.5304 Y58.8247 
X-84.5816 Y58.6669 
X-84.6076 Y58.5030 
Y58.3370 
X-84.5816 Y58.1731 
X-84.5304 Y58.0153 
X-84.4550 Y57.8675 
X-84.3575 Y57.7332 
X-84.2402 Y57.6159 
X-84.1059 Y57.5184 
X-83.9581 Y57.4430 
X-83.8003 Y57.3918 
X-83.6364 Y57.3658 
X-81.7176 
X-81.5537 Y57.3918 
X-81.3959 Y57.4430 
X-81.2481 Y57.5184 
X-81.1138 Y57.6159 
X-80.9965 Y57.7332 
X-80.8990 Y57.8675 
X-80.8236 Y58.0153 
X-80.7724 Y58.1731 
X-80.7464 Y58.3370 
Y58.5030 
X-80.7724 Y58.6669 
X-80.8236 Y58.8247 
X-80.8990 Y58.9725 
X-80.9965 Y59.1068 
X-81.1138 Y59.2241 
G00 Z2.5400  
G00 X-81.1138 Y60.1559 
G01 Z-0.1778 F254   
G01 X-80.9965 Y60.2732 F508   
G01 X-80.8990 Y60.4075 
X-80.8236 Y60.5553 
X-80.7724 Y60.7131 
X-80.7464 Y60.8770 
Y61.0430 
X-80.7724 Y61.2069 
X-80.8236 Y61.3647 
X-80.8990 Y61.5125 
X-80.9965 Y61.6468 
X-81.1138 Y61.7641 
X-81.2481 Y61.8616 
X-81.3959 Y61.9370 
X-81.5537 Y61.9882 
X-81.7176 Y62.0142 
X-83.6364 
X-83.8003 Y61.9882 
X-83.9581 Y61.9370 
X-84.1059 Y61.8616 
X-84.2402 Y61.7641 
X-84.3575 Y61.6468 
X-84.4550 Y61.5125 
X-84.5304 Y61.3647 
X-84.5816 Y61.2069 
X-84.6076 Y61.0430 
Y60.8770 
X-84.5816 Y60.7131 
X-84.5304 Y60.5553 
X-84.4550 Y60.4075 
X-84.3575 Y60.2732 
X-84.2402 Y60.1559 
X-84.1059 Y60.0584 
X-83.9581 Y59.9830 
X-83.8003 Y59.9318 
X-83.6364 Y59.9058 
X-81.7176 
X-81.5537 Y59.9318 
X-81.3959 Y59.9830 
X-81.2481 Y60.0584 
X-81.1138 Y60.1559 
G00 Z2.5400  
G00 X-81.1138 Y56.6841 
G01 Z-0.1778 F254   
G01 X-81.2481 Y56.7816 F508   
G01 X-81.3959 Y56.8570 
X-81.5537 Y56.9082 
X-81.7176 Y56.9342 
X-83.6364 
X-83.8003 Y56.9082 
X-83.9581 Y56.8570 
X-84.1059 Y56.7816 
X-84.2402 Y56.6841 
X-84.3575 Y56.5668 
X-84.4550 Y56.4325 
X-84.4931 Y56.3578 
X-101.2184 
X-101.3399 Y56.3252 
X-101.4489 Y56.2623 
X-123.6071 Y34.1041 
X-123.7567 Y34.1278 
X-123.9373 
X-124.1158 Y34.0995 
X-124.2876 Y34.0437 
X-124.4486 Y33.9617 
X-124.5947 Y33.8555 
X-124.7225 Y33.7277 
X-124.8287 Y33.5816 
X-124.9107 Y33.4206 
X-124.9665 Y33.2488 
X-124.9948 Y33.0703 
Y32.8897 
X-124.9665 Y32.7112 
X-124.9107 Y32.5394 
X-124.8287 Y32.3784 
X-124.7225 Y32.2323 
X-124.5947 Y32.1045 
X-124.4486 Y31.9983 
X-124.2876 Y31.9163 
X-124.1158 Y31.8605 
X-123.9373 Y31.8322 
X-123.7567 
X-123.5782 Y31.8605 
X-123.4064 Y31.9163 
X-123.2454 Y31.9983 
X-123.0993 Y32.1045 
X-122.9715 Y32.2323 
X-122.8653 Y32.3784 
X-122.7833 Y32.5394 
X-122.7275 Y32.7112 
X-122.6992 Y32.8897 
Y33.0703 
X-122.7275 Y33.2488 
X-122.7833 Y33.4206 
X-122.8359 Y33.5239 
X-100.9576 Y55.4022 
X-84.4931 
X-84.4550 Y55.3275 
X-84.3575 Y55.1932 
X-84.2402 Y55.0759 
X-84.1059 Y54.9784 
X-83.9581 Y54.9030 
X-83.8003 Y54.8518 
X-83.6364 Y54.8258 
X-81.7176 
X-81.5537 Y54.8518 
X-81.3959 Y54.9030 
X-81.2481 Y54.9784 
X-81.1138 Y55.0759 
X-80.9965 Y55.1932 
X-80.8990 Y55.3275 
X-80.8236 Y55.4753 
X-80.7724 Y55.6331 
X-80.7464 Y55.7970 
Y55.9630 
X-80.7724 Y56.1269 
X-80.8236 Y56.2847 
X-80.8990 Y56.4325 
X-80.9965 Y56.5668 
X-81.1138 Y56.6841 
G00 Z2.5400  
G00 X-81.1138 Y54.1441 
G01 Z-0.1778 F254   
G01 X-81.2481 Y54.2416 F508   
G01 X-81.3959 Y54.3170 
X-81.5537 Y54.3682 
X-81.7176 Y54.3942 
X-83.6364 
X-83.8003 Y54.3682 
X-83.9581 Y54.3170 
X-84.1059 Y54.2416 
X-84.2402 Y54.1441 
X-84.3575 Y54.0268 
X-84.4550 Y53.8925 
X-84.4931 Y53.8178 
X-101.2184 
X-101.3399 Y53.7852 
X-101.4489 Y53.7223 
X-121.0671 Y34.1041 
X-121.2167 Y34.1278 
X-121.3973 
X-121.5758 Y34.0995 
X-121.7476 Y34.0437 
X-121.9086 Y33.9617 
X-122.0547 Y33.8555 
X-122.1825 Y33.7277 
X-122.2887 Y33.5816 
X-122.3707 Y33.4206 
X-122.4265 Y33.2488 
X-122.4548 Y33.0703 
Y32.8897 
X-122.4265 Y32.7112 
X-122.3707 Y32.5394 
X-122.2887 Y32.3784 
X-122.1825 Y32.2323 
X-122.0547 Y32.1045 
X-121.9086 Y31.9983 
X-121.7476 Y31.9163 
X-121.5758 Y31.8605 
X-121.3973 Y31.8322 
X-121.2167 
X-121.0382 Y31.8605 
X-120.8664 Y31.9163 
X-120.7054 Y31.9983 
X-120.5593 Y32.1045 
X-120.4315 Y32.2323 
X-120.3253 Y32.3784 
X-120.2433 Y32.5394 
X-120.1875 Y32.7112 
X-120.1592 Y32.8897 
Y33.0703 
X-120.1875 Y33.2488 
X-120.2433 Y33.4206 
X-120.2959 Y33.5239 
X-100.9576 Y52.8622 
X-84.4931 
X-84.4550 Y52.7875 
X-84.3575 Y52.6532 
X-84.2402 Y52.5359 
X-84.1059 Y52.4384 
X-83.9581 Y52.3630 
X-83.8003 Y52.3118 
X-83.6364 Y52.2858 
X-81.7176 
X-81.5537 Y52.3118 
X-81.3959 Y52.3630 
X-81.2481 Y52.4384 
X-81.1138 Y52.5359 
X-80.9965 Y52.6532 
X-80.8990 Y52.7875 
X-80.8236 Y52.9353 
X-80.7724 Y53.0931 
X-80.7464 Y53.2570 
Y53.4230 
X-80.7724 Y53.5869 
X-80.8236 Y53.7447 
X-80.8990 Y53.8925 
X-80.9965 Y54.0268 
X-81.1138 Y54.1441 
G00 Z2.5400  
G00 X-81.1138 Y51.6041 
G01 Z-0.1778 F254   
G01 X-81.2481 Y51.7016 F508   
G01 X-81.3959 Y51.7770 
X-81.5537 Y51.8282 
X-81.7176 Y51.8542 
X-83.6364 
X-83.8003 Y51.8282 
X-83.9581 Y51.7770 
X-84.1059 Y51.7016 
X-84.2402 Y51.6041 
X-84.3575 Y51.4868 
X-84.4550 Y51.3525 
X-84.4931 Y51.2778 
X-101.2184 
X-101.3399 Y51.2452 
X-101.4489 Y51.1823 
X-118.5271 Y34.1041 
X-118.6767 Y34.1278 
X-118.8573 
X-119.0358 Y34.0995 
X-119.2076 Y34.0437 
X-119.3686 Y33.9617 
X-119.5147 Y33.8555 
X-119.6425 Y33.7277 
X-119.7487 Y33.5816 
X-119.8307 Y33.4206 
X-119.8865 Y33.2488 
X-119.9148 Y33.0703 
Y32.8897 
X-119.8865 Y32.7112 
X-119.8307 Y32.5394 
X-119.7487 Y32.3784 
X-119.6425 Y32.2323 
X-119.5147 Y32.1045 
X-119.3686 Y31.9983 
X-119.2076 Y31.9163 
X-119.0358 Y31.8605 
X-118.8573 Y31.8322 
X-118.6767 
X-118.4982 Y31.8605 
X-118.3264 Y31.9163 
X-118.1654 Y31.9983 
X-118.0193 Y32.1045 
X-117.8915 Y32.2323 
X-117.7853 Y32.3784 
X-117.7033 Y32.5394 
X-117.6475 Y32.7112 
X-117.6192 Y32.8897 
Y33.0703 
X-117.6475 Y33.2488 
X-117.7033 Y33.4206 
X-117.7559 Y33.5239 
X-100.9576 Y50.3222 
X-84.4931 
X-84.4550 Y50.2475 
X-84.3575 Y50.1132 
X-84.2402 Y49.9959 
X-84.1059 Y49.8984 
X-83.9581 Y49.8230 
X-83.8003 Y49.7718 
X-83.6364 Y49.7458 
X-81.7176 
X-81.5537 Y49.7718 
X-81.3959 Y49.8230 
X-81.2481 Y49.8984 
X-81.1138 Y49.9959 
X-80.9965 Y50.1132 
X-80.8990 Y50.2475 
X-80.8236 Y50.3953 
X-80.7724 Y50.5531 
X-80.7464 Y50.7170 
Y50.8830 
X-80.7724 Y51.0469 
X-80.8236 Y51.2047 
X-80.8990 Y51.3525 
X-80.9965 Y51.4868 
X-81.1138 Y51.6041 
G00 Z2.5400  
G00 X-81.1138 Y49.0641 
G01 Z-0.1778 F254   
G01 X-81.2481 Y49.1616 F508   
G01 X-81.3959 Y49.2370 
X-81.5537 Y49.2882 
X-81.7176 Y49.3142 
X-83.6364 
X-83.8003 Y49.2882 
X-83.9581 Y49.2370 
X-84.1059 Y49.1616 
X-84.2402 Y49.0641 
X-84.3575 Y48.9468 
X-84.4550 Y48.8125 
X-84.4931 Y48.7378 
X-101.2184 
X-101.3399 Y48.7052 
X-101.4489 Y48.6423 
X-115.9871 Y34.1041 
X-116.1367 Y34.1278 
X-116.3173 
X-116.4958 Y34.0995 
X-116.6676 Y34.0437 
X-116.8286 Y33.9617 
X-116.9747 Y33.8555 
X-117.1025 Y33.7277 
X-117.2087 Y33.5816 
X-117.2907 Y33.4206 
X-117.3465 Y33.2488 
X-117.3748 Y33.0703 
Y32.8897 
X-117.3465 Y32.7112 
X-117.2907 Y32.5394 
X-117.2087 Y32.3784 
X-117.1025 Y32.2323 
X-116.9747 Y32.1045 
X-116.8286 Y31.9983 
X-116.6676 Y31.9163 
X-116.4958 Y31.8605 
X-116.3173 Y31.8322 
X-116.1367 
X-115.9582 Y31.8605 
X-115.7864 Y31.9163 
X-115.6254 Y31.9983 
X-115.4793 Y32.1045 
X-115.3515 Y32.2323 
X-115.2453 Y32.3784 
X-115.1633 Y32.5394 
X-115.1075 Y32.7112 
X-115.0792 Y32.8897 
Y33.0703 
X-115.1075 Y33.2488 
X-115.1633 Y33.4206 
X-115.2159 Y33.5239 
X-100.9576 Y47.7822 
X-84.4931 
X-84.4550 Y47.7075 
X-84.3575 Y47.5732 
X-84.2402 Y47.4559 
X-84.1059 Y47.3584 
X-83.9581 Y47.2830 
X-83.8003 Y47.2318 
X-83.6364 Y47.2058 
X-81.7176 
X-81.5537 Y47.2318 
X-81.3959 Y47.2830 
X-81.2481 Y47.3584 
X-81.1138 Y47.4559 
X-80.9965 Y47.5732 
X-80.8990 Y47.7075 
X-80.8236 Y47.8553 
X-80.7724 Y48.0131 
X-80.7464 Y48.1770 
Y48.3430 
X-80.7724 Y48.5069 
X-80.8236 Y48.6647 
X-80.8990 Y48.8125 
X-80.9965 Y48.9468 
X-81.1138 Y49.0641 
G00 Z2.5400  
G00 X-81.1138 Y46.5241 
G01 Z-0.1778 F254   
G01 X-81.2481 Y46.6216 F508   
G01 X-81.3959 Y46.6970 
X-81.5537 Y46.7482 
X-81.7176 Y46.7742 
X-83.6364 
X-83.8003 Y46.7482 
X-83.9581 Y46.6970 
X-84.1059 Y46.6216 
X-84.2402 Y46.5241 
X-84.3575 Y46.4068 
X-84.4550 Y46.2725 
X-84.4931 Y46.1978 
X-101.2184 
X-101.3399 Y46.1652 
X-101.4489 Y46.1023 
X-113.4471 Y34.1041 
X-113.5967 Y34.1278 
X-113.7773 
X-113.9558 Y34.0995 
X-114.1276 Y34.0437 
X-114.2886 Y33.9617 
X-114.4347 Y33.8555 
X-114.5625 Y33.7277 
X-114.6687 Y33.5816 
X-114.7507 Y33.4206 
X-114.8065 Y33.2488 
X-114.8348 Y33.0703 
Y32.8897 
X-114.8065 Y32.7112 
X-114.7507 Y32.5394 
X-114.6687 Y32.3784 
X-114.5625 Y32.2323 
X-114.4347 Y32.1045 
X-114.2886 Y31.9983 
X-114.1276 Y31.9163 
X-113.9558 Y31.8605 
X-113.7773 Y31.8322 
X-113.5967 
X-113.4182 Y31.8605 
X-113.2464 Y31.9163 
X-113.0854 Y31.9983 
X-112.9393 Y32.1045 
X-112.8115 Y32.2323 
X-112.7053 Y32.3784 
X-112.6233 Y32.5394 
X-112.5675 Y32.7112 
X-112.5392 Y32.8897 
Y33.0703 
X-112.5675 Y33.2488 
X-112.6233 Y33.4206 
X-112.6759 Y33.5239 
X-100.9576 Y45.2422 
X-84.4931 
X-84.4550 Y45.1675 
X-84.3575 Y45.0332 
X-84.2402 Y44.9159 
X-84.1059 Y44.8184 
X-83.9581 Y44.7430 
X-83.8003 Y44.6918 
X-83.6364 Y44.6658 
X-81.7176 
X-81.5537 Y44.6918 
X-81.3959 Y44.7430 
X-81.2481 Y44.8184 
X-81.1138 Y44.9159 
X-80.9965 Y45.0332 
X-80.8990 Y45.1675 
X-80.8236 Y45.3153 
X-80.7724 Y45.4731 
X-80.7464 Y45.6370 
Y45.8030 
X-80.7724 Y45.9669 
X-80.8236 Y46.1247 
X-80.8990 Y46.2725 
X-80.9965 Y46.4068 
X-81.1138 Y46.5241 
G00 Z2.5400  
G00 X-81.1138 Y43.9841 
G01 Z-0.1778 F254   
G01 X-81.2481 Y44.0816 F508   
G01 X-81.3959 Y44.1570 
X-81.5537 Y44.2082 
X-81.7176 Y44.2342 
X-83.6364 
X-83.8003 Y44.2082 
X-83.9581 Y44.1570 
X-84.1059 Y44.0816 
X-84.2402 Y43.9841 
X-84.3575 Y43.8668 
X-84.4550 Y43.7325 
X-84.4931 Y43.6578 
X-89.0899 
X-89.2114 Y43.6252 
X-89.3204 Y43.5623 
X-100.7135 Y32.1692 
X-101.5287 
X-102.1462 Y31.5517 
Y30.6783 
X-101.5287 Y30.0608 
X-100.6553 
X-100.0378 Y30.6783 
Y31.4935 
X-88.8291 Y42.7022 
X-84.4931 
X-84.4550 Y42.6275 
X-84.3575 Y42.4932 
X-84.2402 Y42.3759 
X-84.1059 Y42.2784 
X-83.9581 Y42.2030 
X-83.8003 Y42.1518 
X-83.6364 Y42.1258 
X-81.7176 
X-81.5537 Y42.1518 
X-81.3959 Y42.2030 
X-81.2481 Y42.2784 
X-81.1138 Y42.3759 
X-80.9965 Y42.4932 
X-80.8990 Y42.6275 
X-80.8236 Y42.7753 
X-80.7724 Y42.9331 
X-80.7464 Y43.0970 
Y43.2630 
X-80.7724 Y43.4269 
X-80.8236 Y43.5847 
X-80.8990 Y43.7325 
X-80.9965 Y43.8668 
X-81.1138 Y43.9841 
G00 Z2.5400  
G00 X-81.1138 Y41.4441 
G01 Z-0.1778 F254   
G01 X-81.2481 Y41.5416 F508   
G01 X-81.3959 Y41.6170 
X-81.5537 Y41.6682 
X-81.7176 Y41.6942 
X-83.6364 
X-83.8003 Y41.6682 
X-83.9581 Y41.6170 
X-84.1059 Y41.5416 
X-84.2402 Y41.4441 
X-84.3575 Y41.3268 
X-84.4550 Y41.1925 
X-84.5304 Y41.0447 
X-84.5816 Y40.8869 
X-84.6076 Y40.7230 
Y40.5570 
X-84.5958 Y40.4828 
X-88.6476 
X-88.7557 Y40.6446 
X-88.8954 Y40.7843 
X-89.0598 Y40.8941 
X-89.2423 Y40.9697 
X-89.4362 Y41.0083 
X-89.6338 
X-89.8277 Y40.9697 
X-90.0102 Y40.8941 
X-90.1746 Y40.7843 
X-90.3143 Y40.6446 
X-90.4241 Y40.4802 
X-90.4997 Y40.2976 
X-90.5383 Y40.1038 
Y39.9062 
X-90.4997 Y39.7123 
X-90.4241 Y39.5298 
X-90.3143 Y39.3654 
X-90.1746 Y39.2257 
X-90.0102 Y39.1159 
X-89.8277 Y39.0403 
X-89.6338 Y39.0017 
X-89.4362 
X-89.2423 Y39.0403 
X-89.0598 Y39.1159 
X-88.8954 Y39.2257 
X-88.7557 Y39.3654 
X-88.6476 Y39.5272 
X-83.2491 
X-83.1276 Y39.5598 
X-83.0825 Y39.5858 
X-81.7176 
X-81.5537 Y39.6118 
X-81.3959 Y39.6630 
X-81.2481 Y39.7384 
X-81.1138 Y39.8359 
X-80.9965 Y39.9532 
X-80.8990 Y40.0875 
X-80.8236 Y40.2353 
X-80.7724 Y40.3931 
X-80.7464 Y40.5570 
Y40.7230 
X-80.7724 Y40.8869 
X-80.8236 Y41.0447 
X-80.8990 Y41.1925 
X-80.9965 Y41.3268 
X-81.1138 Y41.4441 
G00 Z2.5400  
G00 X-81.1138 Y33.8241 
G01 Z-0.1778 F254   
G01 X-81.2481 Y33.9216 F508   
G01 X-81.3959 Y33.9970 
X-81.5537 Y34.0482 
X-81.7176 Y34.0742 
X-83.6364 
X-83.8003 Y34.0482 
X-83.9581 Y33.9970 
X-84.1059 Y33.9216 
X-84.2402 Y33.8241 
X-84.3575 Y33.7068 
X-84.4550 Y33.5725 
X-84.5304 Y33.4247 
X-84.5816 Y33.2669 
X-84.6076 Y33.1030 
Y32.9370 
X-84.5816 Y32.7731 
X-84.5304 Y32.6153 
X-84.4550 Y32.4675 
X-84.3575 Y32.3332 
X-84.2402 Y32.2159 
X-84.1059 Y32.1184 
X-83.9581 Y32.0430 
X-83.8003 Y31.9918 
X-83.6364 Y31.9658 
X-81.7176 
X-81.5537 Y31.9918 
X-81.3959 Y32.0430 
X-81.2481 Y32.1184 
X-81.1138 Y32.2159 
X-80.9965 Y32.3332 
X-80.8990 Y32.4675 
X-80.8236 Y32.6153 
X-80.7724 Y32.7731 
X-80.7464 Y32.9370 
Y33.1030 
X-80.7724 Y33.2669 
X-80.8236 Y33.4247 
X-80.8990 Y33.5725 
X-80.9965 Y33.7068 
X-81.1138 Y33.8241 
G00 Z2.5400  
G00 X-81.1138 Y31.2841 
G01 Z-0.1778 F254   
G01 X-81.2481 Y31.3816 F508   
G01 X-81.3959 Y31.4570 
X-81.5537 Y31.5082 
X-81.7176 Y31.5342 
X-83.6364 
X-83.8003 Y31.5082 
X-83.9581 Y31.4570 
X-84.1059 Y31.3816 
X-84.2402 Y31.2841 
X-84.3575 Y31.1668 
X-84.4550 Y31.0325 
X-84.5304 Y30.8847 
X-84.5816 Y30.7269 
X-84.6076 Y30.5630 
Y30.3970 
X-84.5816 Y30.2331 
X-84.5304 Y30.0753 
X-84.4550 Y29.9275 
X-84.3575 Y29.7932 
X-84.2402 Y29.6759 
X-84.1059 Y29.5784 
X-83.9581 Y29.5030 
X-83.8003 Y29.4518 
X-83.6364 Y29.4258 
X-81.7176 
X-81.5537 Y29.4518 
X-81.3959 Y29.5030 
X-81.2481 Y29.5784 
X-81.1138 Y29.6759 
X-80.9965 Y29.7932 
X-80.8990 Y29.9275 
X-80.8236 Y30.0753 
X-80.7724 Y30.2331 
X-80.7464 Y30.3970 
Y30.5630 
X-80.7724 Y30.7269 
X-80.8236 Y30.8847 
X-80.8990 Y31.0325 
X-80.9965 Y31.1668 
X-81.1138 Y31.2841 
G00 Z2.5400  
G00 X-81.1138 Y28.7441 
G01 Z-0.1778 F254   
G01 X-81.2481 Y28.8416 F508   
G01 X-81.3959 Y28.9170 
X-81.5537 Y28.9682 
X-81.7176 Y28.9942 
X-83.6364 
X-83.8003 Y28.9682 
X-83.9581 Y28.9170 
X-84.1059 Y28.8416 
X-84.2402 Y28.7441 
X-84.3575 Y28.6268 
X-84.4550 Y28.4925 
X-84.5304 Y28.3447 
X-84.5816 Y28.1869 
X-84.6076 Y28.0230 
Y27.8570 
X-84.5816 Y27.6931 
X-84.5304 Y27.5353 
X-84.4550 Y27.3875 
X-84.3575 Y27.2532 
X-84.2402 Y27.1359 
X-84.1059 Y27.0384 
X-83.9581 Y26.9630 
X-83.8003 Y26.9118 
X-83.6364 Y26.8858 
X-81.7176 
X-81.5537 Y26.9118 
X-81.3959 Y26.9630 
X-81.2481 Y27.0384 
X-81.1138 Y27.1359 
X-80.9965 Y27.2532 
X-80.8990 Y27.3875 
X-80.8236 Y27.5353 
X-80.7724 Y27.6931 
X-80.7464 Y27.8570 
Y28.0230 
X-80.7724 Y28.1869 
X-80.8236 Y28.3447 
X-80.8990 Y28.4925 
X-80.9965 Y28.6268 
X-81.1138 Y28.7441 
G00 Z2.5400  
G00 X-81.1138 Y26.2041 
G01 Z-0.1778 F254   
G01 X-81.2481 Y26.3016 F508   
G01 X-81.3959 Y26.3770 
X-81.5537 Y26.4282 
X-81.7176 Y26.4542 
X-83.6364 
X-83.8003 Y26.4282 
X-83.9581 Y26.3770 
X-84.1059 Y26.3016 
X-84.2402 Y26.2041 
X-84.3575 Y26.0868 
X-84.4550 Y25.9525 
X-84.5304 Y25.8047 
X-84.5816 Y25.6469 
X-84.6076 Y25.4830 
Y25.3170 
X-84.5816 Y25.1531 
X-84.5304 Y24.9953 
X-84.4550 Y24.8475 
X-84.3575 Y24.7132 
X-84.2402 Y24.5959 
X-84.1059 Y24.4984 
X-83.9581 Y24.4230 
X-83.8003 Y24.3718 
X-83.6364 Y24.3458 
X-81.7176 
X-81.5537 Y24.3718 
X-81.3959 Y24.4230 
X-81.2481 Y24.4984 
X-81.1138 Y24.5959 
X-80.9965 Y24.7132 
X-80.8990 Y24.8475 
X-80.8236 Y24.9953 
X-80.7724 Y25.1531 
X-80.7464 Y25.3170 
Y25.4830 
X-80.7724 Y25.6469 
X-80.8236 Y25.8047 
X-80.8990 Y25.9525 
X-80.9965 Y26.0868 
X-81.1138 Y26.2041 
G00 Z2.5400  
G00 X-81.1138 Y23.6641 
G01 Z-0.1778 F254   
G01 X-81.2481 Y23.7616 F508   
G01 X-81.3959 Y23.8370 
X-81.5537 Y23.8882 
X-81.7176 Y23.9142 
X-83.6364 
X-83.8003 Y23.8882 
X-83.9581 Y23.8370 
X-84.1059 Y23.7616 
X-84.2402 Y23.6641 
X-84.3575 Y23.5468 
X-84.4550 Y23.4125 
X-84.5304 Y23.2647 
X-84.5816 Y23.1069 
X-84.6076 Y22.9430 
Y22.7770 
X-84.5816 Y22.6131 
X-84.5304 Y22.4553 
X-84.4550 Y22.3075 
X-84.3575 Y22.1732 
X-84.2402 Y22.0559 
X-84.1059 Y21.9584 
X-83.9581 Y21.8830 
X-83.8003 Y21.8318 
X-83.6364 Y21.8058 
X-81.7176 
X-81.5537 Y21.8318 
X-81.3959 Y21.8830 
X-81.2481 Y21.9584 
X-81.1138 Y22.0559 
X-80.9965 Y22.1732 
X-80.8990 Y22.3075 
X-80.8236 Y22.4553 
X-80.7724 Y22.6131 
X-80.7464 Y22.7770 
Y22.9430 
X-80.7724 Y23.1069 
X-80.8236 Y23.2647 
X-80.8990 Y23.4125 
X-80.9965 Y23.5468 
X-81.1138 Y23.6641 
G00 Z2.5400  
G00 X-81.1138 Y21.1241 
G01 Z-0.1778 F254   
G01 X-81.2481 Y21.2216 F508   
G01 X-81.3959 Y21.2970 
X-81.5537 Y21.3482 
X-81.7176 Y21.3742 
X-83.6364 
X-83.8003 Y21.3482 
X-83.9581 Y21.2970 
X-84.1059 Y21.2216 
X-84.2402 Y21.1241 
X-84.3575 Y21.0068 
X-84.4550 Y20.8725 
X-84.5304 Y20.7247 
X-84.5816 Y20.5669 
X-84.6076 Y20.4030 
Y20.2370 
X-84.5816 Y20.0731 
X-84.5304 Y19.9153 
X-84.4550 Y19.7675 
X-84.3575 Y19.6332 
X-84.2402 Y19.5159 
X-84.1059 Y19.4184 
X-83.9581 Y19.3430 
X-83.8003 Y19.2918 
X-83.6364 Y19.2658 
X-81.7176 
X-81.5537 Y19.2918 
X-81.3959 Y19.3430 
X-81.2481 Y19.4184 
X-81.1138 Y19.5159 
X-80.9965 Y19.6332 
X-80.8990 Y19.7675 
X-80.8236 Y19.9153 
X-80.7724 Y20.0731 
X-80.7464 Y20.2370 
Y20.4030 
X-80.7724 Y20.5669 
X-80.8236 Y20.7247 
X-80.8990 Y20.8725 
X-80.9965 Y21.0068 
X-81.1138 Y21.1241 
G00 Z2.5400  
G00 X-81.1138 Y18.5841 
G01 Z-0.1778 F254   
G01 X-81.2481 Y18.6816 F508   
G01 X-81.3959 Y18.7570 
X-81.5537 Y18.8082 
X-81.7176 Y18.8342 
X-83.6364 
X-83.8003 Y18.8082 
X-83.9581 Y18.7570 
X-84.1059 Y18.6816 
X-84.2402 Y18.5841 
X-84.3575 Y18.4668 
X-84.4550 Y18.3325 
X-84.4931 Y18.2578 
X-88.0104 
X-88.1319 Y18.2252 
X-88.2409 Y18.1623 
X-88.3298 Y18.0734 
X-92.2729 Y14.1303 
X-95.6236 
X-97.1217 Y15.6284 
Y19.5574 
X-97.1543 Y19.6789 
X-97.2172 Y19.7879 
X-98.3602 Y20.9309 
X-98.4491 Y21.0198 
X-98.5581 Y21.0827 
X-98.6796 Y21.1153 
X-106.3619 
X-106.4834 Y21.0827 
X-106.5924 Y21.0198 
X-110.7200 Y16.8922 
X-110.8114 Y16.9387 
X-110.9832 Y16.9945 
X-111.1617 Y17.0228 
X-111.3423 
X-111.5208 Y16.9945 
X-111.6926 Y16.9387 
X-111.8536 Y16.8567 
X-111.9997 Y16.7505 
X-112.1275 Y16.6227 
X-112.2337 Y16.4766 
X-112.3157 Y16.3156 
X-112.3715 Y16.1438 
X-112.3998 Y15.9653 
Y15.7847 
X-112.3715 Y15.6062 
X-112.3157 Y15.4344 
X-112.2337 Y15.2734 
X-112.1275 Y15.1273 
X-111.9997 Y14.9995 
X-111.8536 Y14.8933 
X-111.6926 Y14.8113 
X-111.5208 Y14.7555 
X-111.3423 Y14.7272 
X-111.1617 
X-110.9832 Y14.7555 
X-110.8114 Y14.8113 
X-110.6504 Y14.8933 
X-110.5043 Y14.9995 
X-110.3765 Y15.1273 
X-110.2703 Y15.2734 
X-110.1883 Y15.4344 
X-110.1325 Y15.6062 
X-110.1042 Y15.7847 
Y15.9653 
X-110.1304 Y16.1304 
X-106.1011 Y20.1597 
X-98.9404 
X-98.0773 Y19.2966 
Y15.3676 
X-98.0447 Y15.2461 
X-97.9818 Y15.1371 
X-97.8929 Y15.0482 
X-96.1149 Y13.2702 
X-96.0059 Y13.2073 
X-95.8844 Y13.1747 
X-92.0121 
X-91.8906 Y13.2073 
X-91.7816 Y13.2702 
X-91.6927 Y13.3591 
X-87.7496 Y17.3022 
X-84.4931 
X-84.4550 Y17.2275 
X-84.3575 Y17.0932 
X-84.2402 Y16.9759 
X-84.1059 Y16.8784 
X-83.9581 Y16.8030 
X-83.8003 Y16.7518 
X-83.6364 Y16.7258 
X-81.7176 
X-81.5537 Y16.7518 
X-81.3959 Y16.8030 
X-81.2481 Y16.8784 
X-81.1138 Y16.9759 
X-80.9965 Y17.0932 
X-80.8990 Y17.2275 
X-80.8236 Y17.3753 
X-80.7724 Y17.5331 
X-80.7464 Y17.6970 
Y17.8630 
X-80.7724 Y18.0269 
X-80.8236 Y18.1847 
X-80.8990 Y18.3325 
X-80.9965 Y18.4668 
X-81.1138 Y18.5841 
G00 Z2.5400  
G00 X-81.1138 Y16.0441 
G01 Z-0.1778 F254   
G01 X-81.2481 Y16.1416 F508   
G01 X-81.3959 Y16.2170 
X-81.5537 Y16.2682 
X-81.7176 Y16.2942 
X-83.6364 
X-83.8003 Y16.2682 
X-83.9581 Y16.2170 
X-84.1059 Y16.1416 
X-84.2402 Y16.0441 
X-84.3575 Y15.9268 
X-84.4550 Y15.7925 
X-84.5304 Y15.6447 
X-84.5816 Y15.4869 
X-84.6076 Y15.3230 
Y15.1570 
X-84.5816 Y14.9931 
X-84.5304 Y14.8353 
X-84.4550 Y14.6875 
X-84.3575 Y14.5532 
X-84.2402 Y14.4359 
X-84.1059 Y14.3384 
X-83.9581 Y14.2630 
X-83.8003 Y14.2118 
X-83.6364 Y14.1858 
X-81.7176 
X-81.5537 Y14.2118 
X-81.3959 Y14.2630 
X-81.2481 Y14.3384 
X-81.1138 Y14.4359 
X-80.9965 Y14.5532 
X-80.8990 Y14.6875 
X-80.8236 Y14.8353 
X-80.7724 Y14.9931 
X-80.7464 Y15.1570 
Y15.3230 
X-80.7724 Y15.4869 
X-80.8236 Y15.6447 
X-80.8990 Y15.7925 
X-80.9965 Y15.9268 
X-81.1138 Y16.0441 
G00 Z2.5400  
G00 X-81.1138 Y13.5041 
G01 Z-0.1778 F254   
G01 X-81.2481 Y13.6016 F508   
G01 X-81.3959 Y13.6770 
X-81.5537 Y13.7282 
X-81.7176 Y13.7542 
X-83.6364 
X-83.8003 Y13.7282 
X-83.9581 Y13.6770 
X-84.1059 Y13.6016 
X-84.2402 Y13.5041 
X-84.3575 Y13.3868 
X-84.4550 Y13.2525 
X-84.5304 Y13.1047 
X-84.5816 Y12.9469 
X-84.6076 Y12.7830 
Y12.6170 
X-84.5816 Y12.4531 
X-84.5304 Y12.2953 
X-84.4550 Y12.1475 
X-84.3575 Y12.0132 
X-84.2402 Y11.8959 
X-84.1059 Y11.7984 
X-83.9581 Y11.7230 
X-83.8003 Y11.6718 
X-83.6364 Y11.6458 
X-81.7176 
X-81.5537 Y11.6718 
X-81.3959 Y11.7230 
X-81.2481 Y11.7984 
X-81.1138 Y11.8959 
X-80.9965 Y12.0132 
X-80.8990 Y12.1475 
X-80.8236 Y12.2953 
X-80.7724 Y12.4531 
X-80.7464 Y12.6170 
Y12.7830 
X-80.7724 Y12.9469 
X-80.8236 Y13.1047 
X-80.8990 Y13.2525 
X-80.9965 Y13.3868 
X-81.1138 Y13.5041 
G00 Z2.5400  
G00 X-90.2995 Y16.4582 
G01 Z-0.1778 F254   
G01 X-90.1925 Y16.6183 F508   
G01 X-90.1188 Y16.7963 
X-90.0812 Y16.9852 
Y17.1778 
X-90.1188 Y17.3667 
X-90.1925 Y17.5447 
X-90.2995 Y17.7048 
X-90.4357 Y17.8410 
X-90.5812 Y17.9382 
Y24.0659 
X-90.6138 Y24.1874 
X-90.6767 Y24.2964 
X-93.3437 Y26.9634 
X-93.4326 Y27.0523 
X-93.5416 Y27.1152 
X-93.6631 Y27.1478 
X-100.0789 
X-100.6553 Y27.7242 
X-101.5287 
X-102.1462 Y27.1067 
Y26.2333 
X-101.5287 Y25.6158 
X-100.6553 
X-100.0789 Y26.1922 
X-93.9239 
X-91.5368 Y23.8051 
Y17.9382 
X-91.6823 Y17.8410 
X-91.8185 Y17.7048 
X-91.9255 Y17.5447 
X-91.9992 Y17.3667 
X-92.0368 Y17.1778 
Y16.9852 
