(.../pcb-gcode-3.6.2.4/pcb-gcode.ulp)
(Copyright 2005 - 2012 by John Johnson)
(See readme.txt for licensing terms.)
(This file generated from the board:)
(.../3K_valdiklis_v1/3K_valdiklis_v1.2.brd)
(Current profile is .../pcb-gcode-3.6.2.4/profiles/mach.pp  )
(This file generated 2016.11.03 22:13:29)
(Settings from pcb-machine.h)
(spindle on time = 3.0000)
(spindle speed = 25000.0000)
(text depth = -0.1270)
(tool change at 0.0000  0.0000  25.4000 )
(feed rate xy = F254   )
(feed rate z  = F254   )
(Z Axis Settings)
(  High     Up        Down     Drill)
(12.7000 	2.5400  	-0.1778 	-1.5000 )
(Settings from pcb-defaults.h)
(isolate min = 0.0254)
(isolate max = 0.5080)
(isolate step = 0.1270)
(Generated top outlines, top drill, top stencil, bottom outlines, bottom stencil)
(Unit of measure: mm)
(Metric Mode)
G21
(Absolute Coordinates)
G90
S25000
G00 Z12.7000 
G00 X0.0000  Y0.0000  
M03
G04 P3.000000
G00 Z2.5400  
G00 X27.4802 Y39.5404 
G01 Z-0.1270 F254   
G01 X27.8397 Y39.9011 F254   
G01 X27.8385 Y40.6214 
X27.4777 Y40.9809 
X27.1176 
X26.7581 Y40.6195 
Y39.8992 
X26.3998 Y39.5385 
X26.0397 
X25.6789 Y39.8974 
Y40.6176 
X26.0371 Y40.9784 
G00 Z2.5400  
G00 X27.1223 Y38.2814 
G01 Z-0.1270 F254   
G01 X27.1235 Y37.5611 F254   
G01 X26.7640 Y37.2003 
X25.6836 
Y38.2788 
X26.0412 Y38.6396 
X26.4020 Y38.2801 
Y37.1997 
G00 Z2.5400  
G00 X27.1257 Y36.3027 
G01 Z-0.1270 F254   
G01 X26.0453 Y36.3008 F254   
G01 X25.6858 Y35.9400 
Y34.8596 
X27.1282 
G00 Z2.5400  
G00 X27.8501 Y33.9652 
G01 Z-0.1270 F254   
G01 X27.8507 Y33.6050 F254   
G01 X25.6899 Y33.6013 
G00 Z2.5400  
G00 X25.6893 Y33.9614 
G01 Z-0.1270 F254   
G01 X25.6905 Y33.2411 F254   
G00 Z2.5400  
G00 X25.6939 Y31.3218 
G01 Z-0.1270 F254   
G01 X25.6926 Y32.0421 F254   
G01 X26.0521 Y32.4028 
X26.7724 
X27.1332 Y32.0446 
Y31.3243 
X26.7749 Y30.9635 
X26.4148 
Y32.4035 
G00 Z2.5400  
G00 X27.8569 Y30.0672 
G01 Z-0.1270 F254   
G01 X26.4163 Y30.0647 F254   
G01 X25.6973 Y29.3431 
X26.4188 Y28.6241 
X27.8594 
G00 Z2.5400  
G00 X27.1407 Y27.7271 
G01 Z-0.1270 F254   
G01 X27.1413 Y27.3670 F254   
G01 X25.7008 Y27.3645 
G00 Z2.5400  
G00 X25.7001 Y27.7246 
G01 Z-0.1270 F254   
G01 X25.7014 Y27.0043 F254   
G00 Z2.5400  
G00 X28.2217 Y27.3689 
G01 Z-0.1270 F254   
G01 X27.8616 Y27.3682 F254   
G00 Z2.5400  
G00 X25.7029 Y26.1654 
G01 Z-0.1270 F254   
G01 X27.1434 Y26.1679 F254   
G00 Z2.5400  
G00 X26.4231 Y26.1667 
G01 Z-0.1270 F254   
G01 X27.1447 Y25.4476 F254   
G01 X27.1453 Y25.0875 
G00 Z2.5400  
G00 X25.7081 Y23.1360 
G01 Z-0.1270 F254   
G01 X25.7069 Y23.8563 F254   
G01 X26.0664 Y24.2170 
X26.7867 
X27.1474 Y23.8588 
Y23.1385 
X26.7892 Y22.7777 
X26.4290 
Y24.2177 
G00 Z2.5400  
G00 X25.7103 Y21.8776 
G01 Z-0.1270 F254   
G01 X26.0705 Y21.8783 F254   
G01 X26.0711 Y21.5181 
X25.7110 
Y21.8776 
G00 Z2.5400  
G00 X27.8732 Y20.7120 
G01 Z-0.1270 F254   
G01 X27.8738 Y20.3519 F254   
G01 X25.7130 Y20.3481 
G00 Z2.5400  
G00 X25.7124 Y20.7082 
G01 Z-0.1270 F254   
G01 X25.7136 Y19.9879 F254   
G00 Z2.5400  
G00 X27.5164 Y18.7920 
G01 Z-0.1270 F254   
G01 X26.0759 Y18.7895 F254   
G01 X25.7163 Y18.4288 
G00 Z2.5400  
G00 X27.1557 Y19.1515 
G01 Z-0.1270 F254   
G01 X27.1569 Y18.4313 F254   
G00 Z12.7000 
M05
M02
